assets/luts/archive_paper.cube
# Архивная бумага — каталоги, вырезки, документы
TITLE "archive_paper"
LUT_3D_SIZE 5
DOMAIN_MIN 0.0 0.0 0.0
DOMAIN_MAX 1.0 1.0 1.0
0.073005 0.069575 0.064402
0.179172 0.099848 0.094569
0.293025 0.131329 0.125951
0.411744 0.163715 0.158246
0.520192 0.193364 0.187820
0.177047 0.251581 0.167912
0.288534 0.284561 0.199875
0.405870 0.318517 0.232922
0.526111 0.353112 0.266730
0.634211 0.384500 0.297522
0.287262 0.447051 0.277747
0.402239 0.481138 0.310973
0.521173 0.515937 0.345141
0.641017 0.551087 0.379911
0.747023 0.582722 0.411422
0.401446 0.645916 0.391709
0.518034 0.679478 0.425650
0.636641 0.713451 0.460380
0.754131 0.747470 0.495545
0.856271 0.777829 0.527263
0.517590 0.838290 0.507790
0.633886 0.869676 0.541892
0.750217 0.901138 0.576616
0.863380 0.932322 0.611602
0.959867 0.959867 0.643009
0.082868 0.079414 0.145994
0.189634 0.109883 0.177630
0.303910 0.141548 0.210378
0.422861 0.174103 0.243918
0.531351 0.203891 0.274500
0.187500 0.262337 0.253927
0.299406 0.295421 0.286930
0.416980 0.329469 0.320906
0.537268 0.364139 0.355518
0.645242 0.395581 0.386918
0.298130 0.458199 0.366765
0.413345 0.492301 0.400599
0.532332 0.527097 0.435255
0.652035 0.562229 0.470382
0.757745 0.593833 0.502099
0.412552 0.656923 0.482270
0.529194 0.690407 0.516385
0.647667 0.724285 0.551159
0.764828 0.758191 0.586233
0.866502 0.788433 0.617753
0.528750 0.848616 0.598415
0.644917 0.879832 0.632253
0.760928 0.911105 0.666578
0.873571 0.942080 0.701024
0.969423 0.969423 0.731828
0.092388 0.088912 0.227668
0.199714 0.119565 0.260393
0.314378 0.151401 0.294126
0.433535 0.184114 0.328532
0.542049 0.214030 0.359782
0.197570 0.272686 0.338772
0.309862 0.305867 0.372452
0.427648 0.339997 0.406993
0.547963 0.374735 0.442047
0.655801 0.406225 0.473733
0.308583 0.468898 0.453409
0.424009 0.503008 0.487505
0.543030 0.537798 0.522303
0.662580 0.572907 0.557444
0.767992 0.604476 0.589061
0.423215 0.667458 0.569307
0.539894 0.700863 0.603267
0.658222 0.734644 0.637758
0.775049 0.768436 0.672416
0.876261 0.798562 0.703449
0.539450 0.858470 0.684423
0.655477 0.889517 0.717689
0.771163 0.920603 0.751303
0.883292 0.951374 0.784902
0.978518 0.978518 0.814831
0.101770 0.098273 0.310128
0.209627 0.129101 0.343617
0.324656 0.161100 0.378004
0.443998 0.193962 0.412945
0.552522 0.223999 0.444568
0.207475 0.282854 0.423319
0.320130 0.316125 0.457360
0.438107 0.350331 0.492145
0.558433 0.385131 0.527317
0.666122 0.416662 0.559002
0.318847 0.479381 0.538691
0.434465 0.513495 0.572741
0.553503 0.548273 0.607368
0.672887 0.583355 0.642209
0.777991 0.614887 0.673447
0.433670 0.677754 0.653943
0.550368 0.711076 0.687448
0.668538 0.744758 0.721352
0.785022 0.778434 0.755290
0.885768 0.808442 0.785564
0.549925 0.868071 0.767016
0.665799 0.898949 0.799418
0.781151 0.929848 0.832028
0.892760 0.960413 0.864484
0.987359 0.987359 0.893273
0.111074 0.107557 0.393086
0.219440 0.138553 0.427033
0.334813 0.170709 0.461766
0.454323 0.203714 0.496932
0.562842 0.233866 0.528649
0.217280 0.292908 0.507348
0.330277 0.326262 0.541450
0.448427 0.360539 0.576175
0.568748 0.395395 0.611163
0.676277 0.426964 0.642573
0.328991 0.489720 0.622450
0.444782 0.523833 0.656160
0.563821 0.558596 0.690319
0.683027 0.593647 0.724562
0.787814 0.625137 0.755152
0.443987 0.687883 0.736064
0.560689 0.721119 0.768828
0.678687 0.754698 0.801853
0.794818 0.788256 0.834777
0.895089 0.818143 0.864030
0.560246 0.877489 0.846121
0.675954 0.908196 0.877378
0.790962 0.938905 0.908697
0.902042 0.969263 0.939724
0.996009 0.996009 0.967116
