assets/luts/archive_paper.cube
# Архивная бумага — каталоги, вырезки, документы
TITLE "archive_paper"
LUT_3D_SIZE 9
DOMAIN_MIN 0.0 0.0 0.0
DOMAIN_MAX 1.0 1.0 1.0
0.073005 0.069575 0.064402
0.124900 0.084523 0.079297
0.179172 0.099848 0.094569
0.235333 0.115463 0.110134
0.293025 0.131329 0.125951
0.351930 0.147419 0.141994
0.411744 0.163715 0.158246
0.472170 0.180201 0.174689
0.520192 0.193364 0.187820
0.124093 0.158234 0.115204
0.177535 0.173969 0.130588
0.233142 0.190056 0.146334
0.290408 0.206405 0.162358
0.348967 0.222974 0.178615
0.408495 0.239735 0.195080
0.468683 0.256668 0.211734
0.529233 0.273756 0.228560
0.577173 0.287370 0.241978
0.177047 0.251581 0.167912
0.231818 0.267908 0.183718
0.288534 0.284561 0.199875
0.346676 0.301445 0.216290
0.405870 0.318517 0.232922
0.465785 0.335746 0.249742
0.526111 0.353112 0.266730
0.586544 0.370597 0.283870
0.634211 0.384500 0.297522
0.231530 0.348273 0.222185
0.287401 0.364993 0.238349
0.344994 0.382009 0.254847
0.403777 0.399225 0.271587
0.463368 0.416593 0.288525
0.523432 0.434084 0.305630
0.583654 0.451675 0.322884
0.643727 0.469350 0.340268
0.690927 0.483376 0.354098
0.287262 0.447051 0.277747
0.344003 0.463962 0.294200
0.402239 0.481138 0.310973
0.461425 0.498479 0.327969
0.521173 0.515937 0.345141
0.581143 0.533480 0.362463
0.641017 0.551087 0.379911
0.700485 0.568740 0.397469
0.747023 0.582722 0.411422
0.343985 0.546677 0.334339
0.401363 0.563577 0.351014
0.460004 0.580707 0.367992
0.519354 0.597965 0.385173
0.579017 0.615302 0.402511
0.638650 0.632688 0.419978
0.697930 0.650100 0.437550
0.756546 0.667519 0.455210
0.802225 0.681288 0.469229
0.401446 0.645916 0.391709
0.459226 0.662601 0.408538
0.518034 0.679478 0.425650
0.577306 0.696444 0.442947
0.636641 0.713451 0.460380
0.695691 0.730467 0.477920
0.754131 0.747470 0.495545
0.811648 0.764442 0.513236
0.856271 0.777829 0.527263
0.459397 0.743533 0.449609
0.517343 0.759799 0.466522
0.576078 0.776214 0.483700
0.635029 0.792678 0.501041
0.693792 0.809143 0.518498
0.752013 0.825578 0.536040
0.809366 0.841959 0.553645
0.865533 0.858268 0.571295
0.908903 0.871104 0.585273
0.517590 0.838290 0.507790
0.575465 0.853931 0.524719
0.633886 0.869676 0.541892
0.692273 0.885427 0.559207
0.750217 0.901138 0.576616
0.807363 0.916777 0.594088
0.863380 0.932322 0.611602
0.917948 0.947754 0.629137
0.959867 0.959867 0.643009
0.078010 0.074567 0.105362
0.130068 0.089567 0.120657
0.184483 0.104940 0.136318
0.240765 0.120604 0.152259
0.298554 0.136515 0.168438
0.357531 0.152650 0.184828
0.417393 0.168988 0.201409
0.477842 0.185515 0.218168
0.525864 0.198708 0.231535
0.129259 0.163494 0.157448
0.182843 0.179268 0.173176
0.238570 0.195393 0.189258
0.295933 0.211779 0.205602
0.354565 0.228382 0.222166
0.414142 0.245175 0.238921
0.474354 0.262138 0.255849
0.534903 0.279255 0.272933
0.582825 0.292890 0.286544
0.182354 0.257043 0.211263
0.237243 0.273398 0.227361
0.294056 0.290077 0.243797
0.352272 0.306986 0.260478
0.411515 0.324080 0.277360
0.471456 0.341329 0.294414
0.531782 0.358714 0.311620
0.592191 0.376216 0.328961
0.639820 0.390130 0.342761
0.236954 0.353870 0.266463
0.292921 0.370606 0.282864
0.350588 0.387637 0.299586
0.409421 0.404866 0.316536
0.469038 0.422245 0.333667
0.529104 0.439744 0.350951
0.589302 0.457342 0.368365
0.649327 0.475022 0.385894
0.696470 0.489049 0.399827
0.292782 0.452716 0.322768
0.349596 0.469633 0.339404
0.407882 0.486811 0.356345
0.467095 0.504153 0.373495
0.526845 0.521609 0.390805
0.586793 0.539150 0.408248
0.646620 0.556751 0.425800
0.706015 0.574397 0.443446
0.752477 0.588371 0.457456
0.349578 0.552342 0.379918
0.407005 0.569236 0.396721
0.465673 0.586357 0.413811
0.525026 0.603604 0.431090
0.584668 0.620928 0.448510
0.644255 0.638299 0.466041
0.703464 0.655693 0.483660
0.761983 0.673092 0.501351
0.807567 0.686844 0.515381
0.407089 0.651513 0.437659
0.464895 0.668181 0.454561
0.523707 0.685036 0.471731
0.582958 0.701980 0.489069
0.642248 0.718961 0.506527
0.701228 0.735951 0.524074
0.759573 0.752924 0.541689
0.816968 0.769864 0.559353
0.861478 0.783224 0.573346
0.465067 0.748994 0.495742
0.523016 0.765230 0.512673
0.581731 0.781612 0.529852
0.640638 0.798042 0.547179
0.699331 0.814470 0.564604
0.757458 0.830865 0.582096
0.814692 0.847204 0.599634
0.870714 0.863470 0.617200
0.913951 0.876269 0.631098
0.523263 0.843545 0.553917
0.581118 0.859144 0.570809
0.639495 0.874845 0.587928
0.697815 0.890550 0.605171
0.755666 0.906212 0.622492
0.812694 0.921799 0.639858
0.868567 0.937290 0.657247
0.922966 0.952666 0.674641
0.964733 0.964733 0.688388
0.082868 0.079414 0.145994
0.135083 0.094462 0.161634
0.189634 0.109883 0.177630
0.246030 0.125592 0.193892
0.303910 0.141548 0.210378
0.362955 0.157724 0.227060
0.422861 0.174103 0.243918
0.483330 0.190668 0.260937
0.531351 0.203891 0.274500
0.134271 0.168595 0.199181
0.187990 0.184407 0.215203
0.243831 0.200568 0.231566
0.301286 0.216988 0.248178
0.359987 0.233624 0.264995
0.419608 0.250448 0.281989
0.479842 0.267440 0.299139
0.540388 0.284584 0.316429
0.588290 0.298238 0.330191
0.187500 0.262337 0.253927
0.242502 0.278717 0.270266
0.299406 0.295421 0.286930
0.357691 0.312354 0.303825
0.416980 0.329469 0.320906
0.476943 0.346738 0.338144
0.537268 0.364139 0.355518
0.597651 0.381657 0.373011
0.645242 0.395581 0.386918
0.242212 0.359291 0.309883
0.298270 0.376042 0.326471
0.356006 0.393087 0.343369
0.414885 0.410327 0.360479
0.474525 0.427716 0.377755
0.534590 0.445223 0.395167
0.594764 0.462827 0.412695
0.654739 0.480510 0.430320
0.701826 0.494539 0.444317
0.298130 0.458199 0.366765
0.355013 0.475120 0.383537
0.413345 0.492301 0.400599
0.472582 0.509643 0.417854
0.532332 0.527097 0.435255
0.592256 0.544634 0.452772
0.652035 0.562229 0.470382
0.711358 0.579867 0.488069
0.757745 0.593833 0.502099
0.354994 0.557822 0.424313
0.412468 0.574709 0.441198
0.471160 0.591820 0.458356
0.530513 0.609056 0.475686
0.590132 0.626367 0.493142
0.649672 0.643722 0.510692
0.708810 0.661098 0.528314
0.767234 0.678478 0.545991
0.812724 0.692213 0.559997
0.412552 0.656923 0.482270
0.470381 0.673572 0.499201
0.529194 0.690407 0.516385
0.588423 0.707328 0.533720
0.647667 0.724285 0.551159
0.706577 0.741247 0.568671
0.764828 0.758191 0.586233
0.822104 0.775099 0.603828
0.866502 0.788433 0.617753
0.470553 0.754268 0.540388
0.528503 0.770474 0.557295
0.587196 0.786825 0.574434
0.646059 0.803220 0.591703
0.704683 0.819611 0.609054
0.762717 0.835968 0.626456
0.819833 0.852266 0.643886
0.875713 0.868488 0.661326
0.918820 0.881252 0.675114
0.528750 0.848616 0.598415
0.586584 0.864175 0.615230
0.644917 0.879832 0.632253
0.703169 0.895491 0.649386
0.760928 0.911105 0.666578
0.817839 0.926642 0.683798
0.873571 0.942080 0.701024
0.927805 0.957401 0.718236
0.969423 0.969423 0.731828
0.087652 0.084187 0.186731
0.140019 0.099282 0.202670
0.194701 0.114749 0.218954
0.251207 0.130502 0.235491
0.309175 0.146500 0.252237
0.368285 0.162718 0.269165
0.428232 0.179136 0.286254
0.488718 0.195738 0.303487
0.536736 0.208988 0.317208
0.139205 0.173615 0.240866
0.193054 0.189462 0.257135
0.249004 0.205659 0.273734
0.306547 0.222112 0.290569
0.365313 0.238779 0.307594
0.424977 0.255633 0.324780
0.485230 0.272653 0.342107
0.545771 0.289822 0.359559
0.593652 0.303496 0.373437
0.192562 0.267541 0.296391
0.247673 0.283947 0.312926
0.304665 0.300675 0.329774
0.363015 0.317629 0.346839
0.422348 0.334764 0.364074
0.482331 0.352052 0.381452
0.542651 0.369470 0.398949
0.603006 0.387002 0.416549
0.650558 0.400936 0.430530
0.247383 0.364617 0.352953
0.303527 0.381383 0.369686
0.361329 0.398440 0.386715
0.420252 0.415691 0.403942
0.479912 0.433089 0.421319
0.539974 0.450603 0.438817
0.600121 0.468211 0.456414
0.660047 0.485897 0.474093
0.707076 0.499927 0.488120
0.303388 0.463583 0.410267
0.360335 0.480507 0.427131
0.418711 0.497689 0.444272
0.477968 0.515031 0.461590
0.537717 0.532483 0.479039
0.597616 0.550015 0.496588
0.657345 0.567604 0.514214
0.716595 0.585233 0.531899
0.762906 0.599191 0.545917
0.360316 0.563198 0.468069
0.417833 0.580078 0.484995
0.476546 0.597180 0.502178
0.535898 0.614404 0.519519
0.595493 0.631701 0.536969
0.654984 0.649040 0.554496
0.714050 0.666399 0.572080
0.772378 0.683758 0.589701
0.817775 0.697476 0.603652
0.417917 0.662228 0.526103
0.475768 0.678859 0.543022
0.534579 0.695673 0.560179
0.593785 0.712570 0.577471
0.652982 0.729502 0.594850
0.711821 0.746437 0.612286
0.769976 0.763352 0.629755
0.827134 0.780228 0.647240
0.871420 0.793536 0.661067
0.475939 0.759435 0.584117
0.533889 0.775612 0.600961
0.592559 0.791931 0.618020
0.651375 0.808292 0.635193
0.709929 0.824647 0.652431
0.767870 0.840964 0.669702
0.824868 0.857222 0.686985
0.880605 0.873401 0.704261
0.923583 0.886129 0.717906
0.534136 0.853582 0.641863
0.591946 0.869099 0.658562
0.650234 0.884713 0.675452
0.708417 0.900327 0.692435
0.766084 0.915892 0.709459
0.822879 0.931380 0.726495
0.878470 0.946766 0.743519
0.932539 0.962032 0.760513
0.974009 0.974009 0.773920
0.092388 0.088912 0.227668
0.144903 0.104053 0.243864
0.199714 0.119565 0.260393
0.256326 0.135361 0.277162
0.314378 0.151401 0.294126
0.373550 0.167658 0.311256
0.433535 0.184114 0.328532
0.494037 0.200752 0.345937
0.542049 0.214030 0.359782
0.144087 0.178581 0.282608
0.198063 0.194464 0.299084
0.254119 0.210693 0.315877
0.311747 0.227179 0.332891
0.370576 0.243877 0.350081
0.430279 0.260759 0.367418
0.490548 0.277806 0.384880
0.551082 0.295000 0.402450
0.598940 0.308692 0.416410
0.197570 0.272686 0.338772
0.252786 0.289117 0.355462
0.309862 0.305867 0.372452
0.368276 0.322843 0.389645
0.427648 0.339997 0.406993
0.487648 0.357302 0.424468
0.547963 0.374735 0.442047
0.608289 0.392281 0.459712
0.655801 0.406225 0.473733
0.252495 0.369879 0.395801
0.308723 0.386658 0.412639
0.366588 0.403727 0.429758
0.425551 0.420988 0.447060
0.485230 0.438394 0.464497
0.545287 0.455914 0.482040
0.605406 0.473527 0.499665
0.665279 0.491216 0.517356
0.712251 0.505246 0.531381
0.308583 0.468898 0.453409
0.365592 0.485825 0.470326
0.424009 0.503008 0.487505
0.483286 0.520349 0.504847
0.543030 0.537798 0.522303
0.602902 0.555325 0.539843
0.662580 0.572907 0.557444
0.721756 0.590527 0.575088
0.767992 0.604476 0.589061
0.365574 0.568503 0.511330
0.423131 0.585374 0.528257
0.481863 0.602466 0.545427
0.541212 0.619678 0.562738
0.600780 0.636961 0.580142
0.660222 0.654284 0.597608
0.719215 0.671624 0.615114
0.777446 0.688964 0.632640
0.822749 0.702664 0.646504
0.423215 0.667458 0.569307
0.481085 0.684070 0.586177
0.539894 0.700863 0.603267
0.599073 0.717737 0.620477
0.658222 0.734644 0.637758
0.716989 0.751551 0.655078
0.775049 0.768436 0.672416
0.832086 0.785281 0.689752
0.876261 0.798562 0.703449
0.481256 0.764527 0.627088
0.539203 0.780674 0.643831
0.597848 0.796960 0.660771
0.656616 0.813287 0.677809
0.715100 0.829605 0.694895
0.772946 0.845884 0.711999
0.829826 0.862101 0.729096
0.885421 0.878237 0.746169
0.928269 0.890929 0.759642
0.539450 0.858470 0.684423
0.597236 0.873947 0.700968
0.655477 0.889517 0.717689
0.713590 0.905085 0.734483
0.771163 0.920603 0.751303
0.827841 0.936040 0.768117
0.883292 0.951374 0.784902
0.937196 0.966586 0.801640
0.978518 0.978518 0.814831
0.097091 0.093605 0.268811
0.149750 0.108791 0.285223
0.204686 0.124346 0.301956
0.261401 0.140184 0.318916
0.319535 0.156265 0.336056
0.378766 0.172561 0.353348
0.438787 0.189053 0.370770
0.499302 0.205727 0.388305
0.547308 0.219030 0.402242
0.148932 0.183508 0.324421
0.203031 0.199425 0.341063
0.259191 0.215688 0.358009
0.316901 0.232205 0.375163
0.375789 0.248932 0.392478
0.435530 0.265842 0.409924
0.495813 0.282914 0.427480
0.556338 0.300132 0.445128
0.604173 0.313842 0.459139
0.202538 0.277787 0.381088
0.257856 0.294241 0.397895
0.315014 0.311014 0.414987
0.373487 0.328010 0.432268
0.432898 0.345183 0.449689
0.492913 0.362504 0.467221
0.553220 0.379952 0.484841
0.613515 0.397511 0.502532
0.660985 0.411464 0.516562
0.257565 0.375092 0.438452
0.313873 0.391884 0.455354
0.371798 0.408964 0.472525
0.430800 0.426235 0.489863
0.490495 0.443648 0.507321
0.550545 0.461174 0.524868
0.610634 0.478791 0.542483
0.670454 0.496481 0.560146
0.717366 0.510511 0.574138
0.313733 0.474161 0.496221
0.370802 0.491089 0.513153
0.429258 0.508273 0.530332
0.488550 0.525612 0.547658
0.548289 0.543058 0.565082
0.608131 0.560579 0.582574
0.667758 0.578154 0.600111
0.726857 0.595764 0.617675
0.773017 0.609705 0.631573
0.370784 0.573752 0.554131
0.428379 0.590615 0.571022
0.487128 0.607696 0.588140
0.546471 0.624895 0.605384
0.606011 0.642164 0.622704
0.665402 0.659470 0.640069
0.724320 0.676792 0.657458
0.782453 0.694110 0.674851
0.827663 0.707792 0.688597
0.428463 0.672630 0.611922
0.486349 0.689223 0.628705
0.545153 0.705994 0.645692
0.604306 0.722845 0.662782
0.663404 0.739726 0.679926
0.722097 0.756605 0.697094
0.780061 0.773461 0.714261
0.836978 0.790274 0.731411
0.881041 0.803528 0.744948
0.486521 0.769558 0.669343
0.544463 0.785675 0.685947
0.603081 0.801929 0.702733
0.661800 0.818221 0.719598
0.720211 0.834502 0.736495
0.777962 0.850742 0.753393
0.834722 0.866918 0.770267
0.890175 0.883011 0.787101
0.932893 0.895667 0.800372
0.544710 0.863297 0.726141
0.602470 0.878732 0.742497
0.660662 0.894260 0.759011
0.718704 0.909782 0.775581
0.776183 0.925252 0.792159
0.832743 0.940639 0.808714
0.888052 0.955920 0.825223
0.941790 0.971078 0.841667
0.982965 0.982965 0.854614
0.101770 0.098273 0.310128
0.154570 0.113503 0.326718
0.209627 0.129101 0.343617
0.266443 0.144980 0.360727
0.324656 0.161100 0.378004
0.383943 0.177434 0.395417
0.443998 0.193962 0.412945
0.504524 0.210670 0.430571
0.552522 0.223999 0.444568
0.153750 0.188405 0.366278
0.207969 0.204356 0.383048
0.264230 0.220650 0.400109
0.322018 0.237198 0.417363
0.380964 0.253954 0.434763
0.440740 0.270891 0.452279
0.501035 0.287988 0.469890
0.561549 0.305230 0.487576
0.609359 0.318956 0.501606
0.207475 0.282854 0.423319
0.262892 0.299331 0.440203
0.320130 0.316125 0.457360
0.378661 0.333140 0.474690
0.438107 0.350331 0.492145
0.498135 0.367668 0.509695
0.558433 0.385131 0.527317
0.618694 0.402701 0.544995
0.666122 0.416662 0.559002
0.262600 0.380266 0.480887
0.318988 0.397071 0.497818
0.376970 0.414162 0.515001
0.436008 0.431441 0.532337
0.495717 0.448861 0.549778
0.555758 0.466392 0.567291
0.615815 0.484012 0.584856
0.675580 0.501703 0.602453
0.722433 0.515732 0.616381
0.318847 0.479381 0.538691
0.375973 0.496311 0.555600
0.434465 0.513495 0.572741
0.493772 0.530832 0.590013
0.553503 0.548273 0.607368
0.613314 0.565789 0.624774
0.672887 0.583355 0.642209
0.731910 0.600956 0.659655
0.777991 0.614887 0.673447
0.375955 0.578956 0.596462
0.433586 0.595809 0.613281
0.492350 0.612879 0.630310
0.551686 0.630066 0.647448
0.611196 0.647319 0.664646
0.670534 0.664608 0.681874
0.729376 0.681911 0.699108
0.787410 0.699208 0.716329
0.832524 0.712872 0.729929
0.433670 0.677754 0.653943
0.491571 0.694327 0.670602
0.550368 0.711076 0.687448
0.609491 0.727903 0.704381
0.668538 0.744758 0.721352
0.727157 0.761609 0.738329
0.785022 0.778434 0.755290
0.841818 0.795215 0.772215
0.885768 0.808442 0.785564
0.491742 0.774539 0.710878
0.549678 0.790626 0.727308
0.608268 0.806847 0.743902
0.666936 0.823104 0.760559
0.725273 0.839348 0.777230
0.782927 0.855549 0.793885
0.839568 0.871683 0.810500
0.894877 0.887733 0.827056
0.937464 0.900353 0.840097
0.549925 0.868071 0.767016
0.607657 0.883466 0.783148
0.665799 0.898949 0.799418
0.723768 0.914426 0.815728
0.781151 0.929848 0.832028
0.837593 0.945184 0.848288
0.892760 0.960413 0.864484
0.946332 0.975516 0.880599
0.987359 0.987359 0.893273
0.106429 0.102923 0.351573
0.159368 0.118195 0.368302
0.214544 0.133835 0.385327
0.271458 0.149755 0.402551
0.329747 0.165913 0.419925
0.389088 0.182284 0.437421
0.449175 0.198848 0.455017
0.509710 0.215589 0.472694
0.557699 0.228943 0.486721
0.158546 0.193279 0.408134
0.212883 0.209262 0.424995
0.269241 0.225588 0.442133
0.327106 0.242165 0.459449
0.386107 0.258949 0.476896
0.445916 0.275912 0.494444
0.506221 0.293034 0.512070
0.566722 0.310298 0.529757
0.614505 0.324041 0.543776
0.212387 0.287892 0.465423
0.267901 0.304391 0.482348
0.325216 0.321206 0.499531
0.383802 0.338240 0.516872
0.443282 0.355448 0.534323
0.503321 0.372801 0.551854
0.563607 0.390277 0.569441
0.623833 0.407859 0.587067
0.671218 0.421828 0.601022
0.267609 0.385409 0.523070
0.324072 0.402225 0.539992
0.382110 0.419326 0.557151
0.441182 0.436613 0.574448
0.500903 0.454039 0.591832
0.560933 0.471575 0.609275
0.620957 0.489197 0.626752
0.680665 0.506888 0.644245
0.727456 0.520917 0.658080
0.323932 0.484566 0.580783
0.381112 0.501497 0.597633
0.439638 0.518680 0.614699
0.498958 0.536014 0.631881
0.558679 0.553451 0.649129
0.618458 0.570960 0.666412
0.677975 0.588518 0.683707
0.736919 0.606108 0.700997
0.782922 0.620029 0.714655
0.381094 0.584121 0.638292
0.438759 0.600965 0.655001
0.497535 0.618023 0.671905
0.556862 0.635196 0.688901
0.616341 0.652434 0.705941
0.675625 0.669706 0.722993
0.734390 0.686989 0.740036
0.792323 0.704264 0.757049
0.837341 0.717910 0.770472
0.438843 0.682837 0.695338
0.496757 0.699389 0.711838
0.555545 0.716116 0.728508
0.614638 0.732919 0.745248
0.673631 0.749747 0.762008
0.732174 0.766570 0.778758
0.789940 0.783365 0.795475
0.846613 0.800112 0.812140
0.890449 0.813312 0.825271
0.496928 0.779477 0.751665
0.554855 0.795532 0.767886
0.613415 0.811720 0.784253
0.672030 0.827942 0.800665
0.730293 0.844149 0.817074
0.787849 0.860310 0.833450
0.844368 0.876403 0.849769
0.899532 0.892409 0.866013
0.941989 0.904993 0.878793
0.555102 0.872800 0.807022
0.612804 0.888154 0.822895
0.670895 0.903593 0.838887
0.728790 0.919024 0.854900
0.786076 0.934397 0.870887
0.842398 0.949683 0.886815
0.897421 0.964860 0.902664
0.950827 0.979908 0.918413
0.991705 0.991705 0.930786
0.111074 0.107557 0.393086
0.164148 0.122872 0.409918
0.219440 0.138553 0.427033
0.276450 0.154512 0.444332
0.334813 0.170709 0.461766
0.394206 0.187116 0.479307
0.454323 0.203714 0.496932
0.514864 0.220487 0.514623
0.562842 0.233866 0.528649
0.163324 0.198133 0.449936
0.217776 0.214148 0.466850
0.274230 0.230505 0.484028
0.332170 0.247111 0.501369
0.391223 0.263922 0.518826
0.451062 0.280911 0.536368
0.511376 0.298056 0.553972
0.571862 0.315342 0.571622
0.619617 0.329100 0.585600
0.217280 0.292908 0.507348
0.272888 0.309428 0.524277
0.330277 0.326262 0.541450
0.388916 0.343315 0.558766
0.448427 0.360539 0.576175
0.508476 0.377907 0.593649
0.568748 0.395395 0.611163
0.628938 0.412988 0.628700
0.676277 0.426964 0.642573
0.272596 0.390524 0.564951
0.329132 0.407351 0.581827
0.387223 0.424461 0.598926
0.446327 0.441756 0.616146
0.506057 0.459188 0.633439
0.566075 0.476727 0.650773
0.626064 0.494351 0.668125
0.685714 0.512043 0.685478
0.732443 0.526070 0.699190
0.328991 0.489720 0.622450
0.386225 0.506652 0.639205
0.444782 0.523833 0.656160
0.504112 0.541164 0.673214
0.563821 0.558596 0.690319
0.623567 0.576097 0.707442
0.683027 0.593647 0.724562
0.741891 0.611226 0.741659
0.787814 0.625137 0.755152
0.386206 0.589252 0.679574
0.443903 0.606086 0.696139
0.502690 0.623132 0.712881
0.562006 0.640291 0.729699
0.621451 0.657513 0.746544
0.680679 0.674767 0.763386
0.739365 0.692030 0.780200
0.797196 0.709283 0.796969
0.842118 0.722910 0.810187
0.443987 0.687883 0.736064
0.501911 0.704415 0.752370
0.560689 0.721119 0.768828
0.619749 0.737897 0.785339
0.678687 0.754698 0.801853
0.737153 0.771492 0.818340
0.794818 0.788256 0.834777
0.851368 0.804971 0.851146
0.895089 0.818143 0.864030
0.502083 0.784375 0.791664
0.559999 0.800400 0.807641
0.618527 0.816554 0.823745
0.677089 0.832740 0.839877
0.735275 0.848910 0.855989
0.792731 0.865031 0.872050
0.849128 0.881082 0.888037
0.904147 0.897043 0.903932
0.946472 0.909591 0.916425
0.560246 0.877489 0.846121
0.617917 0.892800 0.861700
0.675954 0.908196 0.877378
0.733774 0.923580 0.893060
0.790962 0.938905 0.908697
0.847162 0.954140 0.924260
0.902042 0.969263 0.939724
0.955280 0.984256 0.955072
0.996009 0.996009 0.967116
