assets/luts/archive_sepia.cube
# Архивная сепия — для подлинных фото
TITLE "archive_sepia"
LUT_3D_SIZE 5
DOMAIN_MIN 0.0 0.0 0.0
DOMAIN_MAX 1.0 1.0 1.0
0.061059 0.055600 0.050685
0.180753 0.081613 0.076570
0.314147 0.109168 0.104002
0.455681 0.137861 0.132578
0.577000 0.162675 0.157302
0.150371 0.240508 0.139177
0.277418 0.269950 0.167046
0.415362 0.300732 0.196371
0.558344 0.332378 0.226710
0.678374 0.359438 0.252800
0.245500 0.442628 0.233688
0.377711 0.473485 0.263044
0.517942 0.505414 0.293748
0.660067 0.537897 0.325328
0.776855 0.565405 0.352339
0.344795 0.648489 0.332565
0.479979 0.678748 0.362910
0.620232 0.709743 0.394481
0.759199 0.740946 0.426777
0.870791 0.767107 0.454267
0.446601 0.844620 0.434155
0.582569 0.872268 0.464993
0.720582 0.900248 0.496915
0.854085 0.928053 0.529406
0.958527 0.951071 0.556932
0.069433 0.063928 0.145734
0.189937 0.090152 0.173726
0.323872 0.117911 0.203166
0.465647 0.146795 0.233611
0.586927 0.171759 0.259780
0.159382 0.249976 0.240611
0.287027 0.279532 0.270054
0.425292 0.310417 0.300837
0.568292 0.342153 0.332485
0.688093 0.369275 0.359545
0.254988 0.452586 0.339736
0.387584 0.483460 0.370133
0.527916 0.515391 0.401745
0.669836 0.547862 0.434073
0.786205 0.575346 0.461580
0.354599 0.658286 0.441456
0.489956 0.688466 0.472310
0.630091 0.719362 0.504238
0.768627 0.750450 0.536723
0.879610 0.776501 0.564234
0.456562 0.853607 0.544118
0.592489 0.881078 0.574933
0.730163 0.908860 0.606663
0.863014 0.936447 0.638782
0.966657 0.959269 0.665853
0.077307 0.071760 0.240561
0.198549 0.098178 0.270003
0.332970 0.126122 0.300786
0.474951 0.155180 0.332433
0.596177 0.180280 0.359493
0.167837 0.258844 0.339684
0.296021 0.288502 0.370081
0.434567 0.319479 0.401693
0.577563 0.351294 0.434021
0.697134 0.378471 0.461528
0.263875 0.461882 0.441403
0.396811 0.492769 0.472258
0.537218 0.524698 0.504186
0.678926 0.557152 0.536670
0.794888 0.584610 0.564181
0.363767 0.667405 0.544066
0.499265 0.697506 0.574881
0.639270 0.728307 0.606611
0.777387 0.759283 0.638730
0.887785 0.785227 0.665802
0.465861 0.861942 0.646019
0.601731 0.889243 0.676298
0.739071 0.916836 0.707316
0.871292 0.944216 0.738547
0.974174 0.966850 0.764736
0.084981 0.079394 0.336349
0.206918 0.105995 0.366723
0.341792 0.134115 0.398316
0.483954 0.163336 0.430629
0.605113 0.188564 0.458128
0.176060 0.267453 0.438009
0.304748 0.297207 0.468856
0.443547 0.328269 0.500782
0.586523 0.360155 0.533270
0.705856 0.387382 0.560788
0.272501 0.470880 0.540667
0.405750 0.501774 0.571491
0.546212 0.533698 0.603236
0.687697 0.566131 0.635376
0.803250 0.593561 0.662469
0.372652 0.676206 0.642670
0.508271 0.706226 0.672974
0.648133 0.736931 0.704024
0.785825 0.767794 0.735294
0.895642 0.793631 0.761518
0.474861 0.869957 0.742366
0.610659 0.897091 0.771653
0.747658 0.924497 0.801495
0.879252 0.951672 0.831371
0.981381 0.974121 0.856284
0.092537 0.086912 0.432432
0.215139 0.113689 0.463266
0.350438 0.141976 0.495187
0.492760 0.171354 0.527679
0.613839 0.196704 0.555207
0.184141 0.275900 0.535078
0.313306 0.305744 0.565916
0.452336 0.336885 0.597684
0.595274 0.368838 0.629856
0.714360 0.396110 0.656984
0.280965 0.479683 0.637159
0.414502 0.510581 0.667505
0.555002 0.542495 0.698606
0.696253 0.574905 0.729936
0.811390 0.602304 0.756219
0.381357 0.684790 0.737024
0.517077 0.714729 0.766379
0.656782 0.745336 0.796300
0.794042 0.776085 0.826264
0.903277 0.801814 0.851260
0.483665 0.877750 0.833018
0.619377 0.904716 0.860886
0.756024 0.931935 0.889113
0.886989 0.958906 0.917190
0.988368 0.981170 0.940455
