assets/luts/archive_silver.cube
# Архивное серебро — хроника, почти монохром
TITLE "archive_silver"
LUT_3D_SIZE 17
DOMAIN_MIN 0.0 0.0 0.0
DOMAIN_MAX 1.0 1.0 1.0
0.073049 0.072929 0.072411
0.091281 0.081849 0.081325
0.109973 0.090900 0.090371
0.129088 0.100072 0.099537
0.148596 0.109357 0.108817
0.168471 0.118749 0.118203
0.188689 0.128243 0.127693
0.209226 0.137836 0.137280
0.230061 0.147524 0.146963
0.251170 0.157303 0.156738
0.272532 0.167171 0.166601
0.294125 0.177124 0.176550
0.315927 0.187159 0.186581
0.337916 0.197274 0.196692
0.360072 0.207465 0.206880
0.382372 0.217731 0.217141
0.400930 0.226285 0.225692
0.103555 0.113003 0.102894
0.122415 0.122326 0.112122
0.141705 0.131773 0.121474
0.161385 0.141330 0.130941
0.181427 0.150991 0.140512
0.201803 0.160748 0.150183
0.222490 0.170598 0.159950
0.243463 0.180537 0.169807
0.264700 0.190560 0.179751
0.286178 0.200665 0.189779
0.307876 0.210848 0.199888
0.329771 0.221105 0.210074
0.351842 0.231434 0.220335
0.374066 0.241833 0.230668
0.396423 0.252297 0.241069
0.418890 0.262825 0.251535
0.437561 0.271587 0.260250
0.135086 0.154780 0.134404
0.154519 0.164461 0.143918
0.174352 0.174257 0.153551
0.194543 0.184154 0.163290
0.215064 0.194144 0.173127
0.235887 0.204222 0.183056
0.256987 0.214382 0.193072
0.278341 0.224620 0.203171
0.299925 0.234932 0.213350
0.321718 0.245316 0.223604
0.343696 0.255767 0.233931
0.365838 0.266282 0.244328
0.388122 0.276859 0.254791
0.410526 0.287494 0.265318
0.433028 0.298185 0.275905
0.455607 0.308928 0.286550
0.474345 0.317861 0.295406
0.167552 0.198059 0.166851
0.187504 0.208053 0.176625
0.207824 0.218152 0.186511
0.228472 0.228343 0.196495
0.249417 0.238617 0.206571
0.270632 0.248968 0.216730
0.292091 0.259391 0.226969
0.313770 0.269883 0.237283
0.335647 0.280438 0.247669
0.357698 0.291054 0.258123
0.379902 0.301727 0.268641
0.402236 0.312454 0.279221
0.424678 0.323232 0.289859
0.447206 0.334057 0.300553
0.469798 0.344928 0.311299
0.492433 0.355840 0.322095
0.511191 0.364905 0.331069
0.200862 0.242640 0.200144
0.221278 0.252900 0.210151
0.242032 0.263256 0.220263
0.263082 0.273694 0.230467
0.284396 0.284206 0.240753
0.305948 0.294785 0.251116
0.327710 0.305426 0.261551
0.349660 0.316124 0.272053
0.371774 0.326876 0.282619
0.394029 0.337678 0.293245
0.416403 0.348527 0.303927
0.438873 0.359419 0.314663
0.461418 0.370351 0.325449
0.484014 0.381320 0.336282
0.506641 0.392324 0.347160
0.529277 0.403358 0.358079
0.548010 0.412517 0.367150
0.234926 0.288319 0.234192
0.255752 0.298800 0.244406
0.276885 0.309368 0.254718
0.298282 0.320008 0.265113
0.319911 0.330712 0.275584
0.341744 0.341472 0.286124
0.363756 0.352284 0.296727
0.385921 0.363143 0.307390
0.408217 0.374045 0.318109
0.430621 0.384987 0.328880
0.453109 0.395965 0.339699
0.475661 0.406975 0.350563
0.498252 0.418015 0.361470
0.520862 0.429082 0.372416
0.543469 0.440172 0.383398
0.566049 0.451282 0.394413
0.584711 0.460496 0.403557
0.269653 0.334896 0.268907
0.290836 0.345553 0.279301
0.312294 0.356287 0.289785
0.333983 0.367082 0.300345
0.355872 0.377931 0.310973
0.377931 0.388827 0.321662
0.400136 0.399764 0.332408
0.422462 0.410737 0.343204
0.444885 0.421743 0.354049
0.467382 0.432778 0.364937
0.489931 0.443839 0.375866
0.512508 0.454922 0.386832
0.535091 0.466023 0.397832
0.557659 0.477140 0.408864
0.580190 0.488270 0.419923
0.602660 0.499410 0.431007
0.621205 0.508640 0.440202
0.304955 0.382170 0.304197
0.326439 0.392957 0.314743
0.348166 0.403810 0.325373
0.370094 0.414716 0.336072
0.392187 0.425664 0.346830
0.414419 0.436649 0.357642
0.436763 0.447664 0.368502
0.459194 0.458706 0.379406
0.481689 0.469769 0.390349
0.504224 0.480852 0.401328
0.526776 0.491948 0.412339
0.549324 0.503057 0.423379
0.571844 0.514173 0.434446
0.594315 0.525295 0.445535
0.616714 0.536418 0.456644
0.639018 0.547541 0.467770
0.657400 0.556747 0.476993
0.340739 0.429939 0.339972
0.362471 0.440809 0.350645
0.384414 0.451737 0.361394
0.406524 0.462706 0.372203
0.428768 0.473708 0.383065
0.451116 0.484736 0.393973
0.473544 0.495784 0.404920
0.496025 0.506847 0.415903
0.518537 0.517922 0.426918
0.541055 0.529005 0.437960
0.563557 0.540091 0.449027
0.586020 0.551179 0.460115
0.608421 0.562264 0.471220
0.630739 0.573343 0.482340
0.652951 0.584413 0.493472
0.675034 0.595472 0.504612
0.693207 0.604618 0.513840
0.376916 0.478001 0.376142
0.398841 0.488910 0.386915
0.420945 0.499866 0.397755
0.443184 0.510853 0.408650
0.465523 0.521862 0.419588
0.487934 0.532887 0.430564
0.510390 0.543921 0.441572
0.532867 0.554960 0.452607
0.555340 0.566000 0.463666
0.577785 0.577037 0.474745
0.600181 0.588067 0.485840
0.622504 0.599087 0.496947
0.644731 0.610094 0.508065
0.666841 0.621084 0.519188
0.688810 0.632055 0.530315
0.710618 0.643003 0.541442
0.728536 0.652049 0.550654
0.413397 0.526155 0.412617
0.435460 0.537057 0.423462
0.457671 0.547995 0.434368
0.479983 0.558954 0.445320
0.502362 0.569925 0.456308
0.524780 0.580900 0.467325
0.547210 0.591874 0.478367
0.569627 0.602843 0.489428
0.592007 0.613801 0.500504
0.614325 0.624746 0.511592
0.636559 0.635673 0.522687
0.658687 0.646579 0.533788
0.680685 0.657462 0.544889
0.702531 0.668317 0.555989
0.724203 0.679141 0.567084
0.745678 0.689932 0.578171
0.763295 0.698839 0.587343
0.450090 0.574199 0.449306
0.472238 0.585049 0.460198
0.494500 0.595924 0.471142
0.516831 0.606809 0.482124
0.539196 0.617694 0.493135
0.561567 0.628574 0.504167
0.583915 0.639442 0.515214
0.606217 0.650294 0.526274
0.628448 0.661124 0.537340
0.650584 0.671931 0.548410
0.672602 0.682708 0.559479
0.694478 0.693455 0.570545
0.716192 0.704166 0.581604
0.737719 0.714839 0.592653
0.759037 0.725470 0.603689
0.780125 0.736058 0.614709
0.797395 0.744788 0.623819
0.486905 0.621933 0.486119
0.509083 0.632684 0.497031
0.531342 0.643450 0.507987
0.553638 0.654215 0.518972
0.575934 0.664970 0.529978
0.598202 0.675708 0.540998
0.620414 0.686424 0.552025
0.642546 0.697112 0.563056
0.664573 0.707768 0.574085
0.686471 0.718390 0.585110
0.708217 0.728972 0.596126
0.729788 0.739511 0.607130
0.751161 0.750005 0.618119
0.772314 0.760449 0.629090
0.793224 0.770842 0.640039
0.813869 0.781179 0.650964
0.830746 0.789694 0.659989
0.523752 0.669155 0.522967
0.545906 0.679762 0.533871
0.568108 0.690372 0.544812
0.590313 0.700971 0.555774
0.612485 0.711549 0.566749
0.634596 0.722100 0.577729
0.656617 0.732617 0.588708
0.678524 0.743095 0.599683
0.700292 0.753532 0.610648
0.721897 0.763922 0.621600
0.743316 0.774262 0.632536
0.764525 0.784548 0.643451
0.785503 0.794778 0.654343
0.806226 0.804947 0.665208
0.826672 0.815053 0.676044
0.846819 0.825093 0.686847
0.863258 0.833354 0.695765
0.560541 0.715662 0.559758
0.582616 0.726080 0.570628
0.604707 0.736489 0.581527
0.626767 0.746876 0.592439
0.648760 0.757232 0.603355
0.670658 0.767548 0.614269
0.692433 0.777820 0.625173
0.714060 0.788043 0.636065
0.735514 0.798213 0.646939
0.756771 0.808325 0.657792
0.777807 0.818376 0.668620
0.798601 0.828363 0.679419
0.819128 0.838282 0.690187
0.839366 0.848130 0.700919
0.859292 0.857904 0.711614
0.878885 0.867600 0.722267
0.894839 0.875568 0.731055
0.597182 0.761255 0.596403
0.619124 0.771437 0.607212
0.641049 0.781600 0.618042
0.662909 0.791729 0.628877
0.684669 0.801815 0.639708
0.706299 0.811852 0.650528
0.727773 0.821833 0.661331
0.749065 0.831754 0.672112
0.770149 0.841610 0.682868
0.791003 0.851398 0.693594
0.811602 0.861115 0.704287
0.831923 0.870755 0.714943
0.851944 0.880317 0.725559
0.871642 0.889797 0.736132
0.890994 0.899192 0.746658
0.909977 0.908498 0.757135
0.925401 0.916135 0.765770
0.633584 0.805731 0.632811
0.655339 0.815632 0.643533
0.677043 0.825502 0.654267
0.698648 0.835328 0.664998
0.720120 0.845099 0.675717
0.741428 0.854809 0.686416
0.762546 0.864453 0.697090
0.783447 0.874025 0.707734
0.804107 0.883523 0.718344
0.824502 0.892940 0.728917
0.844609 0.902275 0.739447
0.864403 0.911523 0.749933
0.883863 0.920682 0.760370
0.902964 0.929747 0.770756
0.921686 0.938716 0.781087
0.940005 0.947585 0.791359
0.954852 0.954852 0.799820
0.076062 0.075941 0.084642
0.094359 0.084894 0.093687
0.113114 0.093977 0.102860
0.132288 0.103181 0.112152
0.151852 0.112496 0.121553
0.171780 0.121917 0.131058
0.192047 0.131440 0.140663
0.212631 0.141061 0.150363
0.233508 0.150777 0.160155
0.254657 0.160583 0.170036
0.276055 0.170476 0.180002
0.297681 0.180454 0.190051
0.319512 0.190514 0.200178
0.341528 0.200652 0.210382
0.363706 0.210866 0.220660
0.386026 0.221153 0.231008
0.404597 0.229725 0.239628
0.106675 0.116153 0.115553
0.125595 0.125505 0.124900
0.144941 0.134980 0.134370
0.164676 0.144566 0.143949
0.184768 0.154253 0.153632
0.205192 0.164037 0.163411
0.225922 0.173913 0.173282
0.246936 0.183876 0.183240
0.268210 0.193923 0.193283
0.289723 0.204051 0.203406
0.311451 0.214256 0.213607
0.333374 0.224535 0.223882
0.355468 0.234885 0.234228
0.377713 0.245303 0.244642
0.400087 0.255786 0.255122
0.422567 0.266332 0.265664
0.441247 0.275109 0.274439
0.138304 0.158053 0.147454
0.157791 0.167760 0.157076
0.177675 0.177580 0.166815
0.197915 0.187502 0.176657
0.218481 0.197515 0.186594
0.239346 0.207615 0.196619
0.260484 0.217797 0.206729
0.281873 0.228057 0.216919
0.303489 0.238389 0.227185
0.325311 0.248792 0.237523
0.347314 0.259262 0.247931
0.369478 0.269795 0.258405
0.391780 0.280389 0.268943
0.414199 0.291041 0.279540
0.436713 0.301747 0.290195
0.459299 0.312505 0.300905
0.478041 0.321449 0.309811
0.170859 0.201439 0.180254
0.190859 0.211455 0.190126
0.211226 0.221575 0.200107
0.231917 0.231787 0.210184
0.252901 0.242081 0.220348
0.274152 0.252451 0.230593
0.295644 0.262893 0.240915
0.317353 0.273402 0.251308
0.339256 0.283974 0.261770
0.361330 0.294606 0.272297
0.383553 0.305294 0.282885
0.405903 0.316035 0.293532
0.428358 0.326826 0.304233
0.450896 0.337665 0.314987
0.473494 0.348547 0.325789
0.496131 0.359470 0.336639
0.514889 0.368544 0.345655
0.204248 0.246111 0.213865
0.224708 0.256390 0.223959
0.245503 0.266764 0.234155
0.266590 0.277220 0.244440
0.287938 0.287748 0.254804
0.309520 0.298342 0.265242
0.331310 0.308998 0.275748
0.353284 0.319710 0.286319
0.375419 0.330475 0.296950
0.397691 0.341290 0.307638
0.420079 0.352150 0.318379
0.442560 0.363052 0.329170
0.465112 0.373994 0.340009
0.487712 0.384973 0.350891
0.510340 0.395985 0.361814
0.532972 0.407027 0.372776
0.551700 0.416191 0.381879
0.238383 0.291867 0.248194
0.259248 0.302363 0.258484
0.280416 0.312945 0.268869
0.301844 0.323599 0.279334
0.323502 0.334315 0.289872
0.345360 0.345087 0.300476
0.367393 0.355910 0.311140
0.389577 0.366780 0.321861
0.411888 0.377692 0.332634
0.434304 0.388642 0.343455
0.456801 0.399628 0.354322
0.479358 0.410646 0.365231
0.501951 0.421692 0.376179
0.524559 0.432764 0.387163
0.547160 0.443859 0.398180
0.569733 0.454974 0.409226
0.588385 0.464189 0.418393
0.273172 0.338504 0.283153
0.294387 0.349173 0.293612
0.315874 0.359917 0.304158
0.337590 0.370723 0.314778
0.359502 0.381581 0.325462
0.381581 0.392485 0.336204
0.403803 0.403430 0.346999
0.426142 0.414410 0.357843
0.448574 0.425422 0.368730
0.471078 0.436463 0.379659
0.493629 0.447528 0.390624
0.516206 0.458614 0.401624
0.538785 0.469718 0.412654
0.561346 0.480837 0.423712
0.583866 0.491969 0.434795
0.606322 0.503109 0.445899
0.624853 0.512338 0.455108
0.308526 0.385823 0.318650
0.330037 0.396618 0.329251
0.351789 0.407479 0.339933
0.373737 0.418391 0.350680
0.395848 0.429345 0.361483
0.418094 0.440335 0.372337
0.440449 0.451354 0.383236
0.462887 0.462399 0.394175
0.485386 0.473465 0.405150
0.507922 0.484549 0.416158
0.530472 0.495647 0.427195
0.553014 0.506755 0.438258
0.575525 0.517871 0.449344
0.597982 0.528991 0.460449
0.620365 0.540112 0.471570
0.642650 0.551231 0.482705
0.661013 0.560434 0.491933
0.344354 0.433622 0.354596
0.366107 0.444497 0.365313
0.388069 0.455428 0.376102
0.410194 0.466401 0.386950
0.432450 0.477405 0.397846
0.454808 0.488434 0.408784
0.477240 0.499482 0.419760
0.499724 0.510545 0.430767
0.522234 0.521619 0.441803
0.544747 0.532700 0.452863
0.567241 0.543784 0.463945
0.589692 0.554868 0.475044
0.612079 0.565949 0.486157
0.634378 0.577023 0.497282
0.656568 0.588087 0.508415
0.678627 0.599139 0.519553
0.696776 0.608278 0.528778
0.380566 0.481698 0.390901
0.402507 0.492608 0.401706
0.424624 0.503564 0.412577
0.446872 0.514551 0.423498
0.469218 0.525559 0.434459
0.491632 0.536581 0.445455
0.514088 0.547612 0.456480
0.536561 0.558648 0.467529
0.559027 0.569683 0.478598
0.581463 0.580714 0.489684
0.603845 0.591738 0.500783
0.626151 0.602751 0.511891
0.648357 0.613750 0.523005
0.670443 0.624732 0.534122
0.692385 0.635693 0.545239
0.714161 0.646631 0.556353
0.732051 0.655667 0.565552
0.417071 0.529851 0.427474
0.439146 0.540750 0.438341
0.461364 0.551685 0.449266
0.483680 0.562640 0.460233
0.506061 0.573606 0.471233
0.528477 0.584576 0.482260
0.550901 0.595543 0.493307
0.573309 0.606504 0.504371
0.595676 0.617455 0.515446
0.617978 0.628390 0.526530
0.640193 0.639308 0.537619
0.662298 0.650204 0.548708
0.684270 0.661074 0.559796
0.706087 0.671917 0.570878
0.727726 0.682728 0.581953
0.749164 0.693505 0.593016
0.766749 0.702400 0.602165
0.453781 0.577879 0.464224
0.475934 0.588722 0.475127
0.498198 0.599590 0.486079
0.520528 0.610468 0.497066
0.542889 0.621345 0.508078
0.565252 0.632215 0.519108
0.587589 0.643073 0.530151
0.609877 0.653914 0.541202
0.632089 0.664733 0.552256
0.654204 0.675527 0.563311
0.676197 0.686291 0.574362
0.698045 0.697023 0.585406
0.719727 0.707719 0.596440
0.741219 0.718376 0.607461
0.762499 0.728991 0.618465
0.783545 0.739561 0.629449
0.800778 0.748276 0.638528
0.490603 0.625580 0.501062
0.512781 0.636322 0.511974
0.535037 0.647077 0.522927
0.557326 0.657831 0.533906
0.579612 0.668574 0.544903
0.601867 0.679299 0.555909
0.624063 0.690001 0.566921
0.646174 0.700675 0.577932
0.668178 0.711317 0.588938
0.690049 0.721922 0.599937
0.711765 0.732487 0.610924
0.733302 0.743009 0.621895
0.754638 0.753484 0.632848
0.775750 0.763909 0.643779
0.796616 0.774280 0.654686
0.817213 0.784596 0.665564
0.834049 0.793093 0.674549
0.527448 0.672754 0.537898
0.549597 0.683348 0.548791
0.571791 0.693945 0.559718
0.593983 0.704529 0.570664
0.616140 0.715092 0.581618
0.638232 0.725626 0.592574
0.660231 0.736126 0.603526
0.682112 0.746586 0.614470
0.703851 0.757004 0.625402
0.725423 0.767374 0.636317
0.746806 0.777694 0.647212
0.767977 0.787959 0.658084
0.788912 0.798166 0.668929
0.809589 0.808312 0.679743
0.829985 0.818395 0.690525
0.850079 0.828410 0.701271
0.866471 0.836650 0.710139
0.564227 0.719199 0.574640
0.586291 0.729599 0.585489
0.608368 0.739992 0.596363
0.630410 0.750361 0.607247
0.652382 0.760697 0.618132
0.674256 0.770994 0.629011
0.696003 0.781245 0.639878
0.717599 0.791446 0.650728
0.739018 0.801594 0.661557
0.760237 0.811683 0.672362
0.781232 0.821710 0.683138
0.801980 0.831672 0.693883
0.822459 0.841565 0.704592
0.842646 0.851386 0.715263
0.862517 0.861132 0.725893
0.882051 0.870801 0.736478
0.897954 0.878745 0.745207
0.600847 0.764713 0.611200
0.622774 0.774874 0.621977
0.644678 0.785017 0.632771
0.666515 0.795124 0.643568
0.688249 0.805188 0.654356
0.709850 0.815201 0.665130
0.731290 0.825158 0.675884
0.752545 0.835054 0.686613
0.773589 0.844884 0.697313
0.794399 0.854645 0.707980
0.814952 0.864334 0.718611
0.835223 0.873946 0.729201
0.855190 0.883479 0.739748
0.874830 0.892928 0.750248
0.894121 0.902292 0.760698
0.913040 0.911567 0.771096
0.928408 0.919176 0.779663
0.637220 0.809094 0.647486
0.658954 0.818972 0.658165
0.680633 0.828818 0.668853
0.702209 0.838618 0.679534
0.723649 0.848363 0.690200
0.744922 0.858047 0.700842
0.766001 0.867663 0.711456
0.786860 0.877206 0.722037
0.807475 0.886674 0.732581
0.827821 0.896061 0.743083
0.847874 0.905365 0.753540
0.867613 0.914581 0.763949
0.887013 0.923706 0.774306
0.906052 0.932738 0.784608
0.924707 0.941672 0.794851
0.942956 0.950506 0.805034
0.957743 0.957743 0.813417
0.079080 0.078959 0.097025
0.097442 0.087943 0.106195
0.116258 0.097058 0.115492
0.135491 0.106293 0.124903
0.155110 0.115638 0.134421
0.175090 0.125089 0.144041
0.195406 0.134641 0.153756
0.216035 0.144290 0.163565
0.236955 0.154032 0.173461
0.258143 0.163864 0.183444
0.279576 0.173783 0.193508
0.301234 0.183786 0.203651
0.323095 0.193869 0.213870
0.345136 0.204031 0.224163
0.367336 0.214267 0.234525
0.389674 0.224576 0.244955
0.408259 0.233164 0.253641
0.109799 0.119307 0.128347
0.128778 0.128688 0.137809
0.148180 0.138191 0.147391
0.167968 0.147804 0.157080
0.188110 0.157518 0.166869
0.208580 0.167328 0.176751
0.229354 0.177228 0.186721
0.250408 0.187216 0.196777
0.271719 0.197287 0.206913
0.293265 0.207437 0.217127
0.315023 0.217664 0.227415
0.336972 0.227964 0.237773
0.359090 0.238334 0.248200
0.381355 0.248772 0.258692
0.403745 0.259274 0.269246
0.426239 0.269838 0.279859
0.444927 0.278629 0.288690
0.141524 0.161328 0.160623
0.161066 0.171060 0.170350
0.181000 0.180905 0.180190
0.201288 0.190850 0.190130
0.221898 0.200887 0.200162
0.242804 0.211009 0.210280
0.263980 0.221213 0.220478
0.285404 0.231493 0.230754
0.307051 0.241846 0.241102
0.328900 0.252268 0.251521
0.350928 0.262756 0.262005
0.373113 0.273307 0.272552
0.395433 0.283917 0.283159
0.417866 0.294585 0.293823
0.440391 0.305306 0.304541
0.462985 0.316078 0.315310
0.481731 0.325034 0.324264
0.174166 0.204820 0.193762
0.194216 0.214857 0.203727
0.214627 0.224999 0.213799
0.235361 0.235230 0.223963
0.256384 0.245544 0.234211
0.277670 0.255933 0.244537
0.299194 0.266393 0.254937
0.320932 0.276919 0.265406
0.342861 0.287507 0.275940
0.364958 0.298155 0.286535
0.387200 0.308858 0.297188
0.409566 0.319613 0.307896
0.432033 0.330418 0.318656
0.454579 0.341268 0.329465
0.477183 0.352162 0.340320
0.499822 0.363096 0.351218
0.518579 0.372178 0.360272
0.207635 0.249582 0.227675
0.228138 0.259879 0.237851
0.248972 0.270271 0.248127
0.270096 0.280743 0.258488
0.291478 0.291287 0.268926
0.313090 0.301897 0.279434
0.334907 0.312567 0.290008
0.356904 0.323293 0.300642
0.379059 0.334071 0.311334
0.401348 0.344897 0.322079
0.423750 0.355769 0.332875
0.446241 0.366682 0.343717
0.468799 0.377634 0.354603
0.491403 0.388621 0.365529
0.514030 0.399641 0.376494
0.536659 0.410690 0.387493
0.555382 0.419859 0.396625
0.241839 0.295412 0.262270
0.262741 0.305923 0.272631
0.283944 0.316519 0.283084
0.305404 0.327186 0.293616
0.327089 0.337915 0.304216
0.348972 0.348699 0.314879
0.371027 0.359533 0.325599
0.393229 0.370413 0.336373
0.415554 0.381334 0.347195
0.437981 0.392293 0.358064
0.460486 0.403286 0.368974
0.483047 0.414311 0.379923
0.505642 0.425364 0.390907
0.528248 0.436441 0.401924
0.550843 0.447540 0.412971
0.573406 0.458658 0.424044
0.592049 0.467876 0.433231
0.276689 0.342109 0.297457
0.297936 0.352789 0.307977
0.319452 0.363544 0.318581
0.341194 0.374359 0.329255
0.363128 0.385227 0.339991
0.385227 0.396139 0.350782
0.407464 0.407091 0.361622
0.429815 0.418078 0.372507
0.452257 0.429096 0.383434
0.474766 0.440141 0.394398
0.497320 0.451210 0.405396
0.519895 0.462299 0.416424
0.542471 0.473406 0.427480
0.565024 0.484527 0.438560
0.587532 0.495659 0.449662
0.609974 0.506800 0.460782
0.628489 0.516028 0.470001
0.312094 0.389472 0.333147
0.333632 0.400274 0.343798
0.355408 0.411142 0.354526
0.377376 0.422060 0.365317
0.399504 0.433020 0.376161
0.421763 0.444014 0.387053
0.444128 0.455038 0.397986
0.466574 0.466086 0.408956
0.489077 0.477154 0.419959
0.511613 0.488239 0.430991
0.534160 0.499338 0.442050
0.556695 0.510446 0.453130
0.579196 0.521560 0.464230
0.601640 0.532678 0.475347
0.624006 0.543797 0.486476
0.646271 0.554912 0.497616
0.664614 0.564112 0.506845
0.347965 0.437298 0.369249
0.369739 0.448178 0.380005
0.391719 0.459113 0.390830
0.413859 0.470088 0.401710
0.436127 0.481094 0.412636
0.458492 0.492124 0.423601
0.480930 0.503173 0.434600
0.503415 0.514236 0.445628
0.525923 0.525308 0.456680
0.548431 0.536387 0.467754
0.570916 0.547468 0.478846
0.593355 0.558548 0.489952
0.615726 0.569624 0.501069
0.638007 0.580693 0.512194
0.660174 0.591751 0.523323
0.682207 0.602795 0.534455
0.700332 0.611928 0.543672
0.384210 0.485388 0.405673
0.406167 0.496299 0.416507
0.428297 0.507255 0.427402
0.450554 0.518241 0.438345
0.472906 0.529247 0.449326
0.495323 0.540267 0.460337
0.517778 0.551295 0.471375
0.540247 0.562326 0.482433
0.562706 0.573357 0.493508
0.585130 0.584382 0.504596
0.607498 0.595400 0.515694
0.629786 0.606406 0.526797
0.651972 0.617396 0.537904
0.674033 0.628369 0.549011
0.695948 0.639320 0.560114
0.717693 0.650247 0.571211
0.735554 0.659274 0.580392
0.420740 0.533538 0.442328
0.442825 0.544435 0.453213
0.465050 0.555367 0.464153
0.487370 0.566317 0.475131
0.509751 0.577278 0.486139
0.532164 0.588241 0.497170
0.554583 0.599202 0.508219
0.576981 0.610156 0.519281
0.599335 0.621098 0.530351
0.621621 0.632024 0.541427
0.643816 0.642932 0.552503
0.665898 0.653816 0.563578
0.687843 0.664675 0.574647
0.709630 0.675505 0.585707
0.731235 0.686303 0.596757
0.752637 0.697066 0.607791
0.770188 0.705949 0.616915
0.457465 0.581548 0.479125
0.479623 0.592385 0.490035
0.501889 0.603246 0.500991
0.524217 0.614116 0.511978
0.546573 0.624985 0.522987
0.568928 0.635846 0.534011
0.591253 0.646693 0.545044
0.613526 0.657523 0.556082
0.635720 0.668330 0.567120
0.657812 0.679111 0.578156
0.679780 0.689862 0.589184
0.701600 0.700579 0.600202
0.723250 0.711260 0.611206
0.744706 0.721901 0.622194
0.765947 0.732499 0.633162
0.786951 0.743051 0.644107
0.804146 0.751751 0.653150
0.494294 0.629217 0.515973
0.516471 0.639948 0.526881
0.538724 0.650693 0.537826
0.561005 0.661436 0.548795
0.583281 0.672167 0.559778
0.605522 0.682879 0.570767
0.627700 0.693567 0.581758
0.649791 0.704226 0.592745
0.671771 0.714852 0.603725
0.693614 0.725441 0.614693
0.715299 0.735989 0.625646
0.736802 0.746492 0.636580
0.758100 0.756949 0.647493
0.779172 0.767354 0.658380
0.799993 0.777705 0.669239
0.820542 0.788000 0.680067
0.837336 0.796478 0.689007
0.531136 0.676342 0.552782
0.553279 0.686922 0.563661
0.575463 0.697505 0.574569
0.597643 0.708075 0.585493
0.619784 0.718622 0.596423
0.641856 0.729139 0.607351
0.663833 0.739621 0.618272
0.685688 0.750064 0.629181
0.707397 0.760462 0.640075
0.728937 0.770813 0.650948
0.750283 0.781111 0.661799
0.771414 0.791355 0.672622
0.792306 0.801540 0.683415
0.812936 0.811663 0.694175
0.833283 0.821721 0.704899
0.853322 0.831711 0.715582
0.869668 0.839930 0.724397
0.567903 0.722722 0.589462
0.589956 0.733106 0.600284
0.612018 0.743481 0.611129
0.634042 0.753831 0.621981
0.655993 0.764148 0.632830
0.677842 0.774425 0.643670
0.699561 0.784655 0.654494
0.721125 0.794835 0.665299
0.742509 0.804960 0.676079
0.763689 0.815025 0.686831
0.784643 0.825028 0.697552
0.805346 0.834965 0.708237
0.825776 0.844832 0.718884
0.845910 0.854626 0.729489
0.865726 0.864345 0.740050
0.885201 0.873985 0.750562
0.901052 0.881904 0.759228
0.604503 0.768156 0.625921
0.626412 0.778298 0.636662
0.648297 0.788419 0.647416
0.670110 0.798505 0.658169
0.691817 0.808546 0.668911
0.713387 0.818535 0.679635
0.734794 0.828467 0.690336
0.756012 0.838338 0.701008
0.777016 0.848142 0.711648
0.797782 0.857877 0.722252
0.818286 0.867537 0.732816
0.838506 0.877121 0.743336
0.858419 0.886624 0.753809
0.878002 0.896043 0.764232
0.897232 0.905375 0.774602
0.916086 0.914618 0.784916
0.931398 0.922200 0.793411
0.640846 0.812443 0.662071
0.662557 0.822297 0.672703
0.684210 0.832118 0.683340
0.705758 0.841893 0.693967
0.727166 0.851612 0.704575
0.748403 0.861268 0.715156
0.769442 0.870856 0.725706
0.790259 0.880371 0.736220
0.810827 0.889809 0.746692
0.831123 0.899166 0.757120
0.851124 0.908438 0.767499
0.870806 0.917622 0.777827
0.890147 0.926714 0.788099
0.909122 0.935711 0.798313
0.927711 0.944611 0.808466
0.945890 0.953409 0.818553
0.960616 0.960616 0.826855
0.082104 0.081982 0.109561
0.100530 0.090999 0.118852
0.119408 0.100146 0.128267
0.138698 0.109410 0.137794
0.158372 0.118785 0.147424
0.178404 0.128265 0.157153
0.198768 0.137846 0.166975
0.219442 0.147522 0.176886
0.240403 0.157291 0.186883
0.261629 0.167149 0.196962
0.283098 0.177093 0.207120
0.304788 0.187121 0.217354
0.326676 0.197228 0.227660
0.348742 0.207412 0.238036
0.370964 0.217670 0.248479
0.393320 0.228000 0.258987
0.411917 0.236605 0.267734
