assets/luts/archive_sepia.cube
# Архивная сепия — для подлинных фото
TITLE "archive_sepia"
LUT_3D_SIZE 17
DOMAIN_MIN 0.0 0.0 0.0
DOMAIN_MAX 1.0 1.0 1.0
0.061059 0.055600 0.050685
0.089295 0.061907 0.056959
0.118762 0.068362 0.063383
0.149288 0.074937 0.069925
0.180753 0.081613 0.076570
0.213057 0.088381 0.083306
0.246113 0.095233 0.090127
0.279837 0.102164 0.097027
0.314147 0.109168 0.104002
0.348965 0.116243 0.111047
0.384212 0.123385 0.118160
0.419810 0.130592 0.125337
0.455681 0.137861 0.132578
0.491747 0.145190 0.139879
0.527929 0.152577 0.147239
0.564150 0.160020 0.154656
0.577000 0.162675 0.157302
0.082751 0.099477 0.072153
0.111555 0.106046 0.078564
0.141554 0.112765 0.085124
0.172573 0.119600 0.091802
0.204489 0.126536 0.098581
0.237200 0.133560 0.105450
0.270617 0.140664 0.112403
0.304655 0.147843 0.119432
0.339233 0.155093 0.126534
0.374269 0.162408 0.133705
0.409686 0.169787 0.140941
0.445403 0.177226 0.148241
0.481344 0.184722 0.155600
0.517429 0.192274 0.163018
0.553579 0.199880 0.170493
0.589716 0.207536 0.178022
0.602525 0.210266 0.180707
0.104884 0.145061 0.094075
0.134222 0.151862 0.100615
0.164720 0.158812 0.107303
0.196197 0.165878 0.114109
0.228529 0.173040 0.121014
0.261612 0.180287 0.128009
0.295355 0.187611 0.135085
0.329672 0.195007 0.142236
0.364481 0.202468 0.149457
0.399700 0.209992 0.156745
0.435250 0.217574 0.164097
0.471052 0.225212 0.171510
0.507026 0.232903 0.178980
0.543094 0.240644 0.186507
0.579176 0.248435 0.194088
0.615192 0.256271 0.201721
0.627946 0.259064 0.204442
0.127433 0.192141 0.116425
0.157271 0.199144 0.123086
0.188233 0.206295 0.129895
0.220134 0.213558 0.136821
0.252847 0.220914 0.143845
0.286267 0.228353 0.150956
0.320301 0.235865 0.158147
0.354862 0.243444 0.165412
0.389866 0.251085 0.172745
0.425232 0.258783 0.180142
0.460880 0.266536 0.187601
0.496730 0.274339 0.195119
0.532701 0.282192 0.202692
0.568716 0.290090 0.210320
0.604692 0.298031 0.217998
0.640552 0.306015 0.225727
0.653237 0.308858 0.228482
0.150371 0.240508 0.139177
0.180675 0.247682 0.145951
0.212068 0.255001 0.152873
0.244359 0.262430 0.159911
0.277418 0.269950 0.167046
0.311140 0.277547 0.174267
0.345429 0.285215 0.181565
0.380198 0.292944 0.188935
0.415362 0.300732 0.196371
0.450840 0.308572 0.203870
0.486550 0.316462 0.211428
0.522411 0.324399 0.219042
0.558344 0.332378 0.226710
0.594268 0.340399 0.234430
0.630104 0.348459 0.242198
0.665770 0.356556 0.250014
0.678374 0.359438 0.252800
0.173672 0.289951 0.162305
0.204410 0.297264 0.169185
0.236199 0.304721 0.176213
0.268845 0.312284 0.183355
0.302216 0.319935 0.190592
0.336204 0.327659 0.197914
0.370713 0.335449 0.205312
0.405655 0.343297 0.212779
0.440944 0.351199 0.220311
0.476497 0.359148 0.227903
0.512232 0.367143 0.235552
0.548069 0.375178 0.243255
0.583927 0.383253 0.251009
0.619725 0.391364 0.258812
0.655383 0.399508 0.266662
0.690820 0.407684 0.274557
0.703330 0.410593 0.277370
0.197312 0.340258 0.185784
0.228449 0.347681 0.192761
0.260600 0.355244 0.199887
0.293567 0.362910 0.207125
0.327215 0.370659 0.214458
0.361434 0.378479 0.221873
0.396128 0.386359 0.229362
0.431207 0.394293 0.236918
0.466585 0.402275 0.244537
0.502178 0.410301 0.252214
0.537903 0.418366 0.259946
0.573680 0.426469 0.267729
0.609426 0.434605 0.275562
0.645062 0.442771 0.283441
0.680506 0.450967 0.291364
0.715677 0.459189 0.299330
0.728080 0.462113 0.302167
0.221263 0.391221 0.209586
0.252767 0.398722 0.216655
0.285246 0.406359 0.223870
0.318499 0.414097 0.231197
0.352388 0.421913 0.238617
0.386804 0.429795 0.246117
0.421648 0.437733 0.253690
0.456828 0.445720 0.261327
0.492259 0.453750 0.269025
0.527856 0.461819 0.276779
0.563535 0.469923 0.284585
0.599216 0.478059 0.292441
0.634815 0.486223 0.300343
0.670252 0.494413 0.308290
0.705445 0.502626 0.316278
0.740314 0.510860 0.324307
0.752597 0.513787 0.327166
0.245500 0.442628 0.233688
0.277337 0.450176 0.240840
0.310110 0.457857 0.248137
0.343614 0.465634 0.255545
0.377711 0.473485 0.263044
0.412288 0.481397 0.270621
0.447246 0.489360 0.278269
0.482493 0.497368 0.285980
0.517942 0.505414 0.293748
0.553506 0.513493 0.301571
0.589104 0.521603 0.309444
0.624652 0.529738 0.317364
0.660067 0.537897 0.325328
0.695269 0.546076 0.333334
0.730176 0.554274 0.341379
0.764705 0.562487 0.349462
0.776855 0.565405 0.352339
0.269998 0.494269 0.258062
0.302134 0.501833 0.265290
0.335167 0.509527 0.272661
0.368888 0.517311 0.280142
0.403158 0.525165 0.287712
0.437861 0.533075 0.295359
0.472898 0.541031 0.303074
0.508176 0.549026 0.310850
0.543606 0.557055 0.318682
0.579103 0.565112 0.326565
0.614583 0.573194 0.334496
0.649962 0.581297 0.342472
0.685158 0.589417 0.350489
0.720088 0.597553 0.358546
0.754672 0.605701 0.366640
0.788826 0.613859 0.374768
0.800830 0.616757 0.377662
0.294730 0.545933 0.282684
0.327132 0.553483 0.289979
0.360390 0.561158 0.297417
0.394295 0.568918 0.304963
0.428702 0.576742 0.312597
0.463496 0.584618 0.320305
0.498577 0.592535 0.328079
0.533850 0.600485 0.335912
0.569226 0.608464 0.343799
0.604620 0.616466 0.351734
0.639946 0.624487 0.359715
0.675120 0.632523 0.367739
0.710060 0.640572 0.375802
0.744683 0.648631 0.383901
0.778907 0.656696 0.392035
0.812649 0.664766 0.400202
0.824495 0.667631 0.403108
0.319671 0.597410 0.307527
0.352305 0.604915 0.314882
0.385755 0.612539 0.322379
0.419808 0.620243 0.329983
0.454317 0.628007 0.337671
0.489168 0.635816 0.345433
0.524257 0.643661 0.353258
0.559490 0.651534 0.361140
0.594777 0.659430 0.369074
0.630031 0.667344 0.377054
0.665167 0.675271 0.385077
0.700101 0.683208 0.393140
0.734749 0.691152 0.401240
0.769029 0.699100 0.409374
0.802856 0.707049 0.417540
0.836150 0.714998 0.425736
0.847823 0.717818 0.428652
0.344795 0.648489 0.332565
0.377628 0.655918 0.339972
0.411235 0.663461 0.347521
0.445401 0.671078 0.355174
0.479979 0.678748 0.362910
0.514851 0.686458 0.370717
0.549913 0.694199 0.378586
0.585070 0.701962 0.386509
0.620232 0.709743 0.394481
0.655311 0.717535 0.402497
0.690222 0.725335 0.410554
0.724879 0.733140 0.418649
0.759199 0.740946 0.426777
0.793098 0.748750 0.434938
0.826493 0.756550 0.443128
0.859302 0.764343 0.451345
0.870791 0.767107 0.454267
0.370075 0.698960 0.357772
0.403074 0.706283 0.365225
0.436805 0.713712 0.372817
0.471050 0.721210 0.380512
0.505661 0.728755 0.388288
0.540518 0.736335 0.396132
0.575518 0.743938 0.404036
0.610565 0.751559 0.411992
0.645566 0.759191 0.419994
0.680434 0.766829 0.428039
0.715083 0.774470 0.436122
0.749427 0.782109 0.444239
0.783383 0.789743 0.452388
0.816866 0.797370 0.460567
0.849792 0.804987 0.468772
0.882080 0.812591 0.477002
0.893370 0.815287 0.479929
0.395487 0.748613 0.383124
0.428617 0.755798 0.390614
0.462438 0.763083 0.398242
0.496728 0.770430 0.405970
0.531337 0.777818 0.413778
0.566145 0.785234 0.421652
0.601048 0.792669 0.429583
0.635948 0.800114 0.437564
0.670753 0.807565 0.445589
0.705374 0.815016 0.453653
0.739726 0.822464 0.461753
0.773721 0.829904 0.469886
0.807276 0.837334 0.478048
0.840306 0.844750 0.486236
0.872728 0.852151 0.494449
0.904457 0.859533 0.502683
0.915537 0.862148 0.505611
0.421005 0.797236 0.408593
0.454233 0.804253 0.416113
0.488109 0.811362 0.423769
0.522409 0.818527 0.431523
0.556982 0.825726 0.439355
0.591706 0.832947 0.447251
0.626476 0.840179 0.455201
0.661194 0.847417 0.463198
0.695767 0.854654 0.471238
0.730106 0.861886 0.479314
0.764123 0.869107 0.487424
0.797734 0.876316 0.495563
0.830852 0.883507 0.503729
0.863393 0.890680 0.511919
0.895273 0.897831 0.520130
0.926408 0.904957 0.528361
0.937264 0.907480 0.531287
0.446601 0.844620 0.434155
0.479895 0.851438 0.441697
0.513792 0.858340 0.449373
0.548067 0.865290 0.457145
0.582569 0.872268 0.464993
0.617174 0.879261 0.472902
0.651776 0.886260 0.480863
0.686276 0.893258 0.488870
0.720582 0.900248 0.496915
0.754602 0.907227 0.504996
0.788251 0.914189 0.513106
0.821440 0.921132 0.521244
0.854085 0.928053 0.529406
0.886101 0.934948 0.537590
0.917404 0.941816 0.545792
0.947908 0.948652 0.554011
0.958527 0.951071 0.556932
0.063250 0.057779 0.074862
0.091545 0.064099 0.081289
0.121069 0.070569 0.087865
0.151646 0.077158 0.094559
0.183158 0.083848 0.101355
0.215506 0.090630 0.108240
0.248600 0.097495 0.115208
0.282358 0.104439 0.122253
0.316697 0.111457 0.129371
0.351539 0.118545 0.136557
0.386804 0.125700 0.143808
0.422416 0.132919 0.151122
0.458296 0.140200 0.158496
0.494365 0.147541 0.165928
0.530546 0.154940 0.173416
0.566760 0.162395 0.180958
0.579607 0.165054 0.183648
0.084988 0.101747 0.096839
0.113848 0.108329 0.103393
0.143900 0.115060 0.110097
0.174967 0.121908 0.116918
0.206926 0.128856 0.123839
0.239677 0.135892 0.130849
0.273129 0.143008 0.137939
0.307198 0.150199 0.145105
0.341800 0.157460 0.152341
0.376857 0.164787 0.159643
0.412289 0.172177 0.167009
0.448017 0.179626 0.174435
0.483962 0.187133 0.181919
0.520047 0.194696 0.189458
0.556192 0.202311 0.197052
0.592318 0.209978 0.204697
0.605122 0.212711 0.207423
0.107165 0.147412 0.119240
0.136555 0.154224 0.125915
0.167102 0.161185 0.132739
0.198624 0.168261 0.139679
0.230996 0.175434 0.146717
0.264115 0.182692 0.153843
0.297890 0.190027 0.161048
0.332233 0.197432 0.168326
0.367064 0.204903 0.175672
0.402299 0.212437 0.183083
0.437861 0.220028 0.190554
0.473670 0.227675 0.198084
0.509645 0.235375 0.205670
0.545709 0.243125 0.213309
0.581782 0.250924 0.221000
0.617784 0.258769 0.228740
0.630531 0.261565 0.231498
0.129754 0.194563 0.142040
0.159641 0.201575 0.148828
0.190649 0.208735 0.155764
0.222592 0.216007 0.162815
0.255342 0.223373 0.169963
0.288794 0.230820 0.177197
0.322855 0.238341 0.184508
0.357439 0.245928 0.191890
0.392461 0.253577 0.199339
0.427841 0.261284 0.206850
0.463496 0.269044 0.214419
0.499349 0.276855 0.222045
0.535318 0.284715 0.229725
0.571325 0.292620 0.237455
0.607289 0.300568 0.245234
0.643131 0.308558 0.253060
0.655808 0.311404 0.255849
0.152731 0.242989 0.165213
0.183081 0.250170 0.172106
0.214515 0.257497 0.179146
0.246844 0.264934 0.186300
0.279937 0.272461 0.193551
0.313687 0.280066 0.200884
0.348000 0.287740 0.208294
0.382789 0.295477 0.215772
0.417967 0.303271 0.223315
0.453454 0.311118 0.230918
0.489168 0.319014 0.238578
0.525029 0.326956 0.246292
0.560955 0.334941 0.254056
0.596868 0.342968 0.261869
0.632688 0.351033 0.269729
0.668333 0.359134 0.277633
0.680928 0.362018 0.280449
0.176068 0.292481 0.188734
0.206848 0.299800 0.195723
0.238675 0.307263 0.202860
0.271356 0.314833 0.210110
0.304756 0.322489 0.217454
0.338769 0.330219 0.224880
0.373299 0.338014 0.232380
0.408256 0.345868 0.239947
0.443556 0.353774 0.247576
0.479115 0.361728 0.255263
0.514851 0.369727 0.263004
0.550683 0.377767 0.270797
0.586532 0.385845 0.278639
0.622315 0.393959 0.286527
0.657953 0.402107 0.294459
0.693364 0.410286 0.302433
0.705864 0.413196 0.305273
0.199740 0.342827 0.212575
0.230917 0.350254 0.219654
0.263102 0.357821 0.226880
0.296100 0.365492 0.234218
0.329774 0.373245 0.241648
0.364015 0.381069 0.249158
0.398726 0.388952 0.256740
0.433817 0.396890 0.264387
0.469202 0.404875 0.272095
0.504796 0.412904 0.279857
0.540519 0.420972 0.287673
0.576287 0.429077 0.295537
0.612020 0.437215 0.303447
0.647638 0.445384 0.311402
0.683058 0.453581 0.319398
0.718200 0.461805 0.327433
0.730591 0.464729 0.330295
0.223722 0.393817 0.236712
0.255261 0.401320 0.243873
0.287772 0.408961 0.251181
0.321052 0.416701 0.258598
0.354964 0.424520 0.266106
0.389398 0.432404 0.273693
0.424255 0.440344 0.281349
0.459444 0.448333 0.289068
0.494878 0.456365 0.296846
0.530473 0.464435 0.304676
0.566146 0.472540 0.312557
0.601814 0.480677 0.320484
0.637396 0.488841 0.328455
0.672811 0.497031 0.336468
0.707977 0.505245 0.344519
0.742813 0.513479 0.352608
0.755083 0.516406 0.355488
0.247987 0.445241 0.261119
0.279856 0.452790 0.268355
0.312656 0.460473 0.275735
0.346185 0.468251 0.283225
0.380301 0.476103 0.290803
0.414892 0.484015 0.298458
0.449860 0.491979 0.306181
0.485112 0.499987 0.313964
0.520560 0.508032 0.321803
0.556119 0.516112 0.329693
0.591706 0.524220 0.337631
0.627238 0.532355 0.345613
0.662633 0.540513 0.353637
0.697809 0.548691 0.361699
0.732685 0.556887 0.369799
0.767178 0.565098 0.377932
0.779313 0.568015 0.380827
0.272509 0.496888 0.285769
0.304674 0.504452 0.293072
0.337732 0.512145 0.300518
0.371473 0.519929 0.308072
0.405758 0.527782 0.315713
0.440472 0.535691 0.323428
0.475515 0.543646 0.331209
0.510794 0.551640 0.339048
0.546221 0.559667 0.346941
0.581709 0.567722 0.354883
0.617175 0.575802 0.362870
0.652534 0.583902 0.370898
0.687706 0.592019 0.378966
0.722607 0.600152 0.387071
0.757155 0.608297 0.395209
0.791269 0.616451 0.403380
0.803258 0.619348 0.406287
0.297264 0.548547 0.310638
0.329691 0.556096 0.318000
0.362971 0.563769 0.325504
0.396892 0.571527 0.333114
0.431311 0.579349 0.340809
0.466112 0.587222 0.348577
0.501196 0.595136 0.356408
0.536466 0.603084 0.364295
0.571835 0.611059 0.372234
0.607216 0.619057 0.380219
0.642524 0.627074 0.388247
0.677676 0.635106 0.396314
0.712588 0.643150 0.404418
0.747178 0.651204 0.412556
0.781363 0.659264 0.420726
0.815061 0.667329 0.428924
0.826889 0.670193 0.431841
0.322225 0.600009 0.335698
0.354881 0.607511 0.343112
0.388349 0.615132 0.350667
0.422414 0.622833 0.358325
0.456932 0.630592 0.366067
0.491787 0.638397 0.373879
0.526875 0.646238 0.381752
0.562101 0.654106 0.389680
0.597378 0.661997 0.397656
0.632616 0.669905 0.405676
0.667730 0.677826 0.413737
0.702637 0.685758 0.421835
0.737254 0.693695 0.429966
0.771496 0.701637 0.438129
0.805281 0.709579 0.446322
0.838527 0.717521 0.454541
0.850182 0.720339 0.457464
0.347366 0.651063 0.360925
0.380217 0.658487 0.368383
0.413839 0.666025 0.375980
0.448014 0.673636 0.383679
0.482597 0.681301 0.391460
0.517469 0.689006 0.399308
0.552526 0.696740 0.407216
0.587674 0.704497 0.415175
0.622822 0.712271 0.423181
0.657881 0.720056 0.431228
0.692766 0.727849 0.439314
0.727393 0.735646 0.447434
0.761677 0.743444 0.455585
0.795536 0.751240 0.463765
0.828885 0.759031 0.471972
0.861642 0.766816 0.480203
0.873111 0.769577 0.483130
0.372661 0.701498 0.386293
0.405674 0.708814 0.393787
0.439416 0.716237 0.401419
0.473667 0.723727 0.409151
0.508280 0.731266 0.416962
0.543134 0.738837 0.424839
0.578126 0.746433 0.432773
0.613159 0.754046 0.440756
0.648142 0.761670 0.448783
0.682986 0.769299 0.456850
0.717606 0.776931 0.464952
0.751917 0.784560 0.473085
0.785833 0.792185 0.481248
0.819271 0.799802 0.489437
0.852148 0.807409 0.497650
0.884380 0.815003 0.505885
0.895650 0.817695 0.508812
0.398085 0.751103 0.411775
0.431227 0.758280 0.419298
0.465054 0.765557 0.426957
0.499347 0.772895 0.434714
0.533954 0.780275 0.442548
0.568755 0.787682 0.450446
0.603646 0.795107 0.458398
0.638529 0.802543 0.466397
0.673312 0.809984 0.474437
0.707906 0.817425 0.482515
0.742225 0.824862 0.490625
0.776183 0.832291 0.498764
0.809695 0.839709 0.506930
0.842677 0.847114 0.515120
0.875045 0.854503 0.523331
0.906715 0.861873 0.531561
0.917773 0.864484 0.534486
0.423611 0.799669 0.437346
0.456848 0.806676 0.444890
0.490727 0.813776 0.452569
0.525026 0.820930 0.460343
0.559594 0.828119 0.468192
0.594308 0.835329 0.476102
0.629062 0.842550 0.484064
0.663759 0.849777 0.492071
0.698307 0.857002 0.500117
0.732615 0.864221 0.508197
0.766596 0.871431 0.516307
0.800166 0.878626 0.524445
0.833237 0.885805 0.532606
0.865726 0.892965 0.540788
0.897549 0.900102 0.548988
0.928622 0.907214 0.557205
0.939454 0.909732 0.560125
0.449215 0.846984 0.462980
0.482513 0.853791 0.470538
0.516410 0.860682 0.478228
0.550681 0.867620 0.486012
0.585174 0.874586 0.493868
0.619765 0.881567 0.501783
0.654348 0.888553 0.509747
0.688824 0.895537 0.517754
0.723100 0.902514 0.525797
0.757086 0.909479 0.533871
0.790695 0.916428 0.541974
0.823839 0.923357 0.550100
0.856434 0.930263 0.558248
0.888394 0.937143 0.566414
0.919636 0.943995 0.574596
0.950073 0.950817 0.582791
0.960668 0.953230 0.585703
0.065355 0.059873 0.098579
0.093707 0.066207 0.105143
0.123284 0.072690 0.111857
0.153911 0.079291 0.118688
0.185468 0.085995 0.125618
0.217857 0.092790 0.132637
0.250988 0.099668 0.139737
0.284777 0.106625 0.146911
0.319143 0.113655 0.154156
0.354008 0.120756 0.161467
0.389291 0.127923 0.168841
0.424916 0.135154 0.176276
0.460804 0.142447 0.183768
0.496877 0.149799 0.191316
0.533055 0.157210 0.198917
0.569262 0.164676 0.206570
0.582105 0.167339 0.209299
0.087138 0.103928 0.121013
0.116050 0.110522 0.127696
0.146152 0.117265 0.134529
0.177266 0.124125 0.141478
0.209267 0.131084 0.148526
0.242055 0.138131 0.155660
0.275540 0.145259 0.162874
0.309637 0.152461 0.170160
0.344263 0.159733 0.177515
0.379339 0.167071 0.184933
0.414785 0.174471 0.192413
0.450523 0.181931 0.199951
0.486473 0.189448 0.207544
0.522558 0.197021 0.215191
0.558697 0.204646 0.222889
0.594813 0.212322 0.230636
0.607611 0.215059 0.233397
0.109356 0.149670 0.143843
0.138796 0.156493 0.150639
0.169389 0.163464 0.157583
0.200954 0.170550 0.164643
0.233365 0.177733 0.171799
0.266518 0.185001 0.179041
0.300322 0.192346 0.186360
0.334691 0.199761 0.193750
0.369541 0.207241 0.201207
0.404793 0.214784 0.208725
0.440365 0.222384 0.216302
0.476179 0.230040 0.223935
0.512156 0.237748 0.231622
0.548216 0.245507 0.239359
0.584280 0.253314 0.247144
0.620268 0.261167 0.254977
0.633008 0.263965 0.257768
0.131984 0.196888 0.167044
0.161918 0.203909 0.173944
0.192969 0.211077 0.180993
0.224951 0.218358 0.188155
0.257736 0.225733 0.195413
0.291218 0.233189 0.202754
0.325306 0.240717 0.210171
0.359911 0.248313 0.217657
0.394951 0.255970 0.225206
0.430342 0.263684 0.232816
0.466005 0.271451 0.240483
0.501860 0.279270 0.248203
0.537827 0.287136 0.255974
0.573826 0.295047 0.263793
0.609777 0.303002 0.271659
0.645602 0.310999 0.279569
0.658271 0.313846 0.282387
0.154997 0.245370 0.190590
0.185390 0.252559 0.197587
0.216865 0.259894 0.204732
0.249230 0.267337 0.211989
0.282354 0.274872 0.219340
0.316131 0.282483 0.226773
0.350467 0.290164 0.234279
0.385274 0.297907 0.241853
0.420466 0.305707 0.249488
0.455961 0.313560 0.257181
0.491679 0.321462 0.264929
0.527538 0.329410 0.272728
0.563459 0.337400 0.280575
0.599361 0.345432 0.288469
0.635164 0.353501 0.296406
0.670788 0.361607 0.304385
0.683374 0.364493 0.307227
0.178368 0.294908 0.214456
0.209188 0.302234 0.221542
0.241052 0.309703 0.228775
0.273765 0.317278 0.236119
0.307194 0.324939 0.243555
0.341231 0.332675 0.251072
0.375780 0.340475 0.258660
0.410752 0.348333 0.266313
0.446061 0.356244 0.274026
0.481625 0.364203 0.281794
0.517362 0.372206 0.289615
0.553189 0.380250 0.297484
0.589028 0.388332 0.305400
0.624796 0.396449 0.313359
0.660415 0.404600 0.321360
0.695802 0.412782 0.329400
0.708291 0.415693 0.332263
0.202071 0.345291 0.238615
0.233285 0.352722 0.245783
0.265504 0.360294 0.253096
0.298531 0.367969 0.260519
0.332230 0.375726 0.268033
0.366491 0.383553 0.275625
0.401218 0.391440 0.283287
0.436320 0.399381 0.291012
0.471711 0.407369 0.298794
0.507307 0.415401 0.306630
0.543027 0.423472 0.314515
0.578787 0.431579 0.322447
0.614507 0.439719 0.330422
0.650106 0.447890 0.338439
0.685503 0.456089 0.346495
0.720616 0.464313 0.354588
0.732996 0.467238 0.357469
0.226082 0.396307 0.263042
0.257655 0.403813 0.270283
0.290195 0.411457 0.277669
0.323501 0.419199 0.285164
0.357435 0.427021 0.292748
0.391886 0.434907 0.300408
0.426755 0.442849 0.308135
0.461952 0.450839 0.315923
0.497389 0.458872 0.323767
0.532982 0.466944 0.331661
0.568648 0.475050 0.339603
0.604305 0.483187 0.347589
0.639870 0.491352 0.355617
0.675263 0.499543 0.363683
0.710402 0.507756 0.371785
0.745206 0.515989 0.379922
0.757464 0.518916 0.382818
0.250373 0.447746 0.287710
0.282273 0.455297 0.295018
0.315100 0.462981 0.302469
0.348651 0.470760 0.310027
0.382785 0.478613 0.317673
0.417390 0.486526 0.325392
0.452366 0.494490 0.333177
0.487622 0.502498 0.341021
0.523070 0.510543 0.348918
0.558624 0.518622 0.356863
0.594201 0.526730 0.364854
0.629718 0.534864 0.372886
0.665092 0.543021 0.380957
0.700243 0.551197 0.389064
0.735088 0.559391 0.397205
0.769546 0.567600 0.405378
0.781668 0.570517 0.408287
0.274920 0.499399 0.312595
0.307112 0.506963 0.319961
0.340192 0.514656 0.327470
0.373953 0.522440 0.335084
0.408253 0.530292 0.342783
0.442977 0.538200 0.350554
0.478025 0.546154 0.358389
0.513305 0.554146 0.366280
0.548728 0.562171 0.374222
0.584207 0.570224 0.382210
0.619659 0.578301 0.390241
0.655000 0.586399 0.398311
0.690147 0.594514 0.406417
0.725020 0.602643 0.414557
0.759534 0.610785 0.422729
0.793609 0.618936 0.430930
0.805582 0.621831 0.433847
0.299696 0.551054 0.337669
0.332147 0.558601 0.345087
0.365446 0.566272 0.352645
0.399383 0.574028 0.360307
0.433813 0.581848 0.368052
0.468621 0.589718 0.375867
0.503707 0.597629 0.383744
0.538975 0.605574 0.391674
0.574336 0.613546 0.399653
0.609705 0.621540 0.407675
0.644995 0.629553 0.415738
0.680125 0.637581 0.423838
0.715009 0.645621 0.431972
0.749567 0.653670 0.440136
0.783715 0.661726 0.448330
0.817370 0.669785 0.456550
0.829182 0.672647 0.459474
0.324675 0.602501 0.362908
0.357352 0.610000 0.370369
0.390836 0.617617 0.377969
0.424914 0.625314 0.385671
0.459440 0.633070 0.393454
0.494298 0.640871 0.401306
0.529384 0.648707 0.409215
0.564605 0.656570 0.417177
0.599870 0.664456 0.425185
0.635092 0.672359 0.433234
0.670186 0.680275 0.441321
0.705067 0.688201 0.449442
0.739653 0.696132 0.457595
0.773859 0.704067 0.465776
0.807603 0.712004 0.473983
0.840803 0.719938 0.482215
0.852440 0.722754 0.485142
0.349832 0.653529 0.388286
0.382701 0.660949 0.395782
0.416336 0.668481 0.403417
0.450521 0.676088 0.411151
0.485108 0.683747 0.418964
0.519979 0.691446 0.426843
0.555032 0.699175 0.434779
0.590170 0.706925 0.442764
0.625303 0.714692 0.450792
0.660343 0.722471 0.458860
0.695204 0.730257 0.466962
0.729801 0.738046 0.475097
0.764051 0.745837 0.483260
0.797870 0.753625 0.491450
0.831175 0.761408 0.499663
0.863882 0.769184 0.507897
0.875332 0.771942 0.510825
0.375141 0.703928 0.413776
0.408169 0.711239 0.421301
0.441920 0.718655 0.428962
0.476177 0.726139 0.436720
0.510791 0.733670 0.444556
0.545641 0.741235 0.452455
0.580625 0.748823 0.460408
0.615645 0.756428 0.468408
0.650610 0.764044 0.476449
0.685431 0.771665 0.484527
0.720024 0.779288 0.492637
0.754301 0.786908 0.500777
0.788179 0.794524 0.508943
0.821575 0.802131 0.517132
0.854403 0.809728 0.525343
0.886582 0.817312 0.533572
0.897832 0.820000 0.536496
0.400576 0.753488 0.439353
0.433729 0.760658 0.446898
0.467563 0.767927 0.454578
0.501858 0.775257 0.462353
0.536462 0.782628 0.470203
0.571257 0.790026 0.478114
0.606136 0.797442 0.486077
0.641002 0.804868 0.494084
0.675764 0.812300 0.502130
0.710332 0.819730 0.510210
0.744619 0.827157 0.518320
0.778541 0.834576 0.526456
0.812011 0.841983 0.534616
0.844946 0.849377 0.542797
0.877263 0.856754 0.550997
0.908876 0.864112 0.559212
0.919913 0.866719 0.562132
0.426112 0.801998 0.464991
0.459356 0.808997 0.472550
0.493238 0.816086 0.480240
0.527536 0.823231 0.488024
0.562098 0.830409 0.495880
0.596801 0.837609 0.503795
0.631540 0.844820 0.511759
0.666217 0.852036 0.519766
0.700740 0.859250 0.527808
0.735018 0.866457 0.535882
0.768965 0.873655 0.543983
0.802494 0.880838 0.552109
0.835521 0.888005 0.560255
0.867960 0.895151 0.568420
0.899728 0.902275 0.576600
0.930739 0.909374 0.584793
0.941549 0.911887 0.587704
0.451721 0.849248 0.490664
0.485023 0.856044 0.498228
0.518921 0.862924 0.505922
0.553187 0.869851 0.513707
0.587670 0.876805 0.521561
0.622248 0.883774 0.529473
0.656812 0.890747 0.537430
0.691264 0.897719 0.545428
0.725512 0.904683 0.553459
0.759465 0.911635 0.561518
0.793035 0.918570 0.569603
0.826136 0.925485 0.577709
0.858683 0.932377 0.585833
0.890589 0.939243 0.593973
0.921772 0.946081 0.602126
0.952145 0.952887 0.610289
0.962716 0.955295 0.613189
0.067411 0.061917 0.122164
0.095818 0.068264 0.128854
0.125446 0.074760 0.135692
0.156121 0.081375 0.142647
0.187722 0.088091 0.149700
0.220150 0.094899 0.156840
0.253316 0.101790 0.164059
0.287136 0.108759 0.171351
0.321529 0.115801 0.178711
0.356415 0.122914 0.186135
0.391716 0.130092 0.193620
0.427353 0.137335 0.201163
0.463248 0.144640 0.208761
0.499324 0.152003 0.216413
0.535500 0.159424 0.224115
0.571700 0.166901 0.231867
0.584539 0.169568 0.234629
