assets/luts/archive_sepia.cube
# Архивная сепия — для подлинных фото
TITLE "archive_sepia"
LUT_3D_SIZE 9
DOMAIN_MIN 0.0 0.0 0.0
DOMAIN_MAX 1.0 1.0 1.0
0.061059 0.055600 0.050685
0.118762 0.068362 0.063383
0.180753 0.081613 0.076570
0.246113 0.095233 0.090127
0.314147 0.109168 0.104002
0.384212 0.123385 0.118160
0.455681 0.137861 0.132578
0.527929 0.152577 0.147239
0.577000 0.162675 0.157302
0.104884 0.145061 0.094075
0.164720 0.158812 0.107303
0.228529 0.173040 0.121014
0.295355 0.187611 0.135085
0.364481 0.202468 0.149457
0.435250 0.217574 0.164097
0.507026 0.232903 0.178980
0.579176 0.248435 0.194088
0.627946 0.259064 0.204442
0.150371 0.240508 0.139177
0.212068 0.255001 0.152873
0.277418 0.269950 0.167046
0.345429 0.285215 0.181565
0.415362 0.300732 0.196371
0.486550 0.316462 0.211428
0.558344 0.332378 0.226710
0.630104 0.348459 0.242198
0.678374 0.359438 0.252800
0.197312 0.340258 0.185784
0.260600 0.355244 0.199887
0.327215 0.370659 0.214458
0.396128 0.386359 0.229362
0.466585 0.402275 0.244537
0.537903 0.418366 0.259946
0.609426 0.434605 0.275562
0.680506 0.450967 0.291364
0.728080 0.462113 0.302167
0.245500 0.442628 0.233688
0.310110 0.457857 0.248137
0.377711 0.473485 0.263044
0.447246 0.489360 0.278269
0.517942 0.505414 0.293748
0.589104 0.521603 0.309444
0.660067 0.537897 0.325328
0.730176 0.554274 0.341379
0.776855 0.565405 0.352339
0.294730 0.545933 0.282684
0.360390 0.561158 0.297417
0.428702 0.576742 0.312597
0.498577 0.592535 0.328079
0.569226 0.608464 0.343799
0.639946 0.624487 0.359715
0.710060 0.640572 0.375802
0.778907 0.656696 0.392035
0.824495 0.667631 0.403108
0.344795 0.648489 0.332565
0.411235 0.663461 0.347521
0.479979 0.678748 0.362910
0.549913 0.694199 0.378586
0.620232 0.709743 0.394481
0.690222 0.725335 0.410554
0.759199 0.740946 0.426777
0.826493 0.756550 0.443128
0.870791 0.767107 0.454267
0.395487 0.748613 0.383124
0.462438 0.763083 0.398242
0.531337 0.777818 0.413778
0.601048 0.792669 0.429583
0.670753 0.807565 0.445589
0.739726 0.822464 0.461753
0.807276 0.837334 0.478048
0.872728 0.852151 0.494449
0.915537 0.862148 0.505611
0.446601 0.844620 0.434155
0.513792 0.858340 0.449373
0.582569 0.872268 0.464993
0.651776 0.886260 0.480863
0.720582 0.900248 0.496915
0.788251 0.914189 0.513106
0.854085 0.928053 0.529406
0.917404 0.941816 0.545792
0.958527 0.951071 0.556932
0.065355 0.059873 0.098579
0.123284 0.072690 0.111857
0.185468 0.085995 0.125618
0.250988 0.099668 0.139737
0.319143 0.113655 0.154156
0.389291 0.127923 0.168841
0.460804 0.142447 0.183768
0.533055 0.157210 0.198917
0.582105 0.167339 0.209299
0.109356 0.149670 0.143843
0.169389 0.163464 0.157583
0.233365 0.177733 0.171799
0.300322 0.192346 0.186360
0.369541 0.207241 0.201207
0.440365 0.222384 0.216302
0.512156 0.237748 0.231622
0.584280 0.253314 0.247144
0.633008 0.263965 0.257768
0.154997 0.245370 0.190590
0.216865 0.259894 0.204732
0.282354 0.274872 0.219340
0.350467 0.290164 0.234279
0.420466 0.305707 0.249488
0.491679 0.321462 0.264929
0.563459 0.337400 0.280575
0.635164 0.353501 0.296406
0.683374 0.364493 0.307227
0.202071 0.345291 0.238615
0.265504 0.360294 0.253096
0.332230 0.375726 0.268033
0.401218 0.391440 0.283287
0.471711 0.407369 0.298794
0.543027 0.423472 0.314515
0.614507 0.439719 0.330422
0.685503 0.456089 0.346495
0.732996 0.467238 0.357469
0.250373 0.447746 0.287710
0.315100 0.462981 0.302469
0.382785 0.478613 0.317673
0.452366 0.494490 0.333177
0.523070 0.510543 0.348918
0.594201 0.526730 0.364854
0.665092 0.543021 0.380957
0.735088 0.559391 0.397205
0.781668 0.570517 0.408287
0.299696 0.551054 0.337669
0.365446 0.566272 0.352645
0.433813 0.581848 0.368052
0.503707 0.597629 0.383744
0.574336 0.613546 0.399653
0.644995 0.629553 0.415738
0.715009 0.645621 0.431972
0.783715 0.661726 0.448330
0.829182 0.672647 0.459474
0.349832 0.653529 0.388286
0.416336 0.668481 0.403417
0.485108 0.683747 0.418964
0.555032 0.699175 0.434779
0.625303 0.714692 0.450792
0.695204 0.730257 0.466962
0.764051 0.745837 0.483260
0.831175 0.761408 0.499663
0.875332 0.771942 0.510825
0.400576 0.753488 0.439353
0.467563 0.767927 0.454578
0.536462 0.782628 0.470203
0.606136 0.797442 0.486077
0.675764 0.812300 0.502130
0.744619 0.827157 0.518320
0.812011 0.841983 0.534616
0.877263 0.856754 0.550997
0.919913 0.866719 0.562132
0.451721 0.849248 0.490664
0.518921 0.862924 0.505922
0.587670 0.876805 0.521561
0.656812 0.890747 0.537430
0.725512 0.904683 0.553459
0.793035 0.918570 0.569603
0.858683 0.932377 0.585833
0.921772 0.946081 0.602126
0.962716 0.955295 0.613189
0.069433 0.063928 0.145734
0.127571 0.076796 0.159492
0.189937 0.090152 0.173726
0.255604 0.103876 0.188303
0.323872 0.117911 0.203166
0.394096 0.132225 0.218277
0.465647 0.146795 0.233611
0.537899 0.161601 0.249148
0.586927 0.171759 0.259780
0.113597 0.154039 0.192538
0.173815 0.167874 0.206695
0.237945 0.182182 0.221318
0.305023 0.196832 0.236271
0.374328 0.211764 0.251494
0.445202 0.226941 0.266947
0.517004 0.242338 0.282605
0.589100 0.257935 0.298447
0.637789 0.268606 0.309276
0.159382 0.249976 0.240611
0.221409 0.264527 0.255104
0.287027 0.279532 0.270054
0.355235 0.294850 0.285319
0.425292 0.310417 0.300837
0.496528 0.326194 0.316568
0.568292 0.342153 0.332485
0.639942 0.358272 0.348566
0.688093 0.369275 0.359545
0.206581 0.350052 0.289746
0.270148 0.365072 0.304515
0.336975 0.380519 0.319728
0.406032 0.396247 0.335241
0.476557 0.412187 0.350990
0.547867 0.428300 0.366933
0.619304 0.444555 0.383043
0.690218 0.460931 0.399297
0.737634 0.472083 0.410382
0.254988 0.452586 0.339736
0.319823 0.467825 0.354719
0.387584 0.483460 0.370133
0.457207 0.499338 0.385831
0.527916 0.515391 0.401745
0.599015 0.531576 0.417836
0.669836 0.547862 0.434073
0.739722 0.564226 0.450435
0.786205 0.575346 0.461580
0.304396 0.555892 0.390375
0.370230 0.571103 0.405511
0.438646 0.586670 0.421063
0.508555 0.602441 0.436881
0.579163 0.618344 0.452897
0.649763 0.634337 0.469070
0.719679 0.650388 0.485369
0.788247 0.666473 0.501771
0.833599 0.677380 0.512933
0.354599 0.658286 0.441456
0.421160 0.673220 0.456684
0.489956 0.688466 0.472310
0.559868 0.703870 0.488185
0.630091 0.719362 0.504238
0.699905 0.734900 0.520428
0.768627 0.750450 0.536723
0.835587 0.765990 0.553101
0.879610 0.776501 0.564234
0.405390 0.758086 0.492773
0.472408 0.772495 0.508031
0.541305 0.787163 0.523669
0.610941 0.801942 0.539537
0.680493 0.816762 0.555562
0.749235 0.831580 0.571704
0.816475 0.846365 0.587930
0.881535 0.861091 0.604217
0.924032 0.871025 0.615276
0.456562 0.853607 0.544118
0.523767 0.867242 0.559345
0.592489 0.881078 0.574933
0.661565 0.894974 0.590729
0.730163 0.908860 0.606663
0.797546 0.922695 0.622691
0.863014 0.936447 0.638782
0.925884 0.950094 0.654913
0.966657 0.959269 0.665853
0.073404 0.067878 0.193012
0.131744 0.080795 0.207172
0.194283 0.094200 0.221799
0.260091 0.107971 0.236756
0.328466 0.122053 0.251981
0.398761 0.136412 0.267438
0.470347 0.151025 0.283099
0.542597 0.165874 0.298944
0.591602 0.176058 0.309774
0.117725 0.158291 0.241096
0.178120 0.172163 0.255593
0.242398 0.186508 0.270545
0.309591 0.201194 0.285814
0.378977 0.216161 0.301334
0.449895 0.231371 0.317067
0.521706 0.246800 0.332986
0.593774 0.262426 0.349070
0.642421 0.273116 0.360050
0.163648 0.254452 0.290241
0.225828 0.269030 0.305012
0.291568 0.284060 0.320228
0.359865 0.299403 0.335743
0.429977 0.314993 0.351494
0.501231 0.330790 0.367439
0.572977 0.346769 0.383550
0.644572 0.362906 0.399806
0.692664 0.373919 0.410892
0.210967 0.354677 0.340238
0.274661 0.369712 0.355223
0.341585 0.385173 0.370639
0.410705 0.400913 0.386338
0.481259 0.416865 0.402254
0.552562 0.432986 0.418346
0.623955 0.449249 0.434584
0.694786 0.465629 0.450946
0.742125 0.476785 0.462092
0.259474 0.457282 0.390883
0.324412 0.472526 0.406020
0.392244 0.488163 0.421573
0.461905 0.504042 0.437392
0.532617 0.520094 0.453409
0.603681 0.536275 0.469582
0.674432 0.552556 0.485881
0.744209 0.568913 0.502284
0.790597 0.580028 0.513446
0.308964 0.560583 0.441967
0.374875 0.575787 0.457196
0.443338 0.591345 0.472823
0.513258 0.607105 0.488698
0.583843 0.622995 0.504751
0.654383 0.638973 0.520940
0.724202 0.655007 0.537235
0.792635 0.671073 0.553613
0.837873 0.681966 0.564745
0.359229 0.662896 0.493285
0.425843 0.677812 0.508543
0.494659 0.693036 0.524182
0.564558 0.708418 0.540049
0.634731 0.723885 0.556074
0.704459 0.739396 0.572214
0.773058 0.754917 0.588439
0.839855 0.770426 0.604726
0.883747 0.780914 0.615784
0.410063 0.762538 0.544630
0.477110 0.776917 0.559857
0.546002 0.791553 0.575444
0.615598 0.806297 0.591239
0.685075 0.821081 0.607171
0.753704 0.835860 0.623198
0.820794 0.850603 0.639287
0.885665 0.865286 0.655416
0.928013 0.875189 0.666355
0.461260 0.857825 0.595796
0.528469 0.871418 0.610929
0.597160 0.885210 0.626402
0.666171 0.899059 0.642061
0.734668 0.912897 0.657836
0.801912 0.926681 0.673683
0.867203 0.940380 0.689572
0.929858 0.953971 0.705478
0.970463 0.963107 0.716253
0.077307 0.071760 0.240561
0.135843 0.084726 0.255054
0.198549 0.098178 0.270003
0.264493 0.111995 0.285269
0.332970 0.126122 0.300786
0.403333 0.140525 0.316517
0.474951 0.155180 0.332433
0.547196 0.170068 0.348514
0.596177 0.180280 0.359493
0.121780 0.162466 0.289695
0.182347 0.176374 0.304463
0.246767 0.190756 0.319676
0.314071 0.205476 0.335190
0.383533 0.220476 0.350938
0.454493 0.235718 0.366881
0.526310 0.251177 0.382991
0.598347 0.266831 0.399245
0.646953 0.277540 0.410330
0.167837 0.258844 0.339684
0.230164 0.273447 0.354667
0.296021 0.288502 0.370081
0.364404 0.303868 0.385779
0.434567 0.319479 0.401693
0.505837 0.335297 0.417783
0.577563 0.351294 0.434021
0.649102 0.367447 0.450382
0.697134 0.378471 0.461528
0.215271 0.359210 0.390322
0.279087 0.374260 0.405459
0.346105 0.389735 0.421010
0.415284 0.405486 0.436828
0.485864 0.421448 0.452844
0.557158 0.437578 0.469017
0.628504 0.453847 0.485316
0.699253 0.470232 0.501719
0.746515 0.481389 0.512880
0.263875 0.461882 0.441403
0.328911 0.477129 0.456631
0.396811 0.492769 0.472258
0.466507 0.508648 0.488132
0.537218 0.524698 0.504186
0.608248 0.540876 0.520375
0.678926 0.557152 0.536670
0.748595 0.573501 0.553049
0.794888 0.584610 0.564181
0.313442 0.565175 0.492720
0.379427 0.580371 0.507978
0.447933 0.595920 0.523617
0.517863 0.611669 0.539484
0.588423 0.627546 0.555510
0.658901 0.643508 0.571651
0.728623 0.659525 0.587877
0.796921 0.675572 0.604165
0.842047 0.686451 0.615224
0.363767 0.667405 0.544066
0.430431 0.682302 0.559293
0.499265 0.697506 0.574881
0.569148 0.712864 0.590677
0.639270 0.728307 0.606611
0.708912 0.743790 0.622639
0.777387 0.759283 0.638730
0.844024 0.774760 0.654861
0.887785 0.785227 0.665802
0.414642 0.766889 0.595234
0.481714 0.781238 0.610369
0.550600 0.795842 0.625843
0.620155 0.810552 0.641504
0.689555 0.825299 0.657282
0.758072 0.840039 0.673131
0.825012 0.854741 0.689022
0.889697 0.869382 0.704931
0.931896 0.879254 0.715708
0.465861 0.861942 0.646019
0.533071 0.875494 0.661000
0.601731 0.889243 0.676298
0.670676 0.903047 0.691760
0.739071 0.916836 0.707316
0.806176 0.930569 0.722922
0.871292 0.944216 0.738547
0.933734 0.957752 0.754167
0.974174 0.966850 0.764736
0.081162 0.075595 0.288365
0.139888 0.088607 0.303128
0.202756 0.102106 0.318334
0.268831 0.115968 0.333842
0.337407 0.130139 0.349585
0.407834 0.144584 0.365523
0.479481 0.159279 0.381628
0.551720 0.174207 0.397879
0.600676 0.184444 0.408961
0.125784 0.166584 0.338334
0.186516 0.180529 0.353313
0.251074 0.194945 0.368722
0.318485 0.209699 0.384415
0.388020 0.224732 0.400326
0.459019 0.240005 0.416414
0.530840 0.255492 0.432648
0.602845 0.271174 0.449008
0.651408 0.281900 0.460152
0.171970 0.263173 0.388958
0.234439 0.277801 0.404091
0.300410 0.292880 0.419640
0.368874 0.308268 0.435455
0.439086 0.323900 0.451470
0.510369 0.339737 0.467641
0.582074 0.355751 0.483939
0.653554 0.371920 0.500342
0.701527 0.382954 0.511503
0.219515 0.363676 0.440030
0.283450 0.378739 0.455256
0.350557 0.394226 0.470881
0.419793 0.409989 0.486755
0.490396 0.425960 0.502809
0.561678 0.442098 0.518998
0.632977 0.458372 0.535295
0.703643 0.474762 0.551674
0.750827 0.485921 0.562809
0.268212 0.466410 0.491343
0.333343 0.481660 0.506601
0.401308 0.497301 0.522240
0.471036 0.513180 0.538109
0.541745 0.529228 0.554136
0.612738 0.545402 0.570279
0.683343 0.561672 0.586508
0.752903 0.578014 0.602799
0.799101 0.589117 0.613861
0.317855 0.569692 0.542691
0.383911 0.584880 0.557919
0.452457 0.600419 0.573509
0.522394 0.616156 0.589308
0.592926 0.632019 0.605246
0.663343 0.647966 0.621277
0.732966 0.663966 0.637373
0.801129 0.679994 0.653509
0.846143 0.690858 0.664454
0.368237 0.671837 0.593867
0.434947 0.686715 0.609005
0.503798 0.701898 0.624483
0.573663 0.717233 0.640148
0.643733 0.732651 0.655931
0.713287 0.748107 0.671786
0.781638 0.763570 0.687683
0.848114 0.779017 0.703598
0.891746 0.789461 0.714380
0.419150 0.771162 0.644665
0.486246 0.785481 0.659650
0.555123 0.800052 0.674953
0.624635 0.814728 0.690422
0.693958 0.829438 0.705985
0.762362 0.844140 0.721598
0.829153 0.858802 0.737231
0.893651 0.873399 0.752860
0.935703 0.883242 0.763435
0.470390 0.865982 0.694877
0.537599 0.879493 0.709649
0.606226 0.893199 0.724715
0.675104 0.906957 0.739922
0.743396 0.920698 0.755201
0.810363 0.934381 0.770508
0.875304 0.947976 0.785811
0.937534 0.961458 0.801087
0.977809 0.970517 0.811409
0.084981 0.079394 0.336349
0.143892 0.092452 0.351320
0.206918 0.105995 0.366723
0.273121 0.119901 0.382410
0.341792 0.134115 0.398316
0.412280 0.148601 0.414398
0.483954 0.163336 0.430629
0.556184 0.178302 0.446985
0.605113 0.188564 0.458128
0.129747 0.170660 0.386951
0.190641 0.184640 0.402079
0.255333 0.199090 0.417624
0.322847 0.213877 0.433436
0.392453 0.228940 0.449447
0.463488 0.244243 0.465616
0.535309 0.259759 0.481913
0.607280 0.275468 0.498315
0.655800 0.286211 0.509477
0.176060 0.267453 0.438009
0.238667 0.282105 0.453233
0.304748 0.297207 0.468856
0.373291 0.312617 0.484729
0.443547 0.328269 0.500782
0.514842 0.344124 0.516972
0.586523 0.360155 0.533270
0.657944 0.376340 0.549652
0.705856 0.387382 0.560788
0.223713 0.368087 0.489316
0.287763 0.383164 0.504574
0.354955 0.398663 0.520214
0.424246 0.414436 0.536084
0.494870 0.430416 0.552114
0.566137 0.446561 0.568260
0.637388 0.462841 0.584493
0.707969 0.479233 0.600789
0.755074 0.490394 0.611854
0.272501 0.470880 0.540667
0.337723 0.486133 0.555898
0.405750 0.501774 0.571491
0.475507 0.517653 0.587294
0.546212 0.533698 0.603236
0.617166 0.549868 0.619273
0.687697 0.566131 0.635376
0.757147 0.582466 0.651519
0.803250 0.593561 0.662469
0.322216 0.574148 0.591854
0.388340 0.589328 0.606996
0.456924 0.604857 0.622480
0.526866 0.620581 0.638152
0.597369 0.636431 0.653942
0.667722 0.652362 0.669805
0.737245 0.668344 0.685711
0.805273 0.684352 0.701637
0.850174 0.695202 0.712426
0.372652 0.676206 0.642670
0.439407 0.691065 0.657663
0.508271 0.706226 0.672974
0.578117 0.721538 0.688452
0.648133 0.736931 0.704024
0.717598 0.752360 0.719649
0.785825 0.767794 0.735294
0.852140 0.783209 0.750935
0.895642 0.793631 0.761518
0.423603 0.775370 0.692910
0.490719 0.789659 0.707692
0.559585 0.804199 0.722768
0.629053 0.818840 0.737987
0.698298 0.833514 0.753278
0.766588 0.848177 0.768598
0.833229 0.862798 0.783915
0.897542 0.877353 0.799206
0.939447 0.887165 0.809540
0.474861 0.869957 0.742366
0.542067 0.883429 0.756876
0.610659 0.897091 0.771653
0.679469 0.910803 0.786550
0.747658 0.924497 0.801495
0.814486 0.938130 0.816446
0.879252 0.951672 0.831371
0.941271 0.965099 0.846245
0.981381 0.974121 0.856284
0.088771 0.083164 0.384410
0.147863 0.096267 0.399532
0.211044 0.109854 0.415071
0.277371 0.123803 0.430878
0.346133 0.138058 0.446886
0.416680 0.152585 0.463052
0.488378 0.167359 0.479347
0.560597 0.182363 0.495748
0.609499 0.192649 0.506911
0.133678 0.174702 0.435450
0.194730 0.188715 0.450670
0.259553 0.203198 0.466292
0.327166 0.218017 0.482163
0.396840 0.233111 0.498215
0.467908 0.248443 0.514406
0.539729 0.263987 0.530705
0.611664 0.279721 0.547090
0.660139 0.290481 0.558228
0.180115 0.271693 0.486750
0.242857 0.286369 0.502008
0.309044 0.301493 0.517648
0.377662 0.316923 0.533520
0.447962 0.332595 0.549552
0.519266 0.348468 0.565702
0.590921 0.364515 0.581940
0.662281 0.380714 0.598241
0.710131 0.391765 0.609311
0.227874 0.372455 0.538103
0.292035 0.387544 0.553337
0.359310 0.403054 0.568934
0.428652 0.418837 0.584742
0.499294 0.434825 0.600690
0.570546 0.450976 0.616734
0.641746 0.467261 0.632845
0.712241 0.483657 0.648997
0.759268 0.494818 0.659954
0.276750 0.475302 0.589303
0.342060 0.490557 0.604451
0.410145 0.506199 0.619942
0.479930 0.522076 0.635622
0.550629 0.538118 0.651421
0.621542 0.554283 0.667295
0.691998 0.570540 0.683213
0.761337 0.586866 0.699150
0.807344 0.597955 0.709948
0.326535 0.578553 0.640143
0.392724 0.593724 0.655145
0.461342 0.609242 0.670466
0.531288 0.624955 0.685955
0.601760 0.640790 0.701540
0.672047 0.656705 0.717178
0.741471 0.672669 0.732837
0.809363 0.688657 0.748494
0.854151 0.699493 0.759089
0.377024 0.680521 0.690417
0.443820 0.695361 0.705210
0.512695 0.710501 0.720299
0.582520 0.725790 0.735533
0.652481 0.741157 0.750840
0.721856 0.756558 0.766176
0.789957 0.771963 0.781512
0.856112 0.787347 0.796822
0.899484 0.797747 0.807169
0.428009 0.779524 0.739917
0.495143 0.793784 0.754441
0.563997 0.808291 0.769235
0.633419 0.822898 0.784149
0.702584 0.837535 0.799114
0.770760 0.852159 0.814084
0.837251 0.866739 0.829030
0.901377 0.881251 0.843927
0.943135 0.891034 0.853981
0.479284 0.873878 0.788438
0.546485 0.887309 0.802631
0.615041 0.900928 0.817067
0.683780 0.914594 0.831598
0.751865 0.928240 0.846155
0.818554 0.941823 0.860695
0.883145 0.955314 0.875186
0.944953 0.968687 0.889604
0.984899 0.977670 0.899320
0.092537 0.086912 0.432432
0.151808 0.100058 0.447648
0.215139 0.113689 0.463266
0.281587 0.127680 0.479135
0.350438 0.141976 0.495187
0.421040 0.156542 0.511378
0.492760 0.171354 0.527679
0.564966 0.186394 0.544066
0.613839 0.196704 0.555207
0.137583 0.178715 0.483722
0.198790 0.192761 0.498979
0.263740 0.207277 0.514620
0.331450 0.222127 0.530494
0.401188 0.237251 0.546529
0.472288 0.252611 0.562683
0.544106 0.268181 0.578926
0.616003 0.283941 0.595235
0.664432 0.294717 0.606310
0.184141 0.275900 0.535078
0.247014 0.290598 0.550315
0.313306 0.305744 0.565916
0.381996 0.321195 0.581729
0.452336 0.336885 0.597684
0.523647 0.352776 0.613736
0.595274 0.368838 0.629856
0.666572 0.385051 0.646019
0.714360 0.396110 0.656984
0.232003 0.376784 0.586292
0.296273 0.391886 0.601448
0.363628 0.407407 0.616946
0.433019 0.423199 0.632636
0.503677 0.439195 0.648445
0.574911 0.455352 0.664331
0.646059 0.471641 0.680262
0.716466 0.488039 0.696214
0.763414 0.499201 0.707023
0.280965 0.479683 0.637159
0.346361 0.494940 0.652171
0.414502 0.510581 0.667505
0.484311 0.526457 0.683006
0.555002 0.542495 0.698606
0.625873 0.558655 0.714259
0.696253 0.574905 0.729936
0.765479 0.591222 0.745611
0.811390 0.602304 0.756219
0.330818 0.582913 0.687472
0.397069 0.598076 0.702280
0.465721 0.613583 0.717384
0.535666 0.629283 0.732634
0.606106 0.645104 0.747959
0.676327 0.661002 0.763316
0.745649 0.676948 0.778672
0.813404 0.692916 0.794004
0.858079 0.703737 0.804367
0.381357 0.684790 0.737024
0.448193 0.699610 0.751566
0.517077 0.714729 0.766379
0.586878 0.729994 0.781314
0.656782 0.745336 0.796300
0.726066 0.760710 0.811294
0.794042 0.776085 0.826264
0.860035 0.791437 0.841188
0.903277 0.801814 0.851260
0.432375 0.783631 0.785608
0.499526 0.797860 0.799823
0.568365 0.812335 0.814282
0.637740 0.826907 0.828837
0.706824 0.841507 0.843420
0.774884 0.856093 0.857986
0.841224 0.870632 0.872506
0.905164 0.885102 0.886954
0.946775 0.894854 0.896692
0.483665 0.877750 0.833018
0.550860 0.891140 0.846844
0.619377 0.904716 0.860886
0.688045 0.918337 0.874998
0.756024 0.931935 0.889113
0.822573 0.945468 0.903187
0.886989 0.958906 0.917190
0.948586 0.972225 0.931097
0.988368 0.981170 0.940455
