assets/luts/archive_paper.cube
# Архивная бумага — каталоги, вырезки, документы
TITLE "archive_paper"
LUT_3D_SIZE 17
DOMAIN_MIN 0.0 0.0 0.0
DOMAIN_MAX 1.0 1.0 1.0
0.073005 0.069575 0.064402
0.098613 0.076993 0.071793
0.124900 0.084523 0.079297
0.151774 0.092146 0.086893
0.179172 0.099848 0.094569
0.207040 0.107622 0.102318
0.235333 0.115463 0.110134
0.264008 0.123366 0.118013
0.293025 0.131329 0.125951
0.322345 0.139347 0.133946
0.351930 0.147419 0.141994
0.381742 0.155542 0.150095
0.411744 0.163715 0.158246
0.441899 0.171935 0.166444
0.472170 0.180201 0.174689
0.502521 0.188512 0.182979
0.520192 0.193364 0.187820
0.098288 0.113225 0.089538
0.124308 0.120853 0.097056
0.150984 0.128591 0.104685
0.178219 0.136417 0.112404
0.205950 0.144320 0.120202
0.234123 0.152292 0.128071
0.262692 0.160327 0.136004
0.291613 0.168421 0.143998
0.320846 0.176569 0.152050
0.350352 0.184770 0.160155
0.380091 0.193020 0.168312
0.410027 0.201317 0.176519
0.440122 0.209659 0.184773
0.470338 0.218044 0.193072
0.500639 0.226471 0.201416
0.530988 0.234938 0.209801
0.548644 0.239879 0.214697
0.124093 0.158234 0.115204
0.150499 0.166047 0.122841
0.177535 0.173969 0.130588
0.205105 0.181976 0.138423
0.233142 0.190056 0.146334
0.261592 0.198201 0.154315
0.290408 0.206405 0.162358
0.319547 0.214664 0.170459
0.348967 0.222974 0.178615
0.378629 0.231332 0.186823
0.408495 0.239735 0.195080
0.438525 0.248181 0.203385
0.468683 0.256668 0.211734
0.498932 0.265193 0.220126
0.529233 0.273756 0.228560
0.559550 0.282354 0.237033
0.577173 0.287370 0.241978
0.150360 0.204409 0.141344
0.177126 0.212384 0.149091
0.204495 0.220465 0.156947
0.232371 0.228627 0.164889
0.260685 0.236860 0.172907
0.289383 0.245153 0.180990
0.318418 0.253502 0.189135
0.347746 0.261902 0.197335
0.377324 0.270348 0.205588
0.407114 0.278837 0.213890
0.437075 0.287368 0.222239
0.467171 0.295937 0.230632
0.497363 0.304543 0.239068
0.527613 0.313183 0.247545
0.557884 0.321856 0.256060
0.588140 0.330560 0.264612
0.605712 0.335635 0.269602
0.177047 0.251581 0.167912
0.204144 0.259694 0.175761
0.231818 0.267908 0.183718
0.259971 0.276201 0.191760
0.288534 0.284561 0.199875
0.317452 0.292978 0.208053
0.346676 0.301445 0.216290
0.376163 0.309960 0.224581
0.405870 0.318517 0.232922
0.435757 0.327113 0.241310
0.465785 0.335746 0.249742
0.495916 0.344413 0.258216
0.526111 0.353112 0.266730
0.556333 0.361840 0.275282
0.586544 0.370597 0.283870
0.616708 0.379381 0.292493
0.634211 0.384500 0.297522
0.204115 0.299589 0.194870
0.231515 0.307813 0.202814
0.259465 0.316137 0.210864
0.287867 0.324536 0.218997
0.316649 0.332997 0.227200
0.345757 0.341511 0.235465
0.375141 0.350073 0.243787
0.404757 0.358676 0.252159
0.434563 0.367318 0.260580
0.464518 0.375995 0.269044
0.494583 0.384704 0.277551
0.524719 0.393443 0.286097
0.554887 0.402209 0.294681
0.585051 0.411000 0.303299
0.615171 0.419815 0.311952
0.645212 0.428652 0.320636
0.662628 0.433800 0.325700
0.231530 0.348273 0.222185
0.259203 0.356585 0.230215
0.287401 0.364993 0.238349
0.316022 0.373472 0.246564
0.344994 0.382009 0.254847
0.374263 0.390596 0.263190
0.403777 0.399225 0.271587
0.433493 0.407892 0.280033
0.463368 0.416593 0.288525
0.493361 0.425325 0.297058
0.523432 0.434084 0.305630
0.553543 0.442868 0.314239
0.583654 0.451675 0.322884
0.613728 0.460503 0.331560
0.643727 0.469350 0.340268
0.673614 0.478214 0.349005
0.690927 0.483376 0.354098
0.259256 0.397479 0.249821
0.287175 0.405853 0.257928
0.315591 0.414319 0.266138
0.344402 0.422853 0.274427
0.373535 0.431441 0.282782
0.402935 0.440074 0.291195
0.432550 0.448746 0.299659
0.462336 0.457450 0.308170
0.492250 0.466185 0.316723
0.522250 0.474945 0.325316
0.552297 0.483728 0.333945
0.582352 0.492532 0.342609
0.612375 0.501354 0.351305
0.642330 0.510192 0.360031
0.672177 0.519044 0.368785
0.701879 0.527909 0.377566
0.719070 0.533069 0.382684
0.287262 0.447051 0.277747
0.315397 0.455463 0.285923
0.344003 0.463962 0.294200
0.372974 0.472525 0.302555
0.402239 0.481138 0.310973
0.431739 0.489792 0.319446
0.461425 0.498479 0.327969
0.491251 0.507195 0.336535
0.521173 0.515937 0.345141
0.551151 0.524699 0.353785
0.581143 0.533480 0.362463
0.611112 0.542277 0.371172
0.641017 0.551087 0.379911
0.670821 0.559909 0.388677
0.700485 0.568740 0.397469
0.729972 0.577579 0.406285
0.747023 0.582722 0.411422
0.315515 0.496835 0.305930
0.343838 0.505259 0.314167
0.372604 0.513766 0.322503
0.401707 0.522333 0.330914
0.431073 0.530945 0.339387
0.460644 0.539593 0.347912
0.490371 0.548270 0.356484
0.520206 0.556972 0.365097
0.550107 0.565694 0.373748
0.580031 0.574433 0.382434
0.609939 0.583185 0.391151
0.639790 0.591949 0.399897
0.669546 0.600721 0.408670
0.699169 0.609500 0.417468
0.728620 0.618284 0.426288
0.757860 0.627070 0.435130
0.774752 0.632180 0.440281
0.343985 0.546677 0.334339
0.372466 0.555087 0.342628
0.401363 0.563577 0.351014
0.430566 0.572122 0.359473
0.460004 0.580707 0.367992
0.489617 0.589323 0.376560
0.519354 0.597965 0.385173
0.549168 0.606626 0.393825
0.579017 0.615302 0.402511
0.608858 0.623991 0.411230
0.638650 0.632688 0.419978
0.668354 0.641392 0.428752
0.697930 0.650100 0.437550
0.727340 0.658809 0.446370
0.756546 0.667519 0.455210
0.785509 0.676226 0.464069
0.802225 0.681288 0.469229
0.372639 0.596422 0.362942
0.401250 0.604794 0.371275
0.430247 0.613240 0.379703
0.459523 0.621737 0.388202
0.489002 0.630269 0.396757
0.518626 0.638828 0.405360
0.548343 0.647408 0.414004
0.578106 0.656001 0.422686
0.607872 0.664606 0.431399
0.637599 0.673218 0.440142
0.667245 0.681834 0.448911
0.696770 0.690451 0.457704
0.726136 0.699068 0.466518
0.755303 0.707681 0.475352
0.784233 0.716290 0.484203
0.812888 0.724891 0.493070
0.829409 0.729889 0.498233
0.401446 0.645916 0.391709
0.430157 0.654224 0.400077
0.459226 0.662601 0.408538
0.488543 0.671024 0.417067
0.518034 0.679478 0.425650
0.547639 0.687953 0.434279
0.577306 0.696444 0.442947
0.606988 0.704944 0.451649
0.636641 0.713451 0.460380
0.666222 0.721959 0.469138
0.695691 0.730467 0.477920
0.725007 0.738972 0.486723
0.754131 0.747470 0.495545
0.783024 0.755961 0.504383
0.811648 0.764442 0.513236
0.839963 0.772911 0.522102
0.856271 0.777829 0.527263
0.430376 0.695004 0.420608
0.459158 0.703223 0.429003
0.488268 0.711506 0.437488
0.517598 0.719829 0.446039
0.547070 0.728178 0.454642
0.576625 0.736543 0.463288
0.606212 0.744919 0.471970
0.635782 0.753300 0.480683
0.665291 0.761681 0.489424
0.694697 0.770060 0.498188
0.723958 0.778434 0.506974
0.753034 0.786799 0.515777
0.781885 0.795153 0.524597
0.810473 0.803494 0.533431
0.838758 0.811820 0.542277
0.866702 0.820129 0.551133
0.882780 0.824952 0.556287
0.459397 0.743533 0.449609
0.488220 0.751637 0.458022
0.517343 0.759799 0.466522
0.546654 0.767996 0.475086
0.576078 0.776214 0.483700
0.605554 0.784443 0.492354
0.635029 0.792678 0.501041
0.664457 0.800913 0.509757
0.693792 0.809143 0.518498
0.722991 0.817366 0.527260
0.752013 0.825578 0.536040
0.780818 0.833776 0.544836
0.809366 0.841959 0.553645
0.837617 0.850124 0.562465
0.865533 0.858268 0.571295
0.893075 0.866391 0.580132
0.908903 0.871104 0.585273
0.488479 0.791347 0.478680
0.517314 0.799310 0.487102
0.546419 0.807326 0.495610
0.575682 0.815371 0.504178
0.605027 0.823432 0.512793
0.634393 0.831499 0.521446
0.663727 0.839566 0.530130
0.692981 0.847628 0.538841
0.722111 0.855680 0.547572
0.751073 0.863720 0.556323
0.779825 0.871744 0.565089
0.808328 0.879749 0.573868
0.836541 0.887734 0.582657
0.864425 0.895695 0.591454
0.891940 0.903632 0.600259
0.919048 0.911541 0.609067
0.934609 0.916127 0.614191
0.517590 0.838290 0.507790
0.546407 0.846087 0.516213
0.575465 0.853931 0.524719
0.604650 0.861798 0.533283
0.633886 0.869676 0.541892
0.663111 0.877554 0.550535
0.692273 0.885427 0.559207
0.721324 0.893290 0.567902
0.750217 0.901138 0.576616
0.778911 0.908968 0.585346
0.807363 0.916777 0.594088
0.835533 0.924563 0.602841
0.863380 0.932322 0.611602
0.890865 0.940053 0.620368
0.917948 0.947754 0.629137
0.944592 0.955423 0.637909
0.959867 0.959867 0.643009
0.075535 0.072098 0.084987
0.101185 0.079529 0.092482
0.127513 0.087073 0.100089
0.154425 0.094708 0.107787
0.181857 0.102422 0.115564
0.209758 0.110209 0.123412
0.238080 0.118062 0.131325
0.266781 0.125977 0.139299
0.295821 0.133951 0.147330
0.325161 0.141981 0.155416
0.354763 0.150064 0.163554
0.384589 0.158198 0.171743
0.414601 0.166381 0.179979
0.444764 0.174612 0.188261
0.475039 0.182888 0.196587
0.505391 0.191209 0.204956
0.523062 0.196066 0.209842
0.100860 0.115821 0.110467
0.126921 0.123460 0.118082
0.153633 0.131209 0.125808
0.180904 0.139047 0.133622
0.208667 0.146961 0.141514
0.236869 0.154944 0.149474
0.265464 0.162989 0.157498
0.294408 0.171093 0.165580
0.323661 0.179252 0.173718
0.353184 0.187462 0.181908
0.382937 0.195722 0.190147
0.412884 0.204028 0.198434
0.442986 0.212379 0.206766
0.473207 0.220774 0.215142
0.503510 0.229209 0.223560
0.533857 0.237685 0.232018
0.551510 0.242631 0.236954
0.126704 0.160893 0.136456
0.153148 0.168717 0.144184
0.180219 0.176648 0.152020
0.207821 0.184665 0.159943
0.235887 0.192755 0.167942
0.264363 0.200909 0.176007
0.293202 0.209123 0.184133
0.322361 0.217390 0.192315
0.351799 0.225709 0.200551
0.381475 0.234075 0.208836
0.411351 0.242486 0.217169
0.441390 0.250940 0.225546
0.471552 0.259434 0.233967
0.501802 0.267967 0.242428
0.532102 0.276537 0.250929
0.562415 0.285142 0.259467
0.580033 0.290162 0.264449
0.153009 0.207124 0.162896
0.179809 0.215108 0.170728
0.207210 0.223197 0.178666
0.235115 0.231368 0.186690
0.263455 0.239608 0.194787
0.292177 0.247910 0.202949
0.321232 0.256266 0.211169
0.350576 0.264673 0.219443
0.380169 0.273126 0.227768
0.409970 0.281623 0.236141
0.439939 0.290160 0.244558
0.470040 0.298736 0.253018
0.500233 0.307347 0.261518
0.530482 0.315993 0.270056
0.560749 0.324672 0.278631
0.590997 0.333381 0.287241
0.608562 0.338459 0.292264
0.179730 0.254344 0.189743
0.206858 0.262463 0.197669
0.234562 0.270684 0.205702
0.262741 0.278985 0.213818
0.291327 0.287351 0.222006
0.320265 0.295774 0.230255
0.349506 0.304248 0.238561
0.379007 0.312768 0.246919
0.408725 0.321330 0.255325
0.438621 0.329932 0.263776
0.468654 0.338570 0.272269
0.498787 0.347242 0.280802
0.528980 0.355945 0.289373
0.559198 0.364678 0.297980
0.589402 0.373440 0.306621
0.619554 0.382227 0.315294
0.637049 0.387348 0.320352
0.206830 0.302389 0.216957
0.234258 0.310620 0.224971
0.262234 0.318949 0.233089
0.290659 0.327353 0.241290
0.319462 0.335819 0.249558
0.348587 0.344339 0.257888
0.377985 0.352905 0.266271
0.407613 0.361513 0.274703
0.437427 0.370159 0.283182
0.467387 0.378840 0.291703
0.497454 0.387552 0.300263
0.527588 0.396294 0.308861
0.557753 0.405063 0.317494
0.587908 0.413858 0.326161
0.618018 0.422675 0.334859
0.648045 0.431515 0.343586
0.665452 0.436664 0.348674
0.234273 0.351104 0.244503
0.261972 0.359420 0.252597
0.290193 0.367832 0.260793
0.318834 0.376315 0.269068
0.347824 0.384856 0.277410
0.377106 0.393446 0.285810
0.406633 0.402078 0.294262
0.436357 0.410749 0.302761
0.466237 0.419452 0.311303
0.496232 0.428186 0.319885
0.526302 0.436947 0.328504
0.556408 0.445734 0.337158
0.586512 0.454542 0.345845
0.616576 0.463372 0.354562
0.646561 0.472219 0.363308
0.676431 0.481084 0.372081
0.693732 0.486246 0.377195
0.262025 0.400332 0.272349
0.289966 0.408709 0.280513
0.318403 0.417178 0.288777
0.347231 0.425714 0.297120
0.376379 0.434304 0.305527
0.405789 0.442939 0.313989
0.435413 0.451612 0.322501
0.465204 0.460318 0.331057
0.495120 0.469053 0.339654
0.525120 0.477814 0.348288
0.555163 0.486598 0.356957
0.585210 0.495402 0.365659
0.615223 0.504224 0.374390
0.645164 0.513062 0.383149
0.674995 0.521914 0.391935
0.704677 0.530778 0.400745
0.721854 0.535937 0.405878
0.290054 0.449917 0.300460
0.318209 0.458330 0.308686
0.346832 0.466831 0.317012
0.375818 0.475395 0.325412
0.405094 0.484008 0.333875
0.434602 0.492662 0.342391
0.464294 0.501350 0.350954
0.494122 0.510066 0.359559
0.524043 0.518807 0.368202
0.554017 0.527569 0.376880
0.584002 0.536349 0.385590
0.613961 0.545144 0.394330
0.643852 0.553953 0.403097
0.673640 0.562773 0.411889
0.703284 0.571603 0.420705
0.732748 0.580439 0.429543
0.749783 0.585580 0.434691
0.318327 0.499706 0.328805
0.346667 0.508129 0.337085
0.375447 0.516637 0.345463
0.404561 0.525203 0.353913
0.433935 0.533814 0.362423
0.463512 0.542461 0.370984
0.493241 0.551137 0.379589
0.523076 0.559837 0.388234
0.552973 0.568557 0.396915
0.582890 0.577294 0.405627
0.612788 0.586043 0.414370
0.642626 0.594804 0.423139
0.672366 0.603574 0.431933
0.701969 0.612349 0.440750
0.731396 0.621129 0.449587
0.760611 0.629912 0.458443
0.777486 0.635020 0.463601
0.346814 0.549543 0.357353
0.375309 0.557952 0.365678
0.404217 0.566441 0.374099
0.433429 0.574983 0.382590
0.462872 0.583566 0.391139
0.492487 0.592180 0.399736
0.522224 0.600818 0.408375
0.552035 0.609476 0.417051
0.581876 0.618149 0.425760
0.611707 0.626834 0.434499
0.641486 0.635527 0.443264
0.671174 0.644227 0.452054
0.700731 0.652930 0.460866
0.730118 0.661635 0.469698
0.759298 0.670339 0.478548
0.788232 0.679041 0.487414
0.804929 0.684100 0.492576
0.375482 0.599276 0.386071
0.404104 0.607645 0.394434
0.433110 0.616088 0.402889
0.462391 0.624581 0.411412
0.491872 0.633110 0.419991
0.521496 0.641665 0.428615
0.551209 0.650239 0.437279
0.580966 0.658829 0.445978
0.610722 0.667428 0.454706
0.640436 0.676035 0.463462
0.670065 0.684645 0.472242
0.699571 0.693257 0.481044
0.728915 0.701868 0.489865
0.758056 0.710475 0.498703
0.786957 0.719077 0.507556
0.815580 0.727671 0.516423
0.832080 0.732665 0.521585
0.404301 0.648748 0.414929
0.433020 0.657052 0.423320
0.462094 0.665425 0.431801
0.491414 0.673843 0.440348
0.520904 0.682291 0.448948
0.550506 0.690761 0.457591
0.580166 0.699246 0.466271
0.609838 0.707740 0.474983
0.639478 0.716240 0.483722
0.669044 0.724742 0.492486
0.698493 0.733243 0.501272
0.727787 0.741740 0.510076
0.756886 0.750231 0.518897
0.785750 0.758714 0.527732
0.814341 0.767186 0.536580
0.842621 0.775647 0.545439
0.858907 0.780560 0.550594
0.433239 0.697807 0.443896
0.462026 0.706020 0.452306
0.491139 0.714297 0.460805
0.520468 0.722613 0.469367
0.549937 0.730955 0.477979
0.579486 0.739313 0.486632
0.609063 0.747682 0.495319
0.638620 0.756055 0.504035
0.668113 0.764429 0.512777
0.697500 0.772799 0.521540
0.726739 0.781164 0.530322
0.755789 0.789520 0.539120
0.784612 0.797865 0.547932
0.813168 0.806197 0.556755
0.841418 0.814513 0.565589
0.869324 0.822812 0.574430
0.885377 0.827630 0.579574
0.462265 0.746297 0.472940
0.491091 0.754393 0.481362
0.520213 0.762548 0.489869
0.549521 0.770737 0.498437
0.578938 0.778946 0.507052
0.608405 0.787167 0.515706
0.637868 0.795393 0.524392
0.667279 0.803619 0.533104
0.696595 0.811840 0.541838
0.725772 0.820052 0.550592
0.754769 0.828254 0.559361
0.783546 0.836442 0.568144
0.812062 0.844614 0.576938
0.840278 0.852768 0.585741
0.868156 0.860902 0.594550
0.895657 0.869013 0.603365
0.911459 0.873719 0.608493
0.491350 0.794063 0.502031
0.520184 0.802017 0.510455
0.549285 0.810024 0.518962
0.578542 0.818060 0.527527
0.607878 0.826111 0.536138
0.637231 0.834168 0.544784
0.666550 0.842225 0.553459
0.695785 0.850276 0.562157
0.724893 0.858317 0.570876
0.753830 0.866346 0.579611
0.782554 0.874358 0.588358
0.811025 0.882352 0.597117
0.839204 0.890324 0.605884
0.867049 0.898273 0.614657
0.894524 0.906196 0.623434
0.921588 0.914093 0.632214
0.937121 0.918671 0.637319
0.520460 0.840951 0.531138
0.549274 0.848737 0.539555
0.578325 0.856570 0.548054
0.607501 0.864427 0.556608
0.636724 0.872293 0.565204
0.665934 0.880160 0.573833
0.695078 0.888021 0.582489
0.724107 0.895871 0.591165
0.752975 0.903707 0.599859
0.781641 0.911524 0.608566
0.810062 0.919320 0.617283
0.838197 0.927092 0.626008
0.866006 0.934838 0.634739
0.893450 0.942555 0.643473
0.920489 0.950242 0.652208
0.947085 0.957896 0.660943
0.962331 0.962331 0.666022
0.078010 0.074567 0.105362
0.103701 0.082011 0.112954
0.130068 0.089567 0.120657
0.157017 0.097214 0.128449
0.184483 0.104940 0.136318
0.212414 0.112739 0.144257
0.240765 0.120604 0.152259
0.269491 0.128530 0.160320
0.298554 0.136515 0.168438
0.327913 0.144556 0.176607
0.357531 0.152650 0.184828
0.387370 0.160795 0.193096
0.417393 0.168988 0.201409
0.447562 0.177229 0.209767
0.477842 0.185515 0.218168
0.508195 0.193845 0.226608
0.525864 0.198708 0.231535
0.103376 0.118359 0.131161
0.129475 0.126009 0.138866
0.156224 0.133770 0.146680
0.183529 0.141618 0.154582
0.211322 0.149543 0.162560
0.239553 0.157537 0.170604
0.268173 0.165592 0.178710
0.297139 0.173706 0.186873
0.326412 0.181875 0.195090
0.355951 0.190094 0.203356
0.385718 0.198363 0.211671
0.415675 0.206679 0.220031
0.445784 0.215039 0.228434
0.476010 0.223442 0.236879
0.506313 0.231886 0.245363
0.536658 0.240369 0.253886
0.554309 0.245320 0.258859
0.129259 0.163494 0.157448
0.155739 0.171327 0.165258
0.182843 0.179268 0.173176
0.210476 0.187294 0.181180
0.238570 0.195393 0.189258
0.267071 0.203556 0.197400
0.295933 0.211779 0.205602
0.325111 0.220055 0.213858
0.354565 0.228382 0.222166
0.384255 0.236756 0.230521
0.414142 0.245175 0.238921
0.444187 0.253637 0.247365
0.474354 0.262138 0.255849
0.504606 0.270678 0.264373
0.534903 0.279255 0.272933
0.565211 0.287867 0.281529
0.582825 0.292890 0.286544
0.155599 0.209778 0.184163
0.182432 0.217770 0.192071
0.209864 0.225867 0.200085
0.237797 0.234046 0.208183
0.266163 0.242294 0.216352
0.294907 0.250603 0.224584
0.323981 0.258967 0.232873
0.353342 0.267381 0.241214
0.382948 0.275841 0.249604
0.412760 0.284345 0.258039
0.442737 0.292888 0.266518
0.472842 0.301470 0.275036
0.503037 0.310088 0.283593
0.533284 0.318740 0.292187
0.563546 0.327423 0.300815
0.593786 0.336138 0.309476
0.611345 0.341218 0.314527
0.182354 0.257043 0.211263
0.209512 0.265170 0.219259
0.237243 0.273398 0.227361
0.265447 0.281704 0.235544
0.294056 0.290077 0.243797
0.323013 0.298506 0.252110
0.352272 0.306986 0.260478
0.381786 0.315512 0.268896
0.411515 0.324080 0.277360
0.441418 0.332687 0.285867
0.471456 0.341329 0.294414
0.501590 0.350006 0.302999
0.531782 0.358714 0.311620
0.561995 0.367451 0.320275
0.592191 0.376216 0.328961
0.622332 0.385007 0.337679
0.639820 0.390130 0.342761
0.209484 0.305126 0.238708
0.236939 0.313362 0.246785
0.264941 0.321697 0.254966
0.293388 0.330106 0.263226
0.322210 0.338577 0.271553
0.351352 0.347101 0.279939
0.380764 0.355672 0.288377
0.410402 0.364284 0.296863
0.440224 0.372934 0.305393
0.470189 0.381618 0.313962
0.500257 0.390335 0.322570
0.530390 0.399080 0.331213
0.560550 0.407852 0.339889
0.590698 0.416649 0.348597
0.620797 0.425469 0.357333
0.650810 0.434310 0.366098
0.668208 0.439460 0.371206
0.236954 0.353870 0.266463
0.264678 0.362191 0.274612
0.292921 0.370606 0.282864
0.321582 0.379093 0.291193
0.350588 0.387637 0.299586
0.379885 0.396231 0.308036
0.409421 0.404866 0.316536
0.439154 0.413539 0.325081
0.469038 0.422245 0.333667
0.499035 0.430981 0.342291
0.529104 0.439744 0.350951
0.559206 0.448532 0.359643
0.589302 0.457342 0.368365
0.619355 0.466173 0.377117
0.649327 0.475022 0.385894
0.679180 0.483887 0.394697
0.696470 0.489049 0.399827
0.264731 0.403118 0.294494
0.292695 0.411498 0.302708
0.321151 0.419970 0.311021
0.349995 0.428508 0.319410
0.379157 0.437101 0.327861
0.408578 0.445737 0.336367
0.438210 0.454412 0.344920
0.468006 0.463119 0.353515
0.497923 0.471855 0.362149
0.527922 0.480617 0.370819
0.557961 0.489401 0.379521
0.588001 0.498206 0.388253
0.618004 0.507028 0.397013
0.647931 0.515865 0.405800
0.677745 0.524716 0.414610
0.707407 0.533580 0.423442
0.724571 0.538738 0.428588
0.292782 0.452716 0.322768
0.320956 0.461131 0.331037
0.349596 0.469633 0.339404
0.378595 0.478197 0.347845
0.407882 0.486811 0.356345
0.437399 0.495466 0.364897
0.467095 0.504153 0.373495
0.496925 0.512869 0.382132
0.526845 0.521609 0.390805
0.556815 0.530371 0.399511
0.586793 0.539150 0.408248
0.616741 0.547944 0.417011
0.646620 0.556751 0.425800
0.676390 0.565570 0.434613
0.706015 0.574397 0.443446
0.735457 0.583231 0.452299
0.752477 0.588371 0.457456
0.321075 0.502509 0.351253
0.349431 0.510933 0.359570
0.378225 0.519439 0.367982
0.407349 0.528005 0.376465
0.436732 0.536615 0.385006
0.466314 0.545261 0.393596
0.496045 0.553936 0.402229
0.525878 0.562634 0.410899
0.555771 0.571352 0.419603
0.585681 0.580086 0.428337
0.615569 0.588834 0.437098
0.645394 0.597592 0.445884
0.675117 0.606358 0.454693
0.704701 0.615131 0.463523
0.734106 0.623907 0.472371
0.763295 0.632686 0.481235
0.780153 0.637791 0.486397
0.349578 0.552342 0.379918
0.378087 0.560750 0.388273
0.407005 0.569236 0.396721
0.436225 0.577776 0.405239
0.465673 0.586357 0.413811
0.495291 0.594968 0.422431
0.525026 0.603604 0.431090
0.554833 0.612259 0.439785
0.584668 0.620928 0.448510
0.614489 0.629609 0.457263
0.644255 0.638299 0.466041
0.673926 0.646994 0.474840
0.703464 0.655693 0.483660
0.732829 0.664393 0.492498
0.761983 0.673092 0.501351
0.790888 0.681789 0.510219
0.807567 0.686844 0.515381
0.378259 0.602062 0.408730
0.406892 0.610428 0.417115
0.435906 0.618868 0.425591
0.465192 0.627357 0.434134
0.494676 0.635882 0.442730
0.524298 0.644433 0.451370
0.554008 0.653003 0.460047
0.583758 0.661588 0.468757
0.613504 0.670183 0.477495
0.643205 0.678784 0.486258
0.672818 0.687389 0.495043
0.702305 0.695995 0.503848
0.731626 0.704600 0.512669
0.760742 0.713201 0.521506
0.789615 0.721796 0.530356
0.818205 0.730384 0.539217
0.834686 0.735373 0.544374
0.407089 0.651513 0.437659
0.435816 0.659812 0.446066
0.464895 0.668181 0.454561
0.494217 0.676593 0.463121
0.523707 0.685036 0.471731
0.553304 0.693501 0.480382
0.582958 0.701980 0.489069
0.612621 0.710468 0.497785
0.642248 0.718961 0.506527
0.671797 0.727457 0.515291
0.701228 0.735951 0.524074
0.730500 0.744441 0.532874
0.759573 0.752924 0.541689
0.788409 0.761399 0.550516
0.816968 0.769864 0.559353
0.845213 0.778316 0.568199
0.861478 0.783224 0.573346
0.436035 0.700542 0.466673
0.464827 0.708749 0.475093
0.493942 0.717020 0.483599
0.523270 0.725329 0.492166
0.552735 0.733665 0.500782
0.582278 0.742016 0.509436
0.611845 0.750377 0.518123
0.641390 0.758743 0.526836
0.670867 0.767109 0.535573
0.700235 0.775471 0.544329
0.729452 0.783827 0.553102
0.758477 0.792175 0.561889
0.787272 0.800511 0.570688
0.815796 0.808833 0.579496
0.844012 0.817140 0.588311
0.871880 0.825430 0.597133
0.887910 0.830241 0.602264
0.465067 0.748994 0.495742
0.493894 0.757083 0.504165
0.523016 0.765230 0.512673
0.552320 0.773411 0.521240
0.581731 0.781612 0.529852
0.611187 0.789825 0.538501
0.640638 0.798042 0.547179
0.670034 0.806258 0.555881
0.699331 0.814470 0.564604
0.728486 0.822673 0.573343
0.757458 0.830865 0.582096
0.786207 0.839043 0.590861
0.814692 0.847204 0.599634
0.842874 0.855347 0.608415
0.870714 0.863470 0.617200
0.898174 0.871570 0.625988
0.913951 0.876269 0.631098
0.494153 0.796713 0.524833
0.522986 0.804659 0.533253
0.552084 0.812656 0.541754
0.581335 0.820683 0.550311
0.610661 0.828724 0.558911
0.640002 0.836771 0.567545
0.669305 0.844818 0.576205
0.698522 0.852858 0.584887
0.727608 0.860889 0.593587
0.756520 0.868906 0.602301
0.785216 0.876907 0.611025
0.813656 0.884889 0.619759
0.841800 0.892849 0.628498
0.869609 0.900786 0.637241
0.897043 0.908697 0.645987
0.924063 0.916580 0.654732
0.939569 0.921151 0.659817
0.523263 0.843545 0.553917
0.552073 0.851322 0.562324
0.581118 0.859144 0.570809
0.610284 0.866990 0.579348
0.639495 0.874845 0.587928
0.668690 0.882700 0.596537
0.697815 0.890550 0.605171
0.726822 0.898388 0.613824
0.755666 0.906212 0.622492
0.784304 0.914016 0.631171
0.812694 0.921799 0.639858
0.840795 0.929558 0.648551
0.868567 0.937290 0.657247
0.895970 0.944994 0.665944
0.922966 0.952666 0.674641
0.949515 0.960306 0.683334
0.964733 0.964733 0.688388
0.080451 0.077002 0.125677
0.106183 0.084458 0.133359
0.132588 0.092026 0.141151
0.159573 0.099685 0.149030
0.187072 0.107424 0.156986
0.215033 0.115234 0.165009
0.243411 0.123110 0.173093
0.272162 0.131048 0.181236
0.301246 0.139044 0.189432
0.330624 0.147096 0.197679
0.360258 0.155200 0.205974
0.390110 0.163355 0.214315
0.420142 0.171559 0.222700
0.450318 0.179809 0.231127
0.480602 0.188105 0.239595
0.510955 0.196444 0.248101
0.528623 0.201313 0.253064
