assets/luts/archive_silver.cube
# Архивное серебро — хроника, почти монохром
TITLE "archive_silver"
LUT_3D_SIZE 5
DOMAIN_MIN 0.0 0.0 0.0
DOMAIN_MAX 1.0 1.0 1.0
0.073049 0.072929 0.072411
0.148596 0.109357 0.108817
0.230061 0.147524 0.146963
0.315927 0.187159 0.186581
0.400930 0.226285 0.225692
0.200862 0.242640 0.200144
0.284396 0.284206 0.240753
0.371774 0.326876 0.282619
0.461418 0.370351 0.325449
0.548010 0.412517 0.367150
0.340739 0.429939 0.339972
0.428768 0.473708 0.383065
0.518537 0.517922 0.426918
0.608421 0.562264 0.471220
0.693207 0.604618 0.513840
0.486905 0.621933 0.486119
0.575934 0.664970 0.529978
0.664573 0.707768 0.574085
0.751161 0.750005 0.618119
0.830746 0.789694 0.659989
0.633584 0.805731 0.632811
0.720120 0.845099 0.675717
0.804107 0.883523 0.718344
0.883863 0.920682 0.760370
0.954852 0.954852 0.799820
0.085135 0.085014 0.122246
0.161639 0.121939 0.160559
0.243855 0.160555 0.200419
0.330258 0.200590 0.241545
0.415574 0.240049 0.281905
0.214416 0.256527 0.255567
0.298558 0.298367 0.297388
0.386334 0.341259 0.340266
0.476161 0.384906 0.383901
0.562725 0.427187 0.426174
0.355183 0.444642 0.398646
0.443469 0.488459 0.442256
0.533284 0.532669 0.486420
0.622997 0.576955 0.530823
0.707416 0.619205 0.573342
0.501660 0.636465 0.545709
0.590597 0.679324 0.589390
0.678929 0.721892 0.633107
0.764993 0.763845 0.676538
0.843870 0.803212 0.717630
0.648072 0.819103 0.690980
0.734167 0.858069 0.733012
0.817495 0.896035 0.774550
0.896371 0.932683 0.815269
0.966313 0.966313 0.853265
0.097344 0.097221 0.174403
0.174767 0.134624 0.214336
0.257694 0.173671 0.255620
0.344598 0.214086 0.297966
0.430190 0.253861 0.339298
0.228029 0.270455 0.312349
0.312741 0.312549 0.355098
0.400878 0.355646 0.398702
0.490852 0.399446 0.442856
0.577355 0.441825 0.485429
0.369624 0.459307 0.457728
0.458132 0.503154 0.501573
0.547957 0.547344 0.545766
0.637466 0.591556 0.589987
0.721484 0.633687 0.632131
0.516354 0.650883 0.604764
0.605165 0.693549 0.647987
0.693156 0.735870 0.691035
0.778662 0.777523 0.733583
0.856801 0.816553 0.773629
0.662444 0.832291 0.747682
0.748063 0.870840 0.788564
0.830699 0.908334 0.828735
0.908665 0.944455 0.867870
0.977531 0.977531 0.904147
0.109692 0.109567 0.228583
0.187996 0.147430 0.269854
0.271599 0.186889 0.312279
0.358966 0.227667 0.355561
0.444802 0.267740 0.397592
0.241721 0.284443 0.370211
0.326967 0.326773 0.413606
0.415429 0.370058 0.457655
0.505516 0.413994 0.502045
0.591923 0.456454 0.544647
0.384085 0.473955 0.516950
0.472780 0.517816 0.560751
0.562580 0.561967 0.604692
0.651849 0.606089 0.648450
0.735434 0.648085 0.689952
0.531010 0.665211 0.663025
0.619660 0.707667 0.705513
0.707276 0.749725 0.747613
0.792190 0.791061 0.788999
0.869559 0.829738 0.827730
0.676720 0.845317 0.802660
0.761831 0.883432 0.842117
0.843742 0.920438 0.880643
0.920764 0.956016 0.917916
0.988521 0.988521 0.952208
0.122180 0.122053 0.284436
0.201329 0.160359 0.326766
0.285573 0.200213 0.370051
0.373369 0.241334 0.413986
0.459412 0.281690 0.456447
0.255494 0.298494 0.428809
0.341238 0.341044 0.472574
0.429991 0.384498 0.516787
0.520155 0.428553 0.561133
0.606434 0.471078 0.603494
0.398570 0.488592 0.575975
0.487416 0.532449 0.619456
0.577156 0.576545 0.662866
0.666151 0.620560 0.705881
0.749271 0.662403 0.746472
0.545632 0.679453 0.720159
0.634086 0.721682 0.761638
0.721293 0.763460 0.802511
0.805582 0.804463 0.842456
0.882148 0.842771 0.879606
0.690906 0.858185 0.855586
0.775474 0.895850 0.893344
0.856626 0.932350 0.929948
0.932672 0.967369 0.965082
0.999289 0.999289 0.997122
