assets/luts/archive_silver.cube
# Архивное серебро — хроника, почти монохром
TITLE "archive_silver"
LUT_3D_SIZE 9
DOMAIN_MIN 0.0 0.0 0.0
DOMAIN_MAX 1.0 1.0 1.0
0.073049 0.072929 0.072411
0.109973 0.090900 0.090371
0.148596 0.109357 0.108817
0.188689 0.128243 0.127693
0.230061 0.147524 0.146963
0.272532 0.167171 0.166601
0.315927 0.187159 0.186581
0.360072 0.207465 0.206880
0.400930 0.226285 0.225692
0.135086 0.154780 0.134404
0.174352 0.174257 0.153551
0.215064 0.194144 0.173127
0.256987 0.214382 0.193072
0.299925 0.234932 0.213350
0.343696 0.255767 0.233931
0.388122 0.276859 0.254791
0.433028 0.298185 0.275905
0.474345 0.317861 0.295406
0.200862 0.242640 0.200144
0.242032 0.263256 0.220263
0.284396 0.284206 0.240753
0.327710 0.305426 0.261551
0.371774 0.326876 0.282619
0.416403 0.348527 0.303927
0.461418 0.370351 0.325449
0.506641 0.392324 0.347160
0.548010 0.412517 0.367150
0.269653 0.334896 0.268907
0.312294 0.356287 0.289785
0.355872 0.377931 0.310973
0.400136 0.399764 0.332408
0.444885 0.421743 0.354049
0.489931 0.443839 0.375866
0.535091 0.466023 0.397832
0.580190 0.488270 0.419923
0.621205 0.508640 0.440202
0.340739 0.429939 0.339972
0.384414 0.451737 0.361394
0.428768 0.473708 0.383065
0.473544 0.495784 0.404920
0.518537 0.517922 0.426918
0.563557 0.540091 0.449027
0.608421 0.562264 0.471220
0.652951 0.584413 0.493472
0.693207 0.604618 0.513840
0.413397 0.526155 0.412617
0.457671 0.547995 0.434368
0.502362 0.569925 0.456308
0.547210 0.591874 0.478367
0.592007 0.613801 0.500504
0.636559 0.635673 0.522687
0.680685 0.657462 0.544889
0.724203 0.679141 0.567084
0.763295 0.698839 0.587343
0.486905 0.621933 0.486119
0.531342 0.643450 0.507987
0.575934 0.664970 0.529978
0.620414 0.686424 0.552025
0.664573 0.707768 0.574085
0.708217 0.728972 0.596126
0.751161 0.750005 0.618119
0.793224 0.770842 0.640039
0.830746 0.789694 0.659989
0.560541 0.715662 0.559758
0.604707 0.736489 0.581527
0.648760 0.757232 0.603355
0.692433 0.777820 0.625173
0.735514 0.798213 0.646939
0.777807 0.818376 0.668620
0.819128 0.838282 0.690187
0.859292 0.857904 0.711614
0.894839 0.875568 0.731055
0.633584 0.805731 0.632811
0.677043 0.825502 0.654267
0.720120 0.845099 0.675717
0.762546 0.864453 0.697090
0.804107 0.883523 0.718344
0.844609 0.902275 0.739447
0.883863 0.920682 0.760370
0.921686 0.938716 0.781087
0.954852 0.954852 0.799820
0.079080 0.078959 0.097025
0.116258 0.097058 0.115492
0.155110 0.115638 0.134421
0.195406 0.134641 0.153756
0.236955 0.154032 0.173461
0.279576 0.173783 0.193508
0.323095 0.193869 0.213870
0.367336 0.214267 0.234525
0.408259 0.233164 0.253641
0.141524 0.161328 0.160623
0.181000 0.180905 0.180190
0.221898 0.200887 0.200162
0.263980 0.221213 0.220478
0.307051 0.241846 0.241102
0.350928 0.262756 0.262005
0.395433 0.283917 0.283159
0.440391 0.305306 0.304541
0.481731 0.325034 0.324264
0.207635 0.249582 0.227675
0.248972 0.270271 0.248127
0.291478 0.291287 0.268926
0.334907 0.312567 0.290008
0.379059 0.334071 0.311334
0.423750 0.355769 0.332875
0.468799 0.377634 0.354603
0.514030 0.399641 0.376494
0.555382 0.419859 0.396625
0.276689 0.342109 0.297457
0.319452 0.363544 0.318581
0.363128 0.385227 0.339991
0.407464 0.407091 0.361622
0.452257 0.429096 0.383434
0.497320 0.451210 0.405396
0.542471 0.473406 0.427480
0.587532 0.495659 0.449662
0.628489 0.516028 0.470001
0.347965 0.437298 0.369249
0.391719 0.459113 0.390830
0.436127 0.481094 0.412636
0.480930 0.503173 0.434600
0.525923 0.525308 0.456680
0.570916 0.547468 0.478846
0.615726 0.569624 0.501069
0.660174 0.591751 0.523323
0.700332 0.611928 0.543672
0.420740 0.533538 0.442328
0.465050 0.555367 0.464153
0.509751 0.577278 0.486139
0.554583 0.599202 0.508219
0.599335 0.621098 0.530351
0.643816 0.642932 0.552503
0.687843 0.664675 0.574647
0.731235 0.686303 0.596757
0.770188 0.705949 0.616915
0.494294 0.629217 0.515973
0.538724 0.650693 0.537826
0.583281 0.672167 0.559778
0.627700 0.693567 0.581758
0.671771 0.714852 0.603725
0.715299 0.735989 0.625646
0.758100 0.756949 0.647493
0.799993 0.777705 0.669239
0.837336 0.796478 0.689007
0.567903 0.722722 0.589462
0.612018 0.743481 0.611129
0.655993 0.764148 0.632830
0.699561 0.784655 0.654494
0.742509 0.804960 0.676079
0.784643 0.825028 0.697552
0.825776 0.844832 0.718884
0.865726 0.864345 0.740050
0.901052 0.881904 0.759228
0.640846 0.812443 0.662071
0.684210 0.832118 0.683340
0.727166 0.851612 0.704575
0.769442 0.870856 0.725706
0.810827 0.889809 0.746692
0.851124 0.908438 0.767499
0.890147 0.926714 0.788099
0.927711 0.944611 0.808466
0.960616 0.960616 0.826855
0.085135 0.085014 0.122246
0.122563 0.103239 0.141183
0.161639 0.121939 0.160559
0.202134 0.141056 0.180316
0.243855 0.160555 0.200419
0.286621 0.180408 0.220837
0.330258 0.200590 0.241545
0.374591 0.221077 0.262520
0.415574 0.240049 0.281905
0.147979 0.167890 0.187325
0.187660 0.187565 0.207276
0.228739 0.207639 0.227607
0.270975 0.228051 0.248259
0.314174 0.248763 0.269193
0.358152 0.269747 0.290379
0.402732 0.290975 0.311791
0.447737 0.312424 0.333405
0.489096 0.332202 0.353316
0.214416 0.256527 0.255567
0.255916 0.277286 0.276316
0.298558 0.298367 0.297388
0.342097 0.319704 0.318717
0.386334 0.341259 0.340266
0.431081 0.363002 0.362002
0.476161 0.384906 0.383901
0.521395 0.406945 0.405935
0.562725 0.427187 0.426174
0.283725 0.349315 0.326247
0.326607 0.370792 0.347582
0.370375 0.392510 0.369178
0.414778 0.414404 0.390969
0.459611 0.436432 0.412915
0.504686 0.458563 0.434986
0.549823 0.480769 0.457152
0.594843 0.503026 0.479390
0.635739 0.523392 0.499757
0.355183 0.444642 0.398646
0.399012 0.466470 0.420351
0.443469 0.488459 0.442256
0.488295 0.510539 0.464293
0.533284 0.532669 0.486420
0.578245 0.554817 0.508606
0.622997 0.576955 0.530823
0.667360 0.599057 0.553046
0.707416 0.619205 0.573342
0.428069 0.540896 0.472041
0.472410 0.562710 0.493903
0.517117 0.584601 0.515901
0.561927 0.606498 0.537967
0.606630 0.628360 0.560058
0.651037 0.650154 0.582143
0.694961 0.671851 0.604193
0.738223 0.693425 0.626182
0.777034 0.713016 0.646207
0.501660 0.636465 0.545709
0.546078 0.657899 0.567513
0.590597 0.679324 0.589390
0.634951 0.700669 0.611268
0.678929 0.721892 0.633107
0.722338 0.742960 0.654873
0.764993 0.763845 0.676538
0.806711 0.784520 0.698076
0.843870 0.803212 0.717630
0.575235 0.729738 0.618930
0.619295 0.750426 0.640462
0.663188 0.771017 0.662001
0.706646 0.791441 0.683476
0.749458 0.811655 0.704845
0.791428 0.831626 0.726075
0.832370 0.851326 0.747138
0.872101 0.870729 0.768007
0.907204 0.888181 0.786891
0.648072 0.819103 0.690980
0.691338 0.838680 0.712027
0.734167 0.858069 0.733012
0.776290 0.877201 0.753868
0.817495 0.896035 0.774550
0.857584 0.914539 0.795027
0.896371 0.932683 0.815269
0.933673 0.950441 0.835251
0.966313 0.966313 0.853265
0.091223 0.091100 0.148051
0.128895 0.109450 0.167422
0.168191 0.128267 0.187209
0.208879 0.147496 0.207353
0.250767 0.167101 0.227817
0.293674 0.187053 0.248570
0.337425 0.207328 0.269589
0.381845 0.227901 0.290847
0.422883 0.246947 0.310468
0.154457 0.174473 0.214492
0.194340 0.194244 0.234790
0.235594 0.214407 0.255446
0.277980 0.234903 0.276396
0.321302 0.255693 0.297604
0.365377 0.276748 0.319038
0.410026 0.298041 0.340673
0.455074 0.319548 0.362482
0.496448 0.339373 0.382550
0.221213 0.263484 0.283803
0.262870 0.284311 0.304814
0.305645 0.305453 0.326123
0.349290 0.326846 0.347664
0.393605 0.348450 0.369399
0.438406 0.370236 0.391297
0.483511 0.392175 0.413329
0.528743 0.414244 0.435472
0.570048 0.434508 0.455787
0.290769 0.356523 0.355263
0.333765 0.378039 0.376773
0.377622 0.399791 0.398519
0.422086 0.421712 0.420435
0.466954 0.443761 0.442481
0.512039 0.465906 0.464624
0.557157 0.488121 0.486837
0.602131 0.510378 0.509095
0.642961 0.530740 0.529457
0.362402 0.451977 0.428150
0.406302 0.473817 0.449944
0.450803 0.495811 0.471913
0.495647 0.517891 0.493987
0.540627 0.540013 0.516126
0.585554 0.562147 0.538297
0.630243 0.584264 0.560473
0.674515 0.606339 0.582628
0.714465 0.626457 0.602838
0.435390 0.548235 0.501742
0.479759 0.570034 0.523606
0.524467 0.591902 0.545581
0.569251 0.613770 0.567598
0.613902 0.635596 0.589613
0.658229 0.657347 0.611596
0.702046 0.678996 0.633517
0.745174 0.700514 0.655351
0.783838 0.720049 0.675209
0.509013 0.643686 0.575317
0.553415 0.665076 0.597037
0.597891 0.686451 0.618803
0.642175 0.707738 0.640545
0.686057 0.728897 0.662221
0.729342 0.749895 0.683797
0.771845 0.770702 0.705245
0.813385 0.791293 0.726540
0.850358 0.809902 0.745848
0.582547 0.736717 0.648153
0.626546 0.757334 0.669515
0.670353 0.777846 0.690857
0.713698 0.798184 0.712108
0.756369 0.818306 0.733226
0.798171 0.838178 0.754179
0.838918 0.857773 0.774937
0.878427 0.877063 0.795475
0.913303 0.894407 0.814032
0.655271 0.825718 0.719527
0.698433 0.845195 0.740317
0.741132 0.864477 0.761019
0.783098 0.883496 0.781563
0.824118 0.902210 0.801908
0.863995 0.920586 0.822020
0.902543 0.938596 0.841870
0.939578 0.956213 0.861432
0.971951 0.971951 0.879040
0.097344 0.097221 0.174403
0.135256 0.115691 0.194173
0.174767 0.134624 0.214336
0.215643 0.153963 0.234831
0.257694 0.173671 0.255620
0.300737 0.193721 0.276674
0.344598 0.214086 0.297966
0.389100 0.234744 0.319473
0.430190 0.253861 0.339298
0.160962 0.181080 0.242086
0.201041 0.200944 0.262697
0.242466 0.221195 0.283642
0.284997 0.241772 0.304856
0.328438 0.262638 0.326302
0.372605 0.283761 0.347949
0.417319 0.305116 0.369770
0.462405 0.326680 0.391740
0.503791 0.346550 0.411931
0.228029 0.270455 0.312349
0.269839 0.291347 0.333587
0.312741 0.312549 0.355098
0.356487 0.333995 0.376816
0.400878 0.355646 0.398702
0.445726 0.377472 0.420725
0.490852 0.399446 0.442856
0.536079 0.421542 0.465071
0.577355 0.441825 0.485429
0.297824 0.363734 0.384471
0.340930 0.385288 0.406121
0.384870 0.407072 0.427982
0.429392 0.429018 0.449988
0.474292 0.451085 0.472097
0.519380 0.473243 0.494278
0.564475 0.495463 0.516502
0.609399 0.517720 0.538745
0.650160 0.538075 0.559070
0.369624 0.459307 0.457728
0.413591 0.481157 0.479576
0.458132 0.503154 0.501573
0.502990 0.525230 0.523650
0.547957 0.547344 0.545766
0.592843 0.569461 0.567887
0.637466 0.591556 0.589987
0.681644 0.613601 0.612039
0.721484 0.633687 0.632131
0.442709 0.555560 0.531400
0.487100 0.577340 0.553232
0.531804 0.599184 0.575149
0.576558 0.621021 0.597081
0.621153 0.642809 0.618986
0.665395 0.664516 0.640831
0.709102 0.686113 0.662588
0.752091 0.707574 0.684231
0.790605 0.727050 0.703892
0.516354 0.650883 0.604764
0.560736 0.672228 0.626366
0.605165 0.693549 0.647987
0.649375 0.714777 0.669558
0.693156 0.735870 0.691035
0.736313 0.756795 0.712386
0.778662 0.777523 0.733583
0.820019 0.798028 0.754599
0.856801 0.816553 0.773629
0.589840 0.743664 0.677099
0.633776 0.764207 0.698256
0.677492 0.784638 0.719366
0.720719 0.804888 0.740359
0.763245 0.824916 0.761192
0.804876 0.844687 0.781832
0.845423 0.864174 0.802251
0.884706 0.883350 0.822423
0.919350 0.900584 0.840622
0.662444 0.832291 0.747682
0.705498 0.851667 0.768181
0.748063 0.870840 0.788564
0.789868 0.889743 0.808763
0.830699 0.908334 0.828735
0.870361 0.926581 0.848446
0.908665 0.944455 0.867870
0.945429 0.961929 0.886978
0.977531 0.977531 0.904147
0.103500 0.103376 0.201262
0.141647 0.121966 0.221396
0.181368 0.141012 0.241899
0.222429 0.160458 0.262709
0.264638 0.180267 0.283788
0.307813 0.200411 0.305107
0.351778 0.220865 0.326638
0.396358 0.241605 0.348357
0.437496 0.260792 0.368353
0.167494 0.187712 0.270069
0.207764 0.207667 0.290958
0.249356 0.228004 0.312156
0.292028 0.248660 0.333599
0.335583 0.269598 0.355248
0.379838 0.290788 0.377072
0.424613 0.312204 0.399044
0.469733 0.333821 0.421139
0.511126 0.353735 0.441421
0.234865 0.277441 0.341166
0.276823 0.298396 0.362595
0.319848 0.319655 0.384273
0.363691 0.341152 0.406133
0.408152 0.362849 0.428135
0.453044 0.384713 0.450247
0.498187 0.406718 0.472442
0.543404 0.428840 0.494694
0.584647 0.449141 0.515063
0.304892 0.370952 0.413831
0.348103 0.392541 0.435586
0.392123 0.414354 0.457528
0.436698 0.436323 0.479589
0.481623 0.458407 0.501727
0.526711 0.480574 0.523910
0.571779 0.502798 0.546110
0.616649 0.525052 0.568302
0.657336 0.545398 0.588558
0.376852 0.466633 0.487342
0.420880 0.488490 0.509209
0.465458 0.510489 0.531200
0.510325 0.532560 0.553245
0.555274 0.554661 0.575301
0.600116 0.576761 0.597338
0.644667 0.598831 0.619326
0.688747 0.620844 0.641240
0.728473 0.640896 0.661183
0.450025 0.562872 0.560977
0.494435 0.584632 0.582742
0.539131 0.606448 0.604566
0.583850 0.628252 0.626379
0.628384 0.650000 0.648137
0.672538 0.671661 0.669810
0.716129 0.693205 0.691368
0.758976 0.714606 0.712785
0.797336 0.734022 0.732217
0.523687 0.658058 0.634014
0.568043 0.679354 0.655463
0.612421 0.700621 0.676904
0.656553 0.721788 0.698268
0.700229 0.742813 0.719513
0.743254 0.763663 0.740604
0.785443 0.784309 0.761515
0.826614 0.804726 0.782217
0.863201 0.823164 0.800937
0.597117 0.750579 0.705731
0.640985 0.771046 0.726649
0.684605 0.791394 0.747493
0.727711 0.811555 0.768192
0.770088 0.831486 0.788705
0.811543 0.851155 0.808998
0.851887 0.870532 0.829043
0.890938 0.889591 0.848813
0.925348 0.906712 0.866622
0.669593 0.838824 0.775406
0.712537 0.858096 0.795580
0.754963 0.877158 0.815610
0.796602 0.895943 0.835429
0.837240 0.914410 0.854993
0.876682 0.932525 0.874270
0.914739 0.950261 0.893232
0.951228 0.967591 0.911852
0.983054 0.983054 0.928550
0.109692 0.109567 0.228583
0.148069 0.128273 0.249046
0.187996 0.147430 0.269854
0.229237 0.166981 0.290945
0.271599 0.186889 0.312279
0.314901 0.207126 0.333826
0.358966 0.227667 0.355561
0.403620 0.248486 0.377457
0.444802 0.267740 0.397592
0.174053 0.194369 0.298397
0.214511 0.214414 0.319528
0.256265 0.234833 0.340945
0.299073 0.255567 0.362582
0.342738 0.276575 0.384399
0.387076 0.297830 0.406364
0.431907 0.319303 0.428452
0.477056 0.340972 0.450636
0.518453 0.360927 0.470977
0.241721 0.284443 0.370211
0.283823 0.305459 0.391796
0.326967 0.326773 0.413606
0.370902 0.348319 0.435573
0.415429 0.370058 0.457655
0.460360 0.391958 0.479822
0.505516 0.413994 0.502045
0.550717 0.436138 0.524300
0.591923 0.456454 0.544647
0.311972 0.378175 0.443302
0.355284 0.399798 0.465128
0.399379 0.421638 0.487116
0.444003 0.443627 0.509196
0.488950 0.465726 0.531327
0.534034 0.487901 0.553477
0.579070 0.510126 0.575619
0.623881 0.532375 0.597725
0.664491 0.552711 0.617879
0.384085 0.473955 0.516950
0.428171 0.495818 0.538802
0.472780 0.517816 0.560751
0.517652 0.539880 0.582729
0.562580 0.561967 0.604692
0.607373 0.584047 0.626608
0.651849 0.606089 0.648450
0.695826 0.628070 0.670190
0.735434 0.648085 0.689952
0.457339 0.570171 0.590431
0.501763 0.591908 0.612095
0.546447 0.613696 0.633791
0.591128 0.635464 0.655450
0.635596 0.657171 0.677028
0.679658 0.678783 0.698493
0.723129 0.700271 0.719817
0.765829 0.721611 0.740973
0.804031 0.740964 0.760143
0.531010 0.665211 0.663025
0.575338 0.686457 0.684286
0.619660 0.707667 0.705513
0.663710 0.728770 0.726637
0.707276 0.749725 0.747613
0.750165 0.770498 0.768410
0.792190 0.791061 0.788999
0.833170 0.811387 0.809353
0.869559 0.829738 0.827730
0.604378 0.757464 0.734008
0.648173 0.777852 0.754653
0.691695 0.798116 0.775196
0.734674 0.818185 0.795567
0.776899 0.838018 0.815725
0.818172 0.857581 0.835636
0.858309 0.876846 0.855272
0.897126 0.895787 0.874606
0.931296 0.912794 0.891993
0.676720 0.845317 0.802660
0.719548 0.864483 0.822474
0.761831 0.883432 0.842117
0.803300 0.902098 0.861521
0.843742 0.920438 0.880643
0.882959 0.938420 0.899451
0.920764 0.956016 0.917916
0.956974 0.973199 0.936012
0.988521 0.988521 0.952208
0.115918 0.115792 0.256323
0.154522 0.134613 0.277080
0.194649 0.153880 0.298158
0.236066 0.173533 0.319494
0.278577 0.193538 0.341048
0.322002 0.213865 0.362789
0.366163 0.234490 0.384692
0.410886 0.255387 0.406730
0.452107 0.274706 0.426971
0.180640 0.201052 0.327026
0.221281 0.221183 0.348366
0.263193 0.241684 0.369966
0.306132 0.262492 0.391761
0.349903 0.283569 0.413711
0.394319 0.304886 0.435783
0.439203 0.326415 0.457952
0.484377 0.348133 0.480190
0.525773 0.368127 0.500558
0.248597 0.291461 0.399440
0.290839 0.312536 0.421148
0.334097 0.333903 0.443055
0.378120 0.355495 0.465093
0.422709 0.377275 0.487221
0.467675 0.399209 0.509407
0.512838 0.421272 0.531623
0.558021 0.443437 0.553845
0.599186 0.463767 0.574138
0.319066 0.385405 0.472841
0.362474 0.407059 0.494703
0.406639 0.428924 0.516701
0.451307 0.450932 0.538766
0.496273 0.473043 0.560856
0.541347 0.495224 0.582939
0.586348 0.517448 0.604986
0.631096 0.539689 0.626971
0.671624 0.560013 0.646992
0.391325 0.481275 0.546509
0.435463 0.503141 0.568311
0.480099 0.525136 0.590185
0.524972 0.547190 0.612060
0.569874 0.569262 0.633895
0.614614 0.591319 0.655656
0.659010 0.613332 0.677316
0.702880 0.635277 0.698848
0.742367 0.655254 0.718396
0.464652 0.577458 0.619720
0.509086 0.599171 0.641248
0.553754 0.620928 0.662782
0.598392 0.642658 0.684252
0.642789 0.664321 0.705614
0.686755 0.685882 0.726838
0.730102 0.707313 0.747893
0.772651 0.728589 0.768753
0.810691 0.747878 0.787629
0.538325 0.672343 0.691754
0.582619 0.693536 0.712794
0.626882 0.714687 0.733772
0.670845 0.735725 0.754620
0.714297 0.756607 0.775294
0.757045 0.777301 0.795761
0.798903 0.797779 0.815993
0.839688 0.818013 0.835964
0.875874 0.836273 0.853968
0.611624 0.764317 0.761888
0.655342 0.784626 0.782226
0.698760 0.804803 0.802433
0.741609 0.824778 0.822442
0.783676 0.844510 0.842210
0.824765 0.863966 0.861705
0.864690 0.883118 0.880897
0.903268 0.901938 0.899760
0.937196 0.918829 0.916692
0.683824 0.851771 0.829401
0.726532 0.870829 0.848821
0.768668 0.889663 0.868042
0.809964 0.908206 0.886997
0.850204 0.926418 0.905642
0.889192 0.944265 0.923946
0.926742 0.961718 0.941880
0.962669 0.978752 0.959418
0.993933 0.993933 0.975080
0.122180 0.122053 0.284436
0.161005 0.140986 0.305452
0.201329 0.160359 0.326766
0.242917 0.180114 0.348312
0.285573 0.200213 0.370051
0.329116 0.220628 0.391951
0.373369 0.241334 0.413986
0.418156 0.262307 0.436131
0.459412 0.281690 0.456447
0.187255 0.207761 0.355912
0.228074 0.227976 0.377425
0.270139 0.248556 0.399175
0.313206 0.269436 0.421093
0.357078 0.290580 0.443140
0.401568 0.311956 0.465284
0.446499 0.333539 0.487498
0.491694 0.355304 0.509756
0.533085 0.375336 0.530118
0.255494 0.298494 0.428809
0.297871 0.319626 0.450604
0.341238 0.341044 0.472574
0.385346 0.362681 0.494648
0.429991 0.384498 0.516787
0.474988 0.406465 0.538958
0.520155 0.428553 0.561133
0.565314 0.450737 0.583285
0.606434 0.471078 0.603494
0.326172 0.392642 0.502403
0.369672 0.414325 0.524267
0.413904 0.436212 0.546242
0.458612 0.458237 0.568256
0.503591 0.480357 0.590270
0.548652 0.502542 0.612250
0.593612 0.524763 0.634168
0.638293 0.546995 0.655997
0.678736 0.567304 0.675852
0.398570 0.488592 0.575975
0.442757 0.510459 0.597693
0.487416 0.532449 0.619456
0.532285 0.554491 0.641195
0.577156 0.576545 0.662866
0.621840 0.598577 0.684438
0.666151 0.620560 0.705881
0.709910 0.642467 0.727170
0.749271 0.662403 0.746472
0.471963 0.584733 0.648801
0.516403 0.606419 0.670159
0.561050 0.628143 0.691496
0.605641 0.649834 0.712742
0.649964 0.671450 0.733854
0.693828 0.692958 0.754800
0.737048 0.714330 0.775551
0.779442 0.735540 0.796081
0.817315 0.754762 0.814631
0.545632 0.679453 0.720159
0.589888 0.700592 0.740943
0.634086 0.721682 0.761638
0.677959 0.742652 0.782175
0.721293 0.763460 0.802511
0.763896 0.784073 0.822615
0.805582 0.804463 0.842456
0.846167 0.824602 0.862009
0.882148 0.842771 0.879606
0.618853 0.771141 0.789328
0.662491 0.791367 0.809324
0.705802 0.811455 0.829161
0.748516 0.831334 0.848773
0.790421 0.850964 0.868117
0.831322 0.870311 0.887160
0.871030 0.889346 0.905873
0.909365 0.908044 0.924231
0.943046 0.924817 0.940678
0.690906 0.858185 0.855586
0.733489 0.877132 0.874579
0.775474 0.895850 0.893344
0.816592 0.914269 0.911814
0.856626 0.932350 0.929948
0.895382 0.950060 0.947714
0.932672 0.967369 0.965082
0.968311 0.984252 0.982026
0.999289 0.999289 0.997122
