assets/luts/copper_dusk.cube
# Медь на закате — самый насыщенный из тёплых
TITLE "copper_dusk"
LUT_3D_SIZE 17
DOMAIN_MIN 0.0 0.0 0.0
DOMAIN_MAX 1.0 1.0 1.0
0.048837 0.034115 0.031634
0.109882 0.032744 0.030265
0.174532 0.031351 0.028876
0.242057 0.029946 0.027474
0.311859 0.028532 0.026063
0.383378 0.027111 0.024645
0.456063 0.025684 0.023222
0.529369 0.024254 0.021794
0.602747 0.022819 0.020363
0.675648 0.021382 0.018929
0.747518 0.019943 0.017493
0.817799 0.018501 0.016055
0.885931 0.017058 0.014615
0.951348 0.015613 0.013174
1.000000 0.014167 0.011731
1.000000 0.012721 0.010288
1.000000 0.012621 0.010189
0.044146 0.091363 0.027013
0.104973 0.089927 0.025650
0.169435 0.088470 0.024267
0.236807 0.086999 0.022871
0.306493 0.085518 0.021466
0.377931 0.084029 0.020054
0.450573 0.082534 0.018637
0.523873 0.081035 0.017216
0.597285 0.079532 0.015791
0.670257 0.078025 0.014363
0.742238 0.076515 0.012933
0.812670 0.075003 0.011501
0.880992 0.073489 0.010068
0.946640 0.071973 0.008633
1.000000 0.070455 0.007197
1.000000 0.068936 0.005760
1.000000 0.068832 0.005662
0.039520 0.150423 0.022457
0.100127 0.148933 0.021100
0.164402 0.147421 0.019723
0.231620 0.145893 0.018333
0.301187 0.144356 0.016934
0.372542 0.142810 0.015528
0.445139 0.141257 0.014117
0.518431 0.139699 0.012702
0.591873 0.138137 0.011283
0.664914 0.136571 0.009862
0.737002 0.135002 0.008438
0.807580 0.133429 0.007012
0.876087 0.131854 0.005585
0.941960 0.130277 0.004157
1.000000 0.128699 0.002727
1.000000 0.127118 0.001297
1.000000 0.127009 0.001199
0.034940 0.211121 0.017947
0.095326 0.209586 0.016596
0.159411 0.208027 0.015224
0.226473 0.206454 0.013840
0.295919 0.204869 0.012447
0.367190 0.203275 0.011048
0.439738 0.201674 0.009643
0.513020 0.200068 0.008234
0.586488 0.198457 0.006821
0.659595 0.196841 0.005406
0.731786 0.195222 0.003989
0.802507 0.193599 0.002570
0.871196 0.191974 0.001149
0.937289 0.190346 0.000000
1.000000 0.188715 0.000000
1.000000 0.187083 0.000000
1.000000 0.186971 0.000000
0.030397 0.273172 0.013475
0.090560 0.271602 0.012130
0.154454 0.270006 0.010764
0.221358 0.268395 0.009386
0.290681 0.266772 0.007999
0.361865 0.265140 0.006606
0.434363 0.263501 0.005207
0.507631 0.261856 0.003804
0.581124 0.260205 0.002398
0.654292 0.258549 0.000989
0.726584 0.256890 0.000000
0.797444 0.255226 0.000000
0.866311 0.253560 0.000000
0.932621 0.251891 0.000000
0.995807 0.250219 0.000000
1.000000 0.248544 0.000000
1.000000 0.248429 0.000000
0.025887 0.336265 0.009037
0.085826 0.334668 0.007697
0.149526 0.333045 0.006338
0.216271 0.331406 0.004966
0.285468 0.329754 0.003585
0.356562 0.328093 0.002198
0.429007 0.326425 0.000805
0.502259 0.324750 0.000000
0.575773 0.323069 0.000000
0.649001 0.321383 0.000000
0.721390 0.319692 0.000000
0.792386 0.317998 0.000000
0.861427 0.316300 0.000000
0.927952 0.314599 0.000000
0.991391 0.312895 0.000000
1.000000 0.311188 0.000000
1.000000 0.311071 0.000000
0.021408 0.400077 0.004630
0.081121 0.398462 0.003296
0.144625 0.396820 0.001943
0.211207 0.395162 0.000577
0.280277 0.393491 0.000000
0.351279 0.391811 0.000000
0.423669 0.390122 0.000000
0.496902 0.388426 0.000000
0.570434 0.386725 0.000000
0.643718 0.385018 0.000000
0.716202 0.383306 0.000000
0.787330 0.381590 0.000000
0.856543 0.379870 0.000000
0.923278 0.378147 0.000000
0.986966 0.376420 0.000000
1.000000 0.374691 0.000000
1.000000 0.374572 0.000000
0.016958 0.464282 0.000252
0.076442 0.462657 0.000000
0.139749 0.461006 0.000000
0.206166 0.459338 0.000000
0.275106 0.457657 0.000000
0.346014 0.455966 0.000000
0.418345 0.454266 0.000000
0.491557 0.452559 0.000000
0.565105 0.450846 0.000000
0.638442 0.449127 0.000000
0.711017 0.447404 0.000000
0.782275 0.445675 0.000000
0.851656 0.443943 0.000000
0.918598 0.442206 0.000000
0.982533 0.440467 0.000000
1.000000 0.438724 0.000000
1.000000 0.438604 0.000000
0.012535 0.528551 0.000000
0.071789 0.526926 0.000000
0.134895 0.525274 0.000000
0.201146 0.523605 0.000000
0.269954 0.521923 0.000000
0.340764 0.520230 0.000000
0.413035 0.518528 0.000000
0.486222 0.516820 0.000000
0.559783 0.515104 0.000000
0.633171 0.513383 0.000000
0.705835 0.511656 0.000000
0.777220 0.509925 0.000000
0.846766 0.508189 0.000000
0.913912 0.506449 0.000000
0.978089 0.504705 0.000000
1.000000 0.502958 0.000000
1.000000 0.502838 0.000000
0.008139 0.592557 0.000000
0.067160 0.590940 0.000000
0.130065 0.589296 0.000000
0.196146 0.587635 0.000000
0.264819 0.585960 0.000000
0.335530 0.584275 0.000000
0.407737 0.582581 0.000000
0.480898 0.580879 0.000000
0.554469 0.579170 0.000000
0.627905 0.577455 0.000000
0.700654 0.575735 0.000000
0.772162 0.574010 0.000000
0.841871 0.572280 0.000000
0.909217 0.570546 0.000000
0.973635 0.568808 0.000000
1.000000 0.567066 0.000000
1.000000 0.566946 0.000000
0.003769 0.655971 0.000000
0.062555 0.654371 0.000000
0.125255 0.652744 0.000000
0.191165 0.651099 0.000000
0.259701 0.649441 0.000000
0.330310 0.647772 0.000000
0.402451 0.646094 0.000000
0.475582 0.644408 0.000000
0.549161 0.642716 0.000000
0.622642 0.641017 0.000000
0.695474 0.639312 0.000000
0.767103 0.637602 0.000000
0.836971 0.635887 0.000000
0.904515 0.634168 0.000000
0.969169 0.632445 0.000000
1.000000 0.630717 0.000000
1.000000 0.630598 0.000000
0.000000 0.718467 0.000000
0.057973 0.716892 0.000000
0.120467 0.715290 0.000000
0.186203 0.713671 0.000000
0.254599 0.712038 0.000000
0.325103 0.710394 0.000000
0.397175 0.708742 0.000000
0.470275 0.707081 0.000000
0.543859 0.705413 0.000000
0.617382 0.703739 0.000000
0.690294 0.702059 0.000000
0.762041 0.700374 0.000000
0.832065 0.698683 0.000000
0.899804 0.696988 0.000000
0.964691 0.695289 0.000000
1.000000 0.693585 0.000000
1.000000 0.693467 0.000000
0.000000 0.779717 0.000000
0.053414 0.778175 0.000000
0.115699 0.776608 0.000000
0.181258 0.775023 0.000000
0.249512 0.773424 0.000000
0.319910 0.771815 0.000000
0.391911 0.770197 0.000000
0.464975 0.768570 0.000000
0.538562 0.766936 0.000000
0.612124 0.765296 0.000000
0.685113 0.763650 0.000000
0.756976 0.761998 0.000000
0.827153 0.760341 0.000000
0.895084 0.758679 0.000000
0.960202 0.757012 0.000000
1.000000 0.755341 0.000000
1.000000 0.755226 0.000000
0.000000 0.839395 0.000000
0.048878 0.837896 0.000000
0.110951 0.836372 0.000000
0.176332 0.834830 0.000000
0.244441 0.833274 0.000000
0.314729 0.831708 0.000000
0.386656 0.830133 0.000000
0.459684 0.828549 0.000000
0.533270 0.826959 0.000000
0.606869 0.825361 0.000000
0.679933 0.823758 0.000000
0.751907 0.822149 0.000000
0.822235 0.820534 0.000000
0.890355 0.818914 0.000000
0.955700 0.817290 0.000000
1.000000 0.815661 0.000000
1.000000 0.815549 0.000000
0.000000 0.897178 0.000000
0.044364 0.895730 0.000000
0.106223 0.894257 0.000000
0.171422 0.892766 0.000000
0.239384 0.891263 0.000000
0.309561 0.889749 0.000000
0.381412 0.888226 0.000000
0.454399 0.886694 0.000000
0.527982 0.885155 0.000000
0.601615 0.883610 0.000000
0.674751 0.882058 0.000000
0.746835 0.880501 0.000000
0.817310 0.878938 0.000000
0.885616 0.877370 0.000000
0.951186 0.875796 0.000000
1.000000 0.874219 0.000000
1.000000 0.874110 0.000000
0.000000 0.952741 0.000000
0.039871 0.951352 0.000000
0.101514 0.949939 0.000000
0.166530 0.948509 0.000000
0.234343 0.947067 0.000000
0.304405 0.945613 0.000000
0.376177 0.944151 0.000000
0.449122 0.942680 0.000000
0.522699 0.941202 0.000000
0.596364 0.939718 0.000000
0.669568 0.938227 0.000000
0.741759 0.936730 0.000000
0.812379 0.935228 0.000000
0.880868 0.933720 0.000000
0.946659 0.932207 0.000000
1.000000 0.930690 0.000000
1.000000 0.930585 0.000000
0.000000 1.000000 0.000000
0.035400 1.000000 0.000000
0.096825 1.000000 0.000000
0.161655 1.000000 0.000000
0.229316 1.000000 0.000000
0.299261 0.998978 0.000000
0.370952 0.997585 0.000000
0.443851 0.996185 0.000000
0.517420 0.994776 0.000000
0.591114 0.993362 0.000000
0.664384 0.991940 0.000000
0.736679 0.990513 0.000000
0.807441 0.989081 0.000000
0.876110 0.987643 0.000000
0.942120 0.986199 0.000000
1.000000 0.984751 0.000000
1.000000 0.984652 0.000000
0.048370 0.033654 0.092129
0.109394 0.032283 0.090693
0.174025 0.030892 0.089234
0.241535 0.029487 0.087762
0.311326 0.028073 0.086281
0.382837 0.026653 0.084791
0.455518 0.025227 0.083296
0.528823 0.023797 0.081796
0.602204 0.022363 0.080291
0.675113 0.020927 0.078784
0.746993 0.019488 0.077273
0.817290 0.018047 0.075760
0.885441 0.016604 0.074245
0.950881 0.015160 0.072728
1.000000 0.013715 0.071210
1.000000 0.012269 0.069690
1.000000 0.012169 0.069585
0.043681 0.090880 0.087279
0.104486 0.089446 0.085847
0.168929 0.087989 0.084394
0.236286 0.086518 0.082927
0.305960 0.085037 0.081450
0.377390 0.083549 0.079966
0.450028 0.082055 0.078476
0.523327 0.080556 0.076981
0.596742 0.079053 0.075482
0.669722 0.077547 0.073980
0.741713 0.076038 0.072475
0.812160 0.074526 0.070967
0.880501 0.073013 0.069458
0.946171 0.071497 0.067947
1.000000 0.069980 0.066434
1.000000 0.068462 0.064920
1.000000 0.068358 0.064815
0.039057 0.149922 0.082492
0.099642 0.148433 0.081066
0.163897 0.146921 0.079618
0.231100 0.145394 0.078156
0.300655 0.143857 0.076685
0.372002 0.142311 0.075206
0.444594 0.140759 0.073721
0.517885 0.139202 0.072231
0.591329 0.137640 0.070738
0.664377 0.136074 0.069241
0.736476 0.134505 0.067741
0.807068 0.132934 0.066239
0.875594 0.131359 0.064735
0.941489 0.129783 0.063229
1.000000 0.128204 0.061722
1.000000 0.126624 0.060214
1.000000 0.126516 0.060110
0.034479 0.210605 0.077751
0.094842 0.209071 0.076329
0.158908 0.207513 0.074886
0.225954 0.205939 0.073430
0.295388 0.204354 0.071963
0.366650 0.202761 0.070490
0.439194 0.201161 0.069010
0.512474 0.199555 0.067526
0.585945 0.197944 0.066038
0.659058 0.196329 0.064547
0.731260 0.194710 0.063052
0.801994 0.193087 0.061556
0.870702 0.191462 0.060057
0.936817 0.189835 0.058557
0.999773 0.188205 0.057055
1.000000 0.186573 0.055553
1.000000 0.186461 0.055449
0.029937 0.272644 0.073045
0.090078 0.271074 0.071629
0.153952 0.269479 0.070191
0.220840 0.267868 0.068740
0.290151 0.266246 0.067279
0.361325 0.264614 0.065810
0.433818 0.262975 0.064336
0.507085 0.261330 0.062857
0.580580 0.259679 0.061375
0.653754 0.258024 0.059889
0.726056 0.256365 0.058400
0.796930 0.254702 0.056909
0.865815 0.253036 0.055416
0.932147 0.251367 0.053922
0.995359 0.249695 0.052426
1.000000 0.248021 0.050929
1.000000 0.247906 0.050826
0.025429 0.335728 0.068372
0.085346 0.334131 0.066961
0.149026 0.332509 0.065528
0.215754 0.330870 0.064082
0.284939 0.329218 0.062626
0.356024 0.327558 0.061163
0.428463 0.325889 0.059694
0.501713 0.324214 0.058221
0.575229 0.322534 0.056744
0.648462 0.320848 0.055263
0.720862 0.319158 0.053780
0.791871 0.317464 0.052295
0.860930 0.315766 0.050808
0.927476 0.314065 0.049319
0.990940 0.312361 0.047829
1.000000 0.310655 0.046337
1.000000 0.310538 0.046235
0.020952 0.399534 0.063728
0.080642 0.397919 0.062322
0.144126 0.396278 0.060894
0.210692 0.394620 0.059453
0.279748 0.392949 0.058003
0.350741 0.391269 0.056546
0.423124 0.389580 0.055082
0.496356 0.387885 0.053614
0.569890 0.386183 0.052143
0.643179 0.384476 0.050668
0.715672 0.382765 0.049190
0.786814 0.381049 0.047711
0.856044 0.379329 0.046229
0.922800 0.377606 0.044746
0.986514 0.375879 0.043261
1.000000 0.374150 0.041776
1.000000 0.374031 0.041674
0.016504 0.463736 0.059111
0.075965 0.462112 0.057710
0.139251 0.460461 0.056288
0.205652 0.458792 0.054853
0.274578 0.457111 0.053408
0.345476 0.455420 0.051955
0.417801 0.453721 0.050498
0.491010 0.452014 0.049035
0.564560 0.450301 0.047569
0.637903 0.448582 0.046100
0.710487 0.446858 0.044628
0.781758 0.445130 0.043154
0.851156 0.443398 0.041678
0.918119 0.441661 0.040201
0.982078 0.439922 0.038722
1.000000 0.438179 0.037242
1.000000 0.438059 0.037141
0.012083 0.528005 0.054521
0.071313 0.526380 0.053125
0.134399 0.524728 0.051708
0.200633 0.523059 0.050278
0.269427 0.521377 0.048838
0.340227 0.519684 0.047392
0.412491 0.517982 0.045940
0.485676 0.516273 0.044483
0.559238 0.514558 0.043022
0.632631 0.512837 0.041559
0.705304 0.511110 0.040093
0.776701 0.509379 0.038625
0.846265 0.507643 0.037154
0.913431 0.505903 0.035683
0.977633 0.504159 0.034210
1.000000 0.502412 0.032736
1.000000 0.502292 0.032635
0.007689 0.592014 0.049955
0.066686 0.590397 0.048565
0.129570 0.588753 0.047153
0.195634 0.587091 0.045728
0.264293 0.585416 0.044294
0.334994 0.583731 0.042853
0.407194 0.582037 0.041407
0.480351 0.580335 0.039956
0.553924 0.578626 0.038501
0.627364 0.576911 0.037043
0.700122 0.575191 0.035583
0.771643 0.573466 0.034120
0.841368 0.571736 0.032656
0.908735 0.570001 0.031191
0.973177 0.568263 0.029724
1.000000 0.566521 0.028256
1.000000 0.566401 0.028155
0.003321 0.655434 0.045414
0.062083 0.653833 0.044029
0.124762 0.652206 0.042623
0.190654 0.650561 0.041204
0.259175 0.648903 0.039775
0.329774 0.647234 0.038340
0.401908 0.645556 0.036899
0.475036 0.643870 0.035453
0.548616 0.642177 0.034005
0.622101 0.640478 0.032553
0.694941 0.638773 0.031098
0.766583 0.637063 0.029641
0.836467 0.635348 0.028183
0.904031 0.633628 0.026723
0.968709 0.631905 0.025262
1.000000 0.630177 0.023800
1.000000 0.630058 0.023700
0.000000 0.717938 0.040897
0.057503 0.716362 0.039517
0.119975 0.714760 0.038116
0.185693 0.713141 0.036703
0.254074 0.711508 0.035280
0.324568 0.709864 0.033850
0.396633 0.708211 0.032415
0.469729 0.706550 0.030975
0.543313 0.704882 0.029532
0.616840 0.703208 0.028086
0.689761 0.701528 0.026637
0.761520 0.699842 0.025187
0.831560 0.698151 0.023734
0.899319 0.696456 0.022281
0.964230 0.694756 0.020826
1.000000 0.693052 0.019370
1.000000 0.692935 0.019270
0.000000 0.779199 0.036403
0.052946 0.777657 0.035029
0.115208 0.776089 0.033634
0.180750 0.774504 0.032225
0.248989 0.772905 0.030808
0.319375 0.771296 0.029384
0.391369 0.769677 0.027955
0.464430 0.768050 0.026521
0.538016 0.766416 0.025084
0.611582 0.764776 0.023644
0.684580 0.763129 0.022201
0.756454 0.761477 0.020756
0.826647 0.759819 0.019310
0.894597 0.758157 0.017862
0.959738 0.756490 0.016413
1.000000 0.754819 0.014963
1.000000 0.754704 0.014864
0.000000 0.838892 0.031932
0.048411 0.837393 0.030563
0.110462 0.835867 0.029174
0.175824 0.834325 0.027771
0.243918 0.832769 0.026360
0.314195 0.831203 0.024942
0.386115 0.829627 0.023518
0.459138 0.828043 0.022090
0.532724 0.826452 0.020659
0.606327 0.824854 0.019225
0.679398 0.823250 0.017788
0.751384 0.821641 0.016349
0.821727 0.820026 0.014909
0.889866 0.818406 0.013467
0.955235 0.816781 0.012024
1.000000 0.815152 0.010581
1.000000 0.815040 0.010482
0.000000 0.896692 0.027484
0.043898 0.895243 0.026121
0.105735 0.893769 0.024737
0.170916 0.892279 0.023340
0.238863 0.890775 0.021935
0.309028 0.889260 0.020522
0.380871 0.887736 0.019104
0.453854 0.886205 0.017683
0.527436 0.884665 0.016257
0.601073 0.883119 0.014829
0.674215 0.881567 0.013398
0.746311 0.880009 0.011966
0.816801 0.878446 0.010531
0.885126 0.876877 0.009096
0.950719 0.875303 0.007659
1.000000 0.873725 0.006222
1.000000 0.873617 0.006123
0.000000 0.952275 0.023059
0.039408 0.950886 0.021701
0.101028 0.949472 0.020323
0.166025 0.948041 0.018932
0.233822 0.946598 0.017532
0.303872 0.945144 0.016126
0.375636 0.943681 0.014714
0.448577 0.942210 0.013298
0.522153 0.940732 0.011878
0.595821 0.939246 0.010456
0.669032 0.937755 0.009032
0.741234 0.936257 0.007605
0.811869 0.934755 0.006177
0.880376 0.933246 0.004748
0.946190 0.931733 0.003318
1.000000 0.930215 0.001887
1.000000 0.930111 0.001788
0.000000 1.000000 0.018656
0.034939 1.000000 0.017304
0.096341 1.000000 0.015931
0.161152 1.000000 0.014546
0.228796 0.999916 0.013152
0.298729 0.998531 0.011752
0.370411 0.997138 0.010346
0.443306 0.995737 0.008936
0.516874 0.994328 0.007522
0.590570 0.992912 0.006106
0.663847 0.991491 0.004688
0.736153 0.990063 0.003268
0.806929 0.988629 0.001846
0.875617 0.987191 0.000423
0.941649 0.985747 0.000000
1.000000 0.984298 0.000000
1.000000 0.984198 0.000000
0.047921 0.033211 0.152903
0.108924 0.031840 0.151412
0.173537 0.030449 0.149897
0.241032 0.029045 0.148367
0.310812 0.027632 0.146827
0.382316 0.026212 0.145279
0.454993 0.024787 0.143725
0.528297 0.023357 0.142165
0.601682 0.021924 0.140600
0.674597 0.020488 0.139032
0.746489 0.019050 0.137460
0.816800 0.017609 0.135885
0.884969 0.016167 0.134308
0.950432 0.014724 0.132729
1.000000 0.013280 0.131148
1.000000 0.011834 0.129565
1.000000 0.011735 0.129456
0.043234 0.090416 0.147864
0.104017 0.088982 0.146377
0.168443 0.087525 0.144866
0.235785 0.086055 0.143341
0.305447 0.084575 0.141806
0.376870 0.083088 0.140262
0.449503 0.081594 0.138712
0.522802 0.080096 0.137156
0.596219 0.078593 0.135596
0.669206 0.077087 0.134033
0.741208 0.075579 0.132465
0.811669 0.074068 0.130896
0.880028 0.072555 0.129323
0.945720 0.071040 0.127749
1.000000 0.069523 0.126172
1.000000 0.068005 0.124594
1.000000 0.067901 0.124485
0.038612 0.149441 0.142889
0.099175 0.147952 0.141406
0.163412 0.146440 0.139900
0.230600 0.144914 0.138379
0.300143 0.143377 0.136848
0.371482 0.141832 0.135308
0.444069 0.140280 0.133763
0.517359 0.138723 0.132212
0.590806 0.137162 0.130656
0.663861 0.135597 0.129097
0.735969 0.134028 0.127535
0.806576 0.132457 0.125969
0.875120 0.130883 0.124402
0.941036 0.129307 0.122832
1.000000 0.127729 0.121260
1.000000 0.126149 0.119687
1.000000 0.126040 0.119579
0.034035 0.210109 0.137957
0.094377 0.208575 0.136478
0.158424 0.207017 0.134976
0.225455 0.205444 0.133460
0.294877 0.203860 0.131933
0.366130 0.202267 0.130398
0.438669 0.200667 0.128857
0.511948 0.199061 0.127310
0.585422 0.197450 0.125760
0.658541 0.195836 0.124205
0.730752 0.194217 0.122647
0.801501 0.192595 0.121087
0.870226 0.190970 0.119524
0.936362 0.189343 0.117959
0.999343 0.187714 0.116392
1.000000 0.186082 0.114823
1.000000 0.185970 0.114715
0.029495 0.272136 0.133059
0.089614 0.270567 0.131585
0.153469 0.268972 0.130087
0.220342 0.267361 0.128575
0.289640 0.265739 0.127053
0.360806 0.264108 0.125522
0.433294 0.262469 0.123986
0.506559 0.260824 0.122444
0.580056 0.259174 0.120898
0.653237 0.257519 0.119348
0.725548 0.255860 0.117795
0.796435 0.254197 0.116239
0.865337 0.252532 0.114681
0.931691 0.250863 0.113121
0.994928 0.249191 0.111558
1.000000 0.247518 0.109995
1.000000 0.247403 0.109887
0.024989 0.335212 0.128192
0.084883 0.333615 0.126721
0.148544 0.331993 0.125228
0.215257 0.330354 0.123721
0.284429 0.328703 0.122203
0.355505 0.327042 0.120677
0.427939 0.325374 0.119145
0.501187 0.323699 0.117608
0.574705 0.322019 0.116067
0.647944 0.320333 0.114521
0.720353 0.318643 0.112973
0.791375 0.316950 0.111422
0.860451 0.315252 0.109869
0.927018 0.313551 0.108313
0.990507 0.311848 0.106756
1.000000 0.310142 0.105197
1.000000 0.310024 0.105090
0.020514 0.399012 0.123352
0.080181 0.397397 0.121886
0.143646 0.395756 0.120397
0.210195 0.394098 0.118894
0.279240 0.392427 0.117381
0.350223 0.390747 0.115859
0.422601 0.389059 0.114332
0.495830 0.387363 0.112800
0.569366 0.385662 0.111263
0.642660 0.383955 0.109723
0.715163 0.382244 0.108179
0.786317 0.380528 0.106633
0.855564 0.378808 0.105084
0.922341 0.377085 0.103534
0.986079 0.375359 0.101982
1.000000 0.373630 0.100428
1.000000 0.373511 0.100321
0.016067 0.463211 0.118537
0.075506 0.461586 0.117075
0.138772 0.459935 0.115591
0.205157 0.458267 0.114092
0.274070 0.456586 0.112584
0.344959 0.454895 0.111067
0.417278 0.453196 0.109545
0.490485 0.451489 0.108017
0.564036 0.449776 0.106485
0.637383 0.448057 0.104949
0.709977 0.446334 0.103411
0.781260 0.444605 0.101870
0.850675 0.442873 0.100326
0.917658 0.441137 0.098780
0.981641 0.439397 0.097233
1.000000 0.437654 0.095684
1.000000 0.437534 0.095578
0.011649 0.527480 0.113746
0.070856 0.525855 0.112289
0.133922 0.524203 0.110809
0.200139 0.522533 0.109315
0.268920 0.520851 0.107811
0.339710 0.519158 0.106300
0.411968 0.517457 0.104782
0.485150 0.515748 0.103259
0.558714 0.514032 0.101732
0.632112 0.512311 0.100201
0.704793 0.510584 0.098667
0.776203 0.508853 0.097131
0.845782 0.507117 0.095592
0.912968 0.505377 0.094052
0.977194 0.503634 0.092510
1.000000 0.501886 0.090966
1.000000 0.501766 0.090860
0.007256 0.591491 0.108978
0.066230 0.589874 0.107525
0.129094 0.588230 0.106050
0.195141 0.586568 0.104561
0.263786 0.584893 0.103062
0.334477 0.583208 0.101555
0.406671 0.581513 0.100042
0.479826 0.579811 0.098524
0.553399 0.578102 0.097002
0.626844 0.576388 0.095476
0.699610 0.574667 0.093947
0.771143 0.572942 0.092416
0.840884 0.571212 0.090882
0.908271 0.569477 0.089347
0.972736 0.567739 0.087810
1.000000 0.565997 0.086271
1.000000 0.565877 0.086165
0.002890 0.654916 0.104232
0.061629 0.653316 0.102784
0.124287 0.651688 0.101314
0.190162 0.650043 0.099829
0.258670 0.648385 0.098335
0.329258 0.646715 0.096833
0.401385 0.645037 0.095325
0.474510 0.643351 0.093812
0.548091 0.641658 0.092294
0.621580 0.639959 0.090774
0.694429 0.638254 0.089250
0.766082 0.636543 0.087724
0.835982 0.634828 0.086195
0.903565 0.633109 0.084665
0.968266 0.631385 0.083133
1.000000 0.629657 0.081600
1.000000 0.629538 0.081494
0.000000 0.717429 0.099508
0.057051 0.715853 0.098065
0.119502 0.714251 0.096599
0.185202 0.712631 0.095120
0.253570 0.710998 0.093630
0.324053 0.709354 0.092133
0.396111 0.707701 0.090630
0.469203 0.706039 0.089121
0.542788 0.704371 0.087609
0.616319 0.702697 0.086093
0.689247 0.701016 0.084575
0.761018 0.699330 0.083054
0.831073 0.697639 0.081530
0.898851 0.695943 0.080005
0.963785 0.694243 0.078478
1.000000 0.692539 0.076950
1.000000 0.692422 0.076845
0.000000 0.778701 0.094806
0.052495 0.777159 0.093367
0.114737 0.775591 0.091906
0.180260 0.774005 0.090431
0.248485 0.772406 0.088946
0.318861 0.770796 0.087454
0.390847 0.769177 0.085956
0.463904 0.767550 0.084453
0.537491 0.765915 0.082946
0.611061 0.764274 0.081435
0.684066 0.762627 0.079921
0.755951 0.760975 0.078405
0.826159 0.759317 0.076887
0.894128 0.757655 0.075367
0.959292 0.755987 0.073846
1.000000 0.754316 0.072323
1.000000 0.754201 0.072218
0.000000 0.838407 0.090124
0.047962 0.836908 0.088690
0.109992 0.835382 0.087233
0.175336 0.833839 0.085764
0.243416 0.832283 0.084284
0.313681 0.830716 0.082797
0.385594 0.829140 0.081303
0.458613 0.827556 0.079805
0.532198 0.825964 0.078303
0.605805 0.824366 0.076798
0.678883 0.822762 0.075289
0.750880 0.821152 0.073779
0.821238 0.819536 0.072266
0.889396 0.817916 0.070751
0.954787 0.816291 0.069235
1.000000 0.814661 0.067718
1.000000 0.814549 0.067613
0.000000 0.896224 0.085462
0.043451 0.894775 0.084033
0.105266 0.893300 0.082582
0.170429 0.891809 0.081117
0.238361 0.890305 0.079642
0.308514 0.888790 0.078160
0.380350 0.887265 0.076672
0.453329 0.885733 0.075179
0.526911 0.884193 0.073682
0.600551 0.882647 0.072182
0.673700 0.881094 0.070679
0.745806 0.879536 0.069173
0.816311 0.877972 0.067666
0.884654 0.876403 0.066156
0.950269 0.874829 0.064646
1.000000 0.873250 0.063134
1.000000 0.873141 0.063030
0.000000 0.951826 0.080822
0.038962 0.950436 0.079397
0.100561 0.949021 0.077951
0.165540 0.947591 0.076491
0.233322 0.946147 0.075021
0.303360 0.944692 0.073544
0.375116 0.943229 0.072061
0.448052 0.941757 0.070573
0.521627 0.940278 0.069082
0.595298 0.938792 0.067587
0.668516 0.937300 0.066089
0.740728 0.935803 0.064589
0.811378 0.934299 0.063087
0.879903 0.932790 0.061583
0.945739 0.931277 0.060078
1.000000 0.929758 0.058571
1.000000 0.929653 0.058467
0.000000 1.000000 0.076201
0.034495 1.000000 0.074781
0.095875 1.000000 0.073340
0.160667 1.000000 0.071885
0.228297 0.999486 0.070420
0.298217 0.998101 0.068948
0.369892 0.996707 0.067471
0.442782 0.995305 0.065988
0.516348 0.993896 0.064502
0.590047 0.992480 0.063012
0.663331 0.991057 0.061520
0.735646 0.989629 0.060025
0.806437 0.988195 0.058528
0.875142 0.986756 0.057030
0.941196 0.985311 0.055530
1.000000 0.983862 0.054029
1.000000 0.983762 0.053926
0.047482 0.032777 0.214382
0.108464 0.031407 0.212846
0.173060 0.030017 0.211285
0.240541 0.028613 0.209709
0.310310 0.027201 0.208121
0.381806 0.025781 0.206526
0.454479 0.024357 0.204923
0.527783 0.022928 0.203314
0.601171 0.021495 0.201700
0.674093 0.020060 0.200082
0.745995 0.018622 0.198461
0.816321 0.017182 0.196836
0.884508 0.015741 0.195208
0.949992 0.014298 0.193577
1.000000 0.012854 0.191945
1.000000 0.011409 0.190310
1.000000 0.011310 0.190197
