assets/luts/copper_dusk.cube
# Медь на закате — самый насыщенный из тёплых
TITLE "copper_dusk"
LUT_3D_SIZE 9
DOMAIN_MIN 0.0 0.0 0.0
DOMAIN_MAX 1.0 1.0 1.0
0.048837 0.034115 0.031634
0.174532 0.031351 0.028876
0.311859 0.028532 0.026063
0.456063 0.025684 0.023222
0.602747 0.022819 0.020363
0.747518 0.019943 0.017493
0.885931 0.017058 0.014615
1.000000 0.014167 0.011731
1.000000 0.012621 0.010189
0.039520 0.150423 0.022457
0.164402 0.147421 0.019723
0.301187 0.144356 0.016934
0.445139 0.141257 0.014117
0.591873 0.138137 0.011283
0.737002 0.135002 0.008438
0.876087 0.131854 0.005585
1.000000 0.128699 0.002727
1.000000 0.127009 0.001199
0.030397 0.273172 0.013475
0.154454 0.270006 0.010764
0.290681 0.266772 0.007999
0.434363 0.263501 0.005207
0.581124 0.260205 0.002398
0.726584 0.256890 0.000000
0.866311 0.253560 0.000000
0.995807 0.250219 0.000000
1.000000 0.248429 0.000000
0.021408 0.400077 0.004630
0.144625 0.396820 0.001943
0.280277 0.393491 0.000000
0.423669 0.390122 0.000000
0.570434 0.386725 0.000000
0.716202 0.383306 0.000000
0.856543 0.379870 0.000000
0.986966 0.376420 0.000000
1.000000 0.374572 0.000000
0.012535 0.528551 0.000000
0.134895 0.525274 0.000000
0.269954 0.521923 0.000000
0.413035 0.518528 0.000000
0.559783 0.515104 0.000000
0.705835 0.511656 0.000000
0.846766 0.508189 0.000000
0.978089 0.504705 0.000000
1.000000 0.502838 0.000000
0.003769 0.655971 0.000000
0.125255 0.652744 0.000000
0.259701 0.649441 0.000000
0.402451 0.646094 0.000000
0.549161 0.642716 0.000000
0.695474 0.639312 0.000000
0.836971 0.635887 0.000000
0.969169 0.632445 0.000000
1.000000 0.630598 0.000000
0.000000 0.779717 0.000000
0.115699 0.776608 0.000000
0.249512 0.773424 0.000000
0.391911 0.770197 0.000000
0.538562 0.766936 0.000000
0.685113 0.763650 0.000000
0.827153 0.760341 0.000000
0.960202 0.757012 0.000000
1.000000 0.755226 0.000000
0.000000 0.897178 0.000000
0.106223 0.894257 0.000000
0.239384 0.891263 0.000000
0.381412 0.888226 0.000000
0.527982 0.885155 0.000000
0.674751 0.882058 0.000000
0.817310 0.878938 0.000000
0.951186 0.875796 0.000000
1.000000 0.874110 0.000000
0.000000 1.000000 0.000000
0.096825 1.000000 0.000000
0.229316 1.000000 0.000000
0.370952 0.997585 0.000000
0.517420 0.994776 0.000000
0.664384 0.991940 0.000000
0.807441 0.989081 0.000000
0.942120 0.986199 0.000000
1.000000 0.984652 0.000000
0.047921 0.033211 0.152903
0.173537 0.030449 0.149897
0.310812 0.027632 0.146827
0.454993 0.024787 0.143725
0.601682 0.021924 0.140600
0.746489 0.019050 0.137460
0.884969 0.016167 0.134308
1.000000 0.013280 0.131148
1.000000 0.011735 0.129456
0.038612 0.149441 0.142889
0.163412 0.146440 0.139900
0.300143 0.143377 0.136848
0.444069 0.140280 0.133763
0.590806 0.137162 0.130656
0.735969 0.134028 0.127535
0.875120 0.130883 0.124402
1.000000 0.127729 0.121260
1.000000 0.126040 0.119579
0.029495 0.272136 0.133059
0.153469 0.268972 0.130087
0.289640 0.265739 0.127053
0.433294 0.262469 0.123986
0.580056 0.259174 0.120898
0.725548 0.255860 0.117795
0.865337 0.252532 0.114681
0.994928 0.249191 0.111558
1.000000 0.247403 0.109887
0.020514 0.399012 0.123352
0.143646 0.395756 0.120397
0.279240 0.392427 0.117381
0.422601 0.389059 0.114332
0.569366 0.385662 0.111263
0.715163 0.382244 0.108179
0.855564 0.378808 0.105084
0.986079 0.375359 0.101982
1.000000 0.373511 0.100321
0.011649 0.527480 0.113746
0.133922 0.524203 0.110809
0.268920 0.520851 0.107811
0.411968 0.517457 0.104782
0.558714 0.514032 0.101732
0.704793 0.510584 0.098667
0.845782 0.507117 0.095592
0.977194 0.503634 0.092510
1.000000 0.501766 0.090860
0.002890 0.654916 0.104232
0.124287 0.651688 0.101314
0.258670 0.648385 0.098335
0.401385 0.645037 0.095325
0.548091 0.641658 0.092294
0.694429 0.638254 0.089250
0.835982 0.634828 0.086195
0.968266 0.631385 0.083133
1.000000 0.629538 0.081494
0.000000 0.778701 0.094806
0.114737 0.775591 0.091906
0.248485 0.772406 0.088946
0.390847 0.769177 0.085956
0.537491 0.765915 0.082946
0.684066 0.762627 0.079921
0.826159 0.759317 0.076887
0.959292 0.755987 0.073846
1.000000 0.754201 0.072218
0.000000 0.896224 0.085462
0.105266 0.893300 0.082582
0.238361 0.890305 0.079642
0.380350 0.887265 0.076672
0.526911 0.884193 0.073682
0.673700 0.881094 0.070679
0.816311 0.877972 0.067666
0.950269 0.874829 0.064646
1.000000 0.873141 0.063030
0.000000 1.000000 0.076201
0.095875 1.000000 0.073340
0.228297 0.999486 0.070420
0.369892 0.996707 0.067471
0.516348 0.993896 0.064502
0.663331 0.991057 0.061520
0.806437 0.988195 0.058528
0.941196 0.985311 0.055530
1.000000 0.983762 0.053926
0.047050 0.032351 0.276505
0.172590 0.029591 0.273336
0.309816 0.026776 0.270099
0.453973 0.023933 0.266824
0.600668 0.021073 0.263524
0.745509 0.018201 0.260205
0.884053 0.015321 0.256872
1.000000 0.012435 0.253527
1.000000 0.010892 0.251735
0.037747 0.148506 0.265942
0.162470 0.145507 0.262784
0.299149 0.142445 0.259558
0.443051 0.139350 0.256295
0.589791 0.136234 0.253006
0.734986 0.133102 0.249700
0.874198 0.129958 0.246378
1.000000 0.126806 0.243046
1.000000 0.125119 0.241261
0.028638 0.271151 0.255550
0.152533 0.267988 0.252403
0.288650 0.264756 0.249189
0.432276 0.261487 0.245937
0.579040 0.258193 0.242661
0.724562 0.254880 0.239367
0.864410 0.251553 0.236058
0.994089 0.248214 0.232739
1.000000 0.246426 0.230961
0.019664 0.397998 0.245265
0.142715 0.394743 0.242129
0.278252 0.391415 0.238927
0.421584 0.388046 0.235688
0.568348 0.384650 0.232424
0.714173 0.381232 0.229143
0.854632 0.377798 0.225847
0.985233 0.374349 0.222541
1.000000 0.372501 0.220770
0.010805 0.526460 0.235065
0.132996 0.523183 0.231941
0.267935 0.519831 0.228751
0.410953 0.516436 0.225525
0.557696 0.513012 0.222274
0.703800 0.509564 0.219006
0.844844 0.506097 0.215724
0.976341 0.502613 0.212431
1.000000 0.500746 0.210668
0.002055 0.653912 0.224940
0.123366 0.650683 0.221829
0.257689 0.647379 0.218651
0.400371 0.644031 0.215438
0.547072 0.640651 0.212201
0.693433 0.637246 0.208947
0.835039 0.633820 0.205678
0.967406 0.630376 0.202400
1.000000 0.628529 0.200644
0.000000 0.777733 0.214884
0.113821 0.774622 0.211786
0.247507 0.771436 0.208622
0.389835 0.768205 0.205422
0.536471 0.764943 0.202199
0.683068 0.761654 0.198959
0.825212 0.758342 0.195705
0.958425 0.755011 0.192441
1.000000 0.753224 0.190694
0.000000 0.895314 0.204894
0.104357 0.892389 0.201810
0.237387 0.889392 0.198659
0.379339 0.886351 0.195474
0.525891 0.883277 0.192265
0.672700 0.880176 0.189040
0.815360 0.877052 0.185801
0.949396 0.873907 0.182552
1.000000 0.872218 0.180813
0.000000 1.000000 0.194969
0.094971 1.000000 0.191898
0.227327 0.998652 0.188762
0.368882 0.995870 0.185591
0.515328 0.993057 0.182397
0.662328 0.990216 0.179187
0.805481 0.987351 0.175963
0.940317 0.984465 0.172730
1.000000 0.982914 0.170999
0.046200 0.031512 0.401899
0.171668 0.028755 0.398642
0.308844 0.025942 0.395312
0.452980 0.023101 0.391942
0.599680 0.020243 0.388544
0.744554 0.017373 0.385124
0.883159 0.014495 0.381687
1.000000 0.011612 0.378236
1.000000 0.010070 0.376387
0.036905 0.147595 0.391034
0.161552 0.144598 0.387782
0.298180 0.141537 0.384457
0.442057 0.138444 0.381092
0.588801 0.135329 0.377699
0.734027 0.132199 0.374286
0.873298 0.129057 0.370855
1.000000 0.125906 0.367410
1.000000 0.124220 0.365564
0.027802 0.270190 0.380324
0.151620 0.267028 0.377077
0.287684 0.263797 0.373758
0.431284 0.260529 0.370399
0.578048 0.257236 0.367013
0.723600 0.253924 0.363605
0.863506 0.250598 0.360181
0.993271 0.247261 0.356742
1.000000 0.245473 0.354900
0.018835 0.397010 0.369704
0.141806 0.393755 0.366463
0.277289 0.390427 0.363150
0.420593 0.387059 0.359797
0.567356 0.383663 0.356417
0.713208 0.380246 0.353016
0.853722 0.376812 0.349599
0.984407 0.373364 0.346168
1.000000 0.371516 0.344329
0.009984 0.525465 0.359152
0.132093 0.522188 0.355917
0.266976 0.518836 0.352610
0.409963 0.515441 0.349264
0.556702 0.512017 0.345891
0.702832 0.508569 0.342497
0.843930 0.505101 0.339087
0.975509 0.501618 0.335664
1.000000 0.499750 0.333830
0.001240 0.652932 0.348657
0.122469 0.649702 0.345429
0.256733 0.646397 0.342129
0.399383 0.643049 0.338790
0.546078 0.639668 0.335425
0.692462 0.636263 0.332039
0.834120 0.632836 0.328637
0.966567 0.629391 0.325221
1.000000 0.627544 0.323392
0.000000 0.776789 0.338214
0.112929 0.773676 0.334993
0.246554 0.770489 0.331701
0.388847 0.767258 0.328370
0.535477 0.763994 0.325012
0.682094 0.760703 0.321634
0.824288 0.757391 0.318241
0.957579 0.754059 0.314834
1.000000 0.752271 0.313009
0.000000 0.894427 0.327820
0.103470 0.891500 0.324606
0.236438 0.888501 0.321322
0.378353 0.885458 0.317999
0.524896 0.882382 0.314650
0.671724 0.879280 0.311281
0.814431 0.876154 0.307896
0.948543 0.873007 0.304498
1.000000 0.871318 0.302678
0.000000 1.000000 0.317472
0.094090 1.000000 0.314266
0.226381 0.997837 0.310991
0.367898 0.995053 0.307677
0.514333 0.992237 0.304336
0.661350 0.989394 0.300976
0.804548 0.986527 0.297601
0.939458 0.983639 0.294212
1.000000 0.982087 0.292397
0.045366 0.030688 0.527207
0.170761 0.027933 0.523930
0.307889 0.025122 0.520579
0.452002 0.022284 0.517184
0.598707 0.019428 0.513760
0.743614 0.016560 0.510312
0.882280 0.013685 0.506844
1.000000 0.010804 0.503361
1.000000 0.009263 0.501494
0.036077 0.146700 0.516269
0.160650 0.143704 0.512991
0.297228 0.140645 0.509639
0.441081 0.137554 0.506244
0.587828 0.134440 0.502819
0.733084 0.131311 0.499370
0.872414 0.128171 0.495903
1.000000 0.125022 0.492419
1.000000 0.123337 0.490552
0.026981 0.269246 0.505469
0.150722 0.266085 0.502190
0.286734 0.262855 0.498837
0.430309 0.259588 0.495442
0.577074 0.256296 0.492017
0.722653 0.252985 0.488569
0.862616 0.249660 0.485102
0.992466 0.246324 0.481619
1.000000 0.244537 0.479752
0.018021 0.396038 0.494739
0.140914 0.392783 0.491461
0.276343 0.389456 0.488108
0.419618 0.386089 0.484714
0.566380 0.382694 0.481289
0.712259 0.379277 0.477842
0.852827 0.375843 0.474376
0.983595 0.372396 0.470894
1.000000 0.370548 0.469028
0.009177 0.524487 0.484060
0.131206 0.521209 0.480782
0.266032 0.517857 0.477430
0.408989 0.514463 0.474037
0.555726 0.511038 0.470613
0.701880 0.507590 0.467167
0.843030 0.504123 0.463702
0.974689 0.500639 0.460222
1.000000 0.498772 0.458357
0.000440 0.651968 0.473421
0.121587 0.648738 0.470144
0.255793 0.645432 0.466793
0.398410 0.642083 0.463401
0.545101 0.638702 0.459979
0.691508 0.635296 0.456534
0.833215 0.631869 0.453072
0.965741 0.628423 0.449593
1.000000 0.626576 0.447729
0.000000 0.775860 0.462815
0.112052 0.772746 0.459540
0.245618 0.769558 0.456191
0.387877 0.766326 0.452800
0.534499 0.763060 0.449380
0.681137 0.759769 0.445938
0.823379 0.756455 0.442478
0.956747 0.753122 0.439002
1.000000 0.751333 0.437139
0.000000 0.893554 0.452240
0.102599 0.890625 0.448967
0.235505 0.887624 0.445620
0.377384 0.884580 0.442232
0.523917 0.881502 0.438814
0.670764 0.878398 0.435375
0.813518 0.875270 0.431917
0.947705 0.872122 0.428445
1.000000 0.870432 0.426584
0.000000 1.000000 0.441694
0.093224 0.999779 0.438423
0.225451 0.997035 0.435079
0.366931 0.994250 0.431693
0.513354 0.991431 0.428279
0.660388 0.988586 0.424843
0.803630 0.985717 0.421389
0.938613 0.982826 0.417920
1.000000 0.981273 0.416061
0.044543 0.029876 0.650369
0.169866 0.027123 0.647137
0.306947 0.024314 0.643831
0.451038 0.021478 0.640480
0.597747 0.018624 0.637098
0.742686 0.015758 0.633691
0.881411 0.012885 0.630263
1.000000 0.010006 0.626817
1.000000 0.008466 0.624969
0.035261 0.145817 0.639577
0.159760 0.142822 0.636339
0.296288 0.139765 0.633026
0.440117 0.136675 0.629669
0.586866 0.133563 0.626280
0.732153 0.130436 0.622867
0.871540 0.127298 0.619432
1.000000 0.124150 0.615980
1.000000 0.122466 0.614129
0.026172 0.268314 0.628902
0.149837 0.265154 0.625658
0.285798 0.261925 0.622339
0.429346 0.258659 0.618976
0.576111 0.255368 0.615582
0.721719 0.252059 0.612162
0.861737 0.248735 0.608722
0.991670 0.245399 0.605265
1.000000 0.243613 0.603410
0.017218 0.395079 0.618280
0.140034 0.391825 0.615030
0.275409 0.388498 0.611705
0.418657 0.385131 0.608337
0.565417 0.381736 0.604937
0.711321 0.378320 0.601512
0.851943 0.374887 0.598067
0.982793 0.371440 0.594605
1.000000 0.369593 0.592748
0.008381 0.523521 0.607688
0.130330 0.520244 0.604433
0.265101 0.516892 0.601104
0.408028 0.513497 0.597730
0.554762 0.510072 0.594326
0.700940 0.506624 0.590896
0.842141 0.503157 0.587447
0.973880 0.499673 0.583980
1.000000 0.497806 0.582121
0.000000 0.651017 0.597118
0.120717 0.647786 0.593859
0.254865 0.644480 0.590524
0.397451 0.641130 0.587146
0.544136 0.637748 0.583738
0.690565 0.634341 0.580304
0.832322 0.630914 0.576851
0.964926 0.627468 0.573380
1.000000 0.625620 0.571519
0.000000 0.774943 0.586563
0.111187 0.771828 0.583300
0.244694 0.768639 0.579962
0.386919 0.765405 0.576580
0.533534 0.762139 0.573167
0.680191 0.758846 0.569730
0.822481 0.755531 0.566273
0.955925 0.752197 0.562799
1.000000 0.750408 0.560936
0.000000 0.892692 0.576021
0.101739 0.889761 0.572754
0.234584 0.886759 0.569413
0.376428 0.883713 0.566028
0.522952 0.880633 0.562612
0.669816 0.877527 0.559172
0.812616 0.874398 0.555712
0.946876 0.871248 0.552235
1.000000 0.869557 0.550370
0.000000 1.000000 0.565490
0.092370 0.998989 0.562220
0.224534 0.996244 0.558875
0.365976 0.993456 0.555487
0.512389 0.990635 0.552069
0.659438 0.987787 0.548626
0.802724 0.984916 0.545163
0.937778 0.982023 0.541684
1.000000 0.980469 0.539819
0.043729 0.029072 0.769305
0.168981 0.026321 0.766184
0.306015 0.023515 0.762987
0.450084 0.020680 0.759746
0.596797 0.017829 0.756473
0.741767 0.014965 0.753174
0.880551 0.012094 0.749852
1.000000 0.009218 0.746511
1.000000 0.007679 0.744718
0.034453 0.144943 0.758872
0.158880 0.141950 0.755738
0.295359 0.138895 0.752529
0.439164 0.135806 0.749276
0.585915 0.132696 0.745990
0.731231 0.129570 0.742679
0.870675 0.126433 0.739345
0.999748 0.123288 0.735991
1.000000 0.121604 0.734192
0.025371 0.267393 0.748533
0.148962 0.264233 0.745387
0.284871 0.261005 0.742166
0.428393 0.257740 0.738901
0.575159 0.254450 0.735604
0.720794 0.251142 0.732281
0.860866 0.247819 0.728935
0.990883 0.244485 0.725570
1.000000 0.242699 0.723765
0.016424 0.394130 0.738225
0.139163 0.390876 0.735068
0.274485 0.387550 0.731836
0.417705 0.384184 0.728560
0.564464 0.380789 0.725251
0.710393 0.377374 0.721917
0.851068 0.373941 0.718560
0.981998 0.370495 0.715185
1.000000 0.368648 0.713374
0.007593 0.522566 0.727929
0.129465 0.519288 0.724761
0.264181 0.515936 0.721518
0.407078 0.512541 0.718232
0.553808 0.509117 0.714912
0.700009 0.505668 0.711567
0.841261 0.502201 0.708201
0.973079 0.498717 0.704815
1.000000 0.496850 0.702998
0.000000 0.650075 0.717635
0.119856 0.646843 0.714457
0.253947 0.643537 0.711204
0.396502 0.640186 0.707907
0.543181 0.636804 0.704578
0.689632 0.633397 0.701223
0.831438 0.629968 0.697846
0.964118 0.626522 0.694451
1.000000 0.624674 0.692629
0.000000 0.774035 0.707338
0.110332 0.770919 0.704151
0.243779 0.767729 0.700888
0.385971 0.764494 0.697582
0.532579 0.761227 0.694243
0.679256 0.757933 0.690878
0.821592 0.754617 0.687492
0.955111 0.751281 0.684088
1.000000 0.749492 0.682261
0.000000 0.891838 0.697035
0.100889 0.888906 0.693839
0.233673 0.885902 0.690567
0.375481 0.882854 0.687252
0.521996 0.879773 0.683904
0.668878 0.876665 0.680531
0.811723 0.873534 0.677136
0.946056 0.870383 0.673722
1.000000 0.868691 0.671891
0.000000 1.000000 0.686725
0.091525 0.998207 0.683520
0.223627 0.995460 0.680240
0.365032 0.992669 0.676916
0.511433 0.989847 0.673559
0.658498 0.986997 0.670178
0.801827 0.984123 0.666775
0.936952 0.981228 0.663353
1.000000 0.979673 0.661518
0.042923 0.028277 0.881963
0.168104 0.025527 0.879013
0.305091 0.022723 0.875990
0.449138 0.019891 0.872923
0.595856 0.017041 0.869823
0.740856 0.014180 0.866696
0.879698 0.011311 0.863546
1.000000 0.008437 0.860376
1.000000 0.006899 0.858674
0.033654 0.144078 0.872095
0.158008 0.141086 0.869127
0.294438 0.138032 0.866085
0.438219 0.134945 0.863000
0.584972 0.131836 0.859882
0.730317 0.128713 0.856737
0.869816 0.125577 0.853569
0.998974 0.122433 0.850381
1.000000 0.120751 0.848669
0.024578 0.266479 0.862295
0.148094 0.263321 0.859309
0.283952 0.260094 0.856251
0.427449 0.256830 0.853148
0.574215 0.253541 0.850012
0.719877 0.250234 0.846850
0.860003 0.246912 0.843664
0.990101 0.243578 0.840459
1.000000 0.241793 0.838738
0.015637 0.393189 0.852505
0.138301 0.389936 0.849502
0.273570 0.386610 0.846427
0.416762 0.383244 0.843307
0.563519 0.379851 0.840155
0.709473 0.376436 0.836975
0.850200 0.373003 0.833773
0.981210 0.369557 0.830551
1.000000 0.367711 0.828821
0.006814 0.521619 0.842706
0.128607 0.518341 0.839687
0.263268 0.514989 0.836595
0.406136 0.511594 0.833459
0.552862 0.508169 0.830291
0.699086 0.504721 0.827095
0.840389 0.501254 0.823877
0.972284 0.497770 0.820638
1.000000 0.495903 0.818900
0.000000 0.649141 0.832890
0.119003 0.645909 0.829855
0.253038 0.642602 0.826748
0.395561 0.639251 0.823596
0.542235 0.635868 0.820411
0.688706 0.632460 0.817200
0.830561 0.629031 0.813966
0.963317 0.625584 0.810712
1.000000 0.623736 0.808965
0.000000 0.773135 0.823051
0.109484 0.770018 0.820002
0.242873 0.766826 0.816879
0.385031 0.763591 0.813712
0.531632 0.760322 0.810512
0.678328 0.757027 0.807286
0.820711 0.753710 0.804037
0.954303 0.750374 0.800768
1.000000 0.748583 0.799013
0.000000 0.890991 0.813189
0.100047 0.888058 0.810125
0.232771 0.885052 0.806987
0.374543 0.882002 0.803806
0.521049 0.878920 0.800591
0.667948 0.875810 0.797350
0.810837 0.872678 0.794086
0.945242 0.869525 0.790803
1.000000 0.867832 0.789041
0.000000 1.000000 0.803300
0.090689 0.997432 0.800222
0.222728 0.994682 0.797071
0.364095 0.991889 0.793875
0.510485 0.989064 0.790646
0.657566 0.986212 0.787391
0.800938 0.983336 0.784113
0.936132 0.980439 0.780815
1.000000 0.978883 0.779046
0.042123 0.027487 0.986322
0.167235 0.024740 0.983603
0.304174 0.021938 0.980815
0.448199 0.019108 0.977985
0.594921 0.016260 0.975122
0.739952 0.013401 0.972232
0.878851 0.010534 0.969318
1.000000 0.007662 0.966383
1.000000 0.006126 0.964806
0.032861 0.143219 0.977221
0.157143 0.140229 0.974479
0.293523 0.137177 0.971667
0.437281 0.134091 0.968812
0.584036 0.130984 0.965925
0.729409 0.127862 0.963011
0.868964 0.124728 0.960073
0.998205 0.121586 0.957114
1.000000 0.119904 0.955525
0.023791 0.265573 0.968160
0.147234 0.262415 0.965395
0.283041 0.259189 0.962560
0.426512 0.255927 0.959682
0.573278 0.252639 0.956772
0.718966 0.249332 0.953834
0.859146 0.246012 0.950873
0.989325 0.242679 0.947891
1.000000 0.240895 0.946289
0.014857 0.392256 0.959086
0.137445 0.389003 0.956298
0.272661 0.385678 0.953441
0.415826 0.382312 0.950541
0.562581 0.378919 0.947608
0.708560 0.375505 0.944648
0.849338 0.372073 0.941664
0.980427 0.368628 0.938659
1.000000 0.366781 0.937045
0.006041 0.520679 0.949982
0.127756 0.517401 0.947173
0.262363 0.514048 0.944294
0.405201 0.510654 0.941371
0.551923 0.507229 0.938416
0.698170 0.503781 0.935434
0.839522 0.500313 0.932428
0.971495 0.496830 0.929402
1.000000 0.494962 0.927776
0.000000 0.648214 0.940840
0.118158 0.644982 0.938011
0.252136 0.641674 0.935110
0.394627 0.638322 0.932166
0.541296 0.634939 0.929190
0.687788 0.631530 0.926186
0.829690 0.628101 0.923159
0.962521 0.624653 0.920111
1.000000 0.622805 0.918474
0.000000 0.772242 0.931657
0.108644 0.769123 0.928807
0.241975 0.765931 0.925886
0.384099 0.762694 0.922921
0.530692 0.759424 0.919924
0.677407 0.756128 0.916900
0.819836 0.752810 0.913852
0.953501 0.749472 0.910783
1.000000 0.747681 0.909135
0.000000 0.890150 0.922431
0.099212 0.887215 0.919561
0.231875 0.884208 0.916620
0.373613 0.881157 0.913635
0.520109 0.878072 0.910617
0.667025 0.874961 0.907572
0.809958 0.871827 0.904504
0.944434 0.868672 0.901415
1.000000 0.866979 0.899756
0.000000 0.999345 0.913160
0.089859 0.996661 0.910271
0.221836 0.993909 0.907309
0.363166 0.991114 0.904305
0.509545 0.988287 0.901267
0.656641 0.985433 0.898203
0.800054 0.982555 0.895115
0.935318 0.979656 0.892006
1.000000 0.978098 0.890337
