assets/luts/copper_dusk.cube
# Медь на закате — самый насыщенный из тёплых
TITLE "copper_dusk"
LUT_3D_SIZE 5
DOMAIN_MIN 0.0 0.0 0.0
DOMAIN_MAX 1.0 1.0 1.0
0.048837 0.034115 0.031634
0.311859 0.028532 0.026063
0.602747 0.022819 0.020363
0.885931 0.017058 0.014615
1.000000 0.012621 0.010189
0.030397 0.273172 0.013475
0.290681 0.266772 0.007999
0.581124 0.260205 0.002398
0.866311 0.253560 0.000000
1.000000 0.248429 0.000000
0.012535 0.528551 0.000000
0.269954 0.521923 0.000000
0.559783 0.515104 0.000000
0.846766 0.508189 0.000000
1.000000 0.502838 0.000000
0.000000 0.779717 0.000000
0.249512 0.773424 0.000000
0.538562 0.766936 0.000000
0.827153 0.760341 0.000000
1.000000 0.755226 0.000000
0.000000 1.000000 0.000000
0.229316 1.000000 0.000000
0.517420 0.994776 0.000000
0.807441 0.989081 0.000000
1.000000 0.984652 0.000000
0.047050 0.032351 0.276505
0.309816 0.026776 0.270099
0.600668 0.021073 0.263524
0.884053 0.015321 0.256872
1.000000 0.010892 0.251735
0.028638 0.271151 0.255550
0.288650 0.264756 0.249189
0.579040 0.258193 0.242661
0.864410 0.251553 0.236058
1.000000 0.246426 0.230961
0.010805 0.526460 0.235065
0.267935 0.519831 0.228751
0.557696 0.513012 0.222274
0.844844 0.506097 0.215724
1.000000 0.500746 0.210668
0.000000 0.777733 0.214884
0.247507 0.771436 0.208622
0.536471 0.764943 0.202199
0.825212 0.758342 0.195705
1.000000 0.753224 0.190694
0.000000 1.000000 0.194969
0.227327 0.998652 0.188762
0.515328 0.993057 0.182397
0.805481 0.987351 0.175963
1.000000 0.982914 0.170999
0.045366 0.030688 0.527207
0.307889 0.025122 0.520579
0.598707 0.019428 0.513760
0.882280 0.013685 0.506844
1.000000 0.009263 0.501494
0.026981 0.269246 0.505469
0.286734 0.262855 0.498837
0.577074 0.256296 0.492017
0.862616 0.249660 0.485102
1.000000 0.244537 0.479752
0.009177 0.524487 0.484060
0.266032 0.517857 0.477430
0.555726 0.511038 0.470613
0.843030 0.504123 0.463702
1.000000 0.498772 0.458357
0.000000 0.775860 0.462815
0.245618 0.769558 0.456191
0.534499 0.763060 0.449380
0.823379 0.756455 0.442478
1.000000 0.751333 0.437139
0.000000 1.000000 0.441694
0.225451 0.997035 0.435079
0.513354 0.991431 0.428279
0.803630 0.985717 0.421389
1.000000 0.981273 0.416061
0.043729 0.029072 0.769305
0.306015 0.023515 0.762987
0.596797 0.017829 0.756473
0.880551 0.012094 0.749852
1.000000 0.007679 0.744718
0.025371 0.267393 0.748533
0.284871 0.261005 0.742166
0.575159 0.254450 0.735604
0.860866 0.247819 0.728935
1.000000 0.242699 0.723765
0.007593 0.522566 0.727929
0.264181 0.515936 0.721518
0.553808 0.509117 0.714912
0.841261 0.502201 0.708201
1.000000 0.496850 0.702998
0.000000 0.774035 0.707338
0.243779 0.767729 0.700888
0.532579 0.761227 0.694243
0.821592 0.754617 0.687492
1.000000 0.749492 0.682261
0.000000 1.000000 0.686725
0.223627 0.995460 0.680240
0.511433 0.989847 0.673559
0.801827 0.984123 0.666775
1.000000 0.979673 0.661518
0.042123 0.027487 0.986322
0.304174 0.021938 0.980815
0.594921 0.016260 0.975122
0.878851 0.010534 0.969318
1.000000 0.006126 0.964806
0.023791 0.265573 0.968160
0.283041 0.259189 0.962560
0.573278 0.252639 0.956772
0.859146 0.246012 0.950873
1.000000 0.240895 0.946289
0.006041 0.520679 0.949982
0.262363 0.514048 0.944294
0.551923 0.507229 0.938416
0.839522 0.500313 0.932428
1.000000 0.494962 0.927776
0.000000 0.772242 0.931657
0.241975 0.765931 0.925886
0.530692 0.759424 0.919924
0.819836 0.752810 0.913852
1.000000 0.747681 0.909135
0.000000 0.999345 0.913160
0.221836 0.993909 0.907309
0.509545 0.988287 0.901267
0.800054 0.982555 0.895115
1.000000 0.978098 0.890337
