assets/luts/dust_gold.cube
# Пыльное золото — чердак, коробки, пыль в луче
TITLE "dust_gold"
LUT_3D_SIZE 17
DOMAIN_MIN 0.0 0.0 0.0
DOMAIN_MAX 1.0 1.0 1.0
0.056507 0.050131 0.039483
0.108454 0.051315 0.040661
0.161752 0.052509 0.041850
0.216145 0.053709 0.043045
0.271440 0.054914 0.044245
0.327463 0.056124 0.045449
0.384053 0.057337 0.046657
0.441050 0.058553 0.047868
0.498300 0.059773 0.049082
0.555650 0.060994 0.050298
0.612946 0.062219 0.051517
0.670036 0.063445 0.052738
0.726769 0.064674 0.053962
0.782992 0.065905 0.055187
0.838553 0.067137 0.056414
0.893301 0.068372 0.057644
0.929473 0.069200 0.058469
0.060513 0.104942 0.043460
0.112538 0.106151 0.044641
0.165904 0.107370 0.045831
0.220355 0.108595 0.047028
0.275698 0.109825 0.048230
0.331759 0.111060 0.049436
0.388375 0.112298 0.050646
0.445389 0.113540 0.051859
0.502644 0.114784 0.053075
0.559988 0.116031 0.054294
0.617268 0.117280 0.055515
0.674331 0.118531 0.056738
0.731026 0.119785 0.057963
0.787199 0.121040 0.059191
0.842700 0.122298 0.060420
0.897376 0.123557 0.061651
0.933495 0.124402 0.062478
0.064536 0.160972 0.047455
0.116639 0.162203 0.048638
0.170072 0.163443 0.049830
0.224581 0.164690 0.051029
0.279971 0.165942 0.052233
0.336069 0.167198 0.053442
0.392711 0.168458 0.054653
0.449740 0.169721 0.055868
0.507000 0.170987 0.057086
0.564338 0.172255 0.058307
0.621600 0.173526 0.059530
0.678635 0.174799 0.060755
0.735290 0.176074 0.061982
0.791414 0.177351 0.063212
0.846854 0.178629 0.064443
0.901457 0.179909 0.065676
0.937521 0.180769 0.066504
0.068573 0.218016 0.051464
0.120753 0.219264 0.052649
0.174253 0.220523 0.053843
0.228819 0.221788 0.055044
0.284255 0.223059 0.056250
0.340388 0.224333 0.057460
0.397056 0.225611 0.058674
0.454099 0.226892 0.059891
0.511363 0.228176 0.061111
0.568694 0.229462 0.062334
0.625938 0.230751 0.063559
0.682944 0.232042 0.064786
0.739559 0.233335 0.066015
0.795632 0.234629 0.067246
0.851009 0.235926 0.068480
0.905540 0.237224 0.069715
0.941548 0.238095 0.070544
0.072622 0.275893 0.055485
0.124877 0.277156 0.056672
0.178444 0.278430 0.057868
0.233066 0.279710 0.059071
0.288548 0.280995 0.060279
0.344716 0.282284 0.061491
0.401408 0.283577 0.062707
0.458465 0.284872 0.063926
0.515732 0.286171 0.065148
0.573054 0.287472 0.066372
0.630280 0.288775 0.067599
0.687256 0.290080 0.068828
0.743830 0.291387 0.070059
0.799850 0.292696 0.071293
0.855165 0.294007 0.072528
0.909621 0.295319 0.073765
0.945574 0.296199 0.074595
0.076680 0.334432 0.059516
0.129011 0.335707 0.060705
0.182644 0.336991 0.061903
0.237321 0.338283 0.063108
0.292848 0.339579 0.064318
0.349051 0.340880 0.065532
0.405766 0.342183 0.066750
0.462836 0.343490 0.067971
0.520105 0.344800 0.069195
0.577418 0.346112 0.070421
0.634624 0.347426 0.071650
0.691569 0.348742 0.072881
0.748102 0.350060 0.074114
0.804069 0.351379 0.075349
0.859320 0.352701 0.076587
0.913701 0.354023 0.077825
0.949597 0.354911 0.078657
0.080749 0.393466 0.063558
0.133155 0.394748 0.064748
0.186852 0.396041 0.065949
0.241584 0.397340 0.067155
0.297154 0.398644 0.068367
0.353391 0.399952 0.069583
0.410129 0.401264 0.070803
0.467211 0.402578 0.072026
0.524481 0.403895 0.073252
0.581785 0.405215 0.074480
0.638970 0.406536 0.075711
0.695884 0.407860 0.076944
0.752373 0.409185 0.078179
0.808287 0.410512 0.079416
0.863473 0.411840 0.080655
0.917778 0.413170 0.081896
0.953617 0.414062 0.082729
0.084827 0.452828 0.067609
0.137306 0.454115 0.068801
0.191068 0.455412 0.070003
0.245853 0.456716 0.071212
0.301467 0.458024 0.072426
0.357736 0.459337 0.073644
0.414497 0.460652 0.074865
0.471590 0.461971 0.076090
0.528860 0.463292 0.077318
0.586154 0.464615 0.078548
0.643317 0.465941 0.079781
0.700198 0.467268 0.081016
0.756644 0.468597 0.082253
0.812504 0.469927 0.083492
0.867624 0.471259 0.084733
0.921852 0.472592 0.085975
0.957633 0.473487 0.086809
0.088913 0.512355 0.071669
0.141466 0.513643 0.072863
0.195291 0.514941 0.074067
0.250129 0.516245 0.075278
0.305786 0.517555 0.076493
0.362087 0.518868 0.077713
0.418869 0.520184 0.078937
0.475972 0.521503 0.080163
0.533242 0.522825 0.081393
0.590524 0.524148 0.082625
0.647665 0.525474 0.083860
0.704513 0.526801 0.085096
0.760914 0.528130 0.086335
0.816718 0.529461 0.087576
0.871771 0.530793 0.088819
0.925922 0.532126 0.090064
0.961645 0.533020 0.090899
0.093008 0.571882 0.075737
0.145633 0.573168 0.076934
0.199520 0.574463 0.078139
0.254411 0.575765 0.079352
0.310110 0.577071 0.080569
0.366442 0.578381 0.081791
0.423244 0.579695 0.083017
0.480357 0.581011 0.084245
0.537625 0.582329 0.085477
0.594895 0.583650 0.086711
0.652013 0.584972 0.087947
0.708827 0.586296 0.089186
0.765183 0.587622 0.090426
0.820930 0.588949 0.091669
0.875916 0.590277 0.092914
0.929988 0.591607 0.094160
0.965652 0.592498 0.094997
0.097111 0.631246 0.079814
0.149808 0.632526 0.081012
0.203757 0.633815 0.082220
0.258699 0.635110 0.083434
0.314438 0.636410 0.084654
0.370801 0.637714 0.085877
0.427622 0.639021 0.087105
0.484744 0.640331 0.088335
0.542011 0.641642 0.089568
0.599267 0.642956 0.090804
0.656361 0.644272 0.092043
0.713140 0.645589 0.093283
0.769450 0.646907 0.094526
0.825140 0.648227 0.095770
0.880057 0.649548 0.097017
0.934050 0.650870 0.098265
0.969654 0.651758 0.099103
0.101222 0.690283 0.083900
0.153990 0.691553 0.085099
0.208000 0.692832 0.086309
0.262992 0.694118 0.087525
0.318772 0.695408 0.088746
0.375164 0.696702 0.089972
0.432004 0.697999 0.091201
0.489134 0.699299 0.092433
0.546397 0.700600 0.093668
0.603640 0.701903 0.094906
0.660709 0.703209 0.096146
0.717451 0.704515 0.097388
0.773715 0.705823 0.098633
0.829347 0.707132 0.099879
0.884195 0.708443 0.101128
0.938107 0.709754 0.102378
0.973651 0.710634 0.103217
0.105341 0.748829 0.087993
0.158179 0.750086 0.089194
0.212248 0.751352 0.090406
0.267291 0.752625 0.091624
0.323110 0.753902 0.092847
0.379530 0.755182 0.094074
0.436388 0.756466 0.095305
0.493525 0.757751 0.096539
0.550785 0.759039 0.097776
0.608013 0.760329 0.099015
0.665056 0.761620 0.100257
0.721762 0.762912 0.101502
0.777977 0.764206 0.102748
0.833550 0.765501 0.103996
0.888328 0.766797 0.105246
0.942159 0.768094 0.106498
0.977642 0.768964 0.107338
0.109467 0.806721 0.092093
0.162374 0.807961 0.093297
0.216503 0.809211 0.094510
0.271595 0.810467 0.095730
0.327452 0.811727 0.096955
0.383900 0.812991 0.098184
0.440776 0.814257 0.099417
0.497919 0.815525 0.100653
0.555174 0.816796 0.101891
0.612386 0.818068 0.103133
0.669403 0.819341 0.104376
0.726071 0.820616 0.105622
0.782237 0.821892 0.106870
0.837751 0.823169 0.108120
0.892457 0.824447 0.109372
0.946206 0.825726 0.110626
0.981628 0.826584 0.111467
0.113601 0.863795 0.096202
0.166576 0.865016 0.097407
0.220764 0.866246 0.098622
0.275903 0.867481 0.099844
0.331798 0.868721 0.101070
0.388274 0.869964 0.102301
0.445165 0.871209 0.103536
0.502314 0.872457 0.104773
0.559563 0.873706 0.106014
0.616759 0.874958 0.107257
0.673748 0.876210 0.108503
0.730378 0.877464 0.109750
0.786495 0.878718 0.111000
0.841947 0.879974 0.112252
0.896582 0.881230 0.113505
0.950248 0.882487 0.114761
0.985607 0.883330 0.115604
0.117741 0.919889 0.100318
0.170784 0.921086 0.101525
0.225030 0.922292 0.102741
0.280217 0.923504 0.103965
0.336148 0.924720 0.105193
0.392650 0.925939 0.106426
0.449557 0.927160 0.107662
0.506710 0.928383 0.108902
0.563953 0.929608 0.110144
0.621132 0.930834 0.111389
0.678093 0.932062 0.112636
0.734683 0.933291 0.113886
0.790750 0.934520 0.115137
0.846140 0.935751 0.116391
0.900703 0.936982 0.117646
0.954284 0.938214 0.118903
0.989581 0.939040 0.119747
0.121889 0.974837 0.104441
0.174999 0.976008 0.105650
0.229301 0.977187 0.106868
0.284535 0.978372 0.108093
0.340502 0.979560 0.109323
0.397029 0.980751 0.110558
0.453951 0.981944 0.111796
0.511108 0.983140 0.113037
0.568344 0.984336 0.114281
0.625505 0.985535 0.115528
0.682436 0.986734 0.116777
0.738986 0.987934 0.118028
0.795001 0.989135 0.119281
0.850330 0.990337 0.120536
0.904818 0.991539 0.121793
0.958315 0.992742 0.123052
0.993549 0.993549 0.123897
0.056909 0.050532 0.090140
0.108864 0.051716 0.091343
0.162168 0.052910 0.092555
0.216567 0.054110 0.093774
0.271867 0.055316 0.094998
0.327894 0.056526 0.096226
0.384487 0.057739 0.097458
0.441486 0.058956 0.098693
0.498737 0.060175 0.099931
0.556086 0.061397 0.101171
0.613380 0.062622 0.102414
0.670468 0.063848 0.103659
0.727197 0.065077 0.104907
0.783415 0.066308 0.106156
0.838970 0.067541 0.107407
0.893710 0.068775 0.108660
0.929878 0.069604 0.109500
0.060916 0.105351 0.094198
0.112949 0.106560 0.095402
0.166321 0.107779 0.096616
0.220778 0.109005 0.097837
0.276126 0.110235 0.099063
0.332190 0.111470 0.100293
0.388809 0.112709 0.101526
0.445824 0.113950 0.102763
0.503080 0.115195 0.104003
0.560424 0.116442 0.105245
0.617702 0.117691 0.106490
0.674762 0.118943 0.107736
0.731453 0.120196 0.108985
0.787621 0.121452 0.110236
0.843116 0.122709 0.111489
0.897785 0.123969 0.112744
0.933899 0.124814 0.113586
0.064940 0.161389 0.098272
0.117050 0.162619 0.099479
0.170490 0.163860 0.100694
0.225005 0.165107 0.101917
0.280399 0.166359 0.103145
0.336500 0.167616 0.104376
0.393145 0.168876 0.105612
0.450175 0.170139 0.106850
0.507436 0.171405 0.108092
0.564773 0.172673 0.109336
0.622034 0.173944 0.110582
0.679066 0.175217 0.111831
0.735717 0.176492 0.113081
0.791836 0.177769 0.114334
0.847269 0.179048 0.115588
0.901866 0.180328 0.116845
0.937924 0.181188 0.117688
0.068977 0.218439 0.102360
0.121164 0.219687 0.103568
0.174671 0.220946 0.104786
0.229243 0.222211 0.106010
0.284683 0.223482 0.107239
0.340820 0.224756 0.108473
0.397490 0.226035 0.109710
0.454535 0.227316 0.110950
0.511799 0.228600 0.112193
0.569129 0.229886 0.113439
0.626372 0.231175 0.114687
0.683374 0.232466 0.115938
0.739986 0.233759 0.117190
0.796053 0.235054 0.118444
0.851424 0.236350 0.119701
0.905947 0.237648 0.120959
0.941951 0.238519 0.121803
0.073026 0.276321 0.106459
0.125289 0.277584 0.107669
0.178863 0.278858 0.108888
0.233490 0.280138 0.110114
0.288976 0.281423 0.111345
0.345148 0.282712 0.112580
0.401843 0.284005 0.113819
0.458901 0.285301 0.115061
0.516168 0.286599 0.116306
0.573490 0.287900 0.117554
0.630713 0.289204 0.118804
0.687686 0.290509 0.120056
0.744256 0.291816 0.121310
0.800271 0.293125 0.122566
0.855580 0.294436 0.123824
0.910028 0.295748 0.125083
0.945976 0.296629 0.125929
0.077085 0.334864 0.110568
0.129424 0.336138 0.111780
0.183063 0.337423 0.113001
0.237746 0.338715 0.114228
0.293277 0.340011 0.115461
0.349483 0.341311 0.116698
0.406201 0.342615 0.117939
0.463272 0.343922 0.119182
0.520541 0.345232 0.120429
0.577854 0.346544 0.121678
0.635057 0.347858 0.122930
0.691999 0.349174 0.124183
0.748527 0.350492 0.125439
0.804490 0.351812 0.126697
0.859734 0.353133 0.127957
0.914108 0.354456 0.129218
0.949998 0.355344 0.130065
0.081155 0.393900 0.114687
0.133568 0.395183 0.115900
0.187271 0.396475 0.117122
0.242009 0.397774 0.118352
0.297584 0.399079 0.119586
0.353823 0.400387 0.120825
0.410564 0.401698 0.122067
0.467647 0.403013 0.123312
0.524917 0.404330 0.124561
0.582220 0.405649 0.125812
0.639403 0.406971 0.127065
0.696313 0.408294 0.128320
0.752799 0.409620 0.129578
0.808707 0.410946 0.130837
0.863886 0.412275 0.132098
0.918184 0.413605 0.133362
0.954017 0.414497 0.134209
0.085233 0.453264 0.118814
0.137720 0.454551 0.120028
0.191488 0.455848 0.121253
0.246278 0.457152 0.122484
0.301897 0.458460 0.123720
0.358169 0.459772 0.124960
0.414932 0.461088 0.126204
0.472026 0.462407 0.127451
0.529296 0.463728 0.128701
0.586589 0.465051 0.129954
0.643750 0.466376 0.131209
0.700628 0.467704 0.132466
0.757070 0.469033 0.133725
0.812923 0.470363 0.134986
0.868037 0.471695 0.136249
0.922257 0.473028 0.137513
0.958033 0.473923 0.138362
0.089320 0.512791 0.122949
0.141880 0.514079 0.124165
0.195711 0.515377 0.125391
0.250555 0.516681 0.126624
0.306216 0.517991 0.127862
0.362520 0.519304 0.129104
0.419304 0.520620 0.130349
0.476408 0.521939 0.131598
0.533678 0.523261 0.132850
0.590959 0.524584 0.134104
0.648098 0.525910 0.135360
0.704942 0.527237 0.136619
0.761339 0.528566 0.137880
0.817137 0.529897 0.139143
0.872184 0.531229 0.140407
0.926327 0.532562 0.141673
0.962044 0.533456 0.142523
0.093416 0.572318 0.127092
0.146048 0.573603 0.128310
0.199941 0.574898 0.129538
0.254837 0.576200 0.130772
0.310540 0.577506 0.132011
0.366875 0.578816 0.133255
0.423679 0.580130 0.134502
0.480793 0.581446 0.135753
0.538061 0.582764 0.137006
0.595330 0.584085 0.138262
0.652446 0.585407 0.139520
0.709255 0.586731 0.140780
0.765607 0.588057 0.142043
0.821349 0.589384 0.143307
0.876328 0.590712 0.144573
0.930392 0.592041 0.145841
0.966050 0.592933 0.146692
0.097519 0.631679 0.131243
0.150223 0.632959 0.132462
0.204178 0.634248 0.133692
0.259125 0.635543 0.134928
0.314869 0.636843 0.136169
0.371234 0.638147 0.137414
0.428058 0.639454 0.138663
0.485180 0.640763 0.139915
0.542447 0.642075 0.141170
0.599702 0.643389 0.142427
0.656793 0.644704 0.143687
0.713568 0.646021 0.144949
0.769874 0.647340 0.146213
0.825558 0.648660 0.147479
0.880469 0.649981 0.148747
0.934453 0.651303 0.150016
0.970051 0.652190 0.150868
0.101631 0.690713 0.135401
0.154406 0.691983 0.136622
0.208421 0.693262 0.137853
0.263419 0.694548 0.139091
0.319202 0.695838 0.140333
0.375597 0.697132 0.141580
0.432439 0.698429 0.142831
0.489570 0.699728 0.144084
0.546833 0.701029 0.145341
0.604074 0.702333 0.146600
0.661141 0.703638 0.147861
0.717880 0.704944 0.149125
0.774138 0.706252 0.150390
0.829764 0.707561 0.151658
0.884606 0.708872 0.152927
0.938509 0.710183 0.154198
0.974047 0.711062 0.155051
0.105750 0.749254 0.139566
0.158595 0.750511 0.140789
0.212671 0.751778 0.142022
0.267718 0.753050 0.143261
0.323541 0.754327 0.144505
0.379964 0.755607 0.145753
0.436824 0.756891 0.147005
0.493962 0.758176 0.148261
0.551221 0.759464 0.149519
0.608447 0.760753 0.150779
0.665488 0.762044 0.152042
0.722190 0.763337 0.153307
0.778400 0.764630 0.154574
0.833967 0.765925 0.155844
0.888738 0.767221 0.157114
0.942561 0.768518 0.158387
0.978038 0.769388 0.159241
0.109877 0.807141 0.143739
0.162791 0.808381 0.144963
0.216926 0.809631 0.146197
0.272022 0.810887 0.147438
0.327883 0.812147 0.148684
0.384334 0.813410 0.149934
0.441211 0.814676 0.151187
0.498355 0.815945 0.152444
0.555609 0.817215 0.153704
0.612820 0.818487 0.154966
0.669834 0.819760 0.156230
0.726498 0.821035 0.157497
0.782660 0.822311 0.158766
0.838167 0.823588 0.160036
0.892867 0.824865 0.161309
0.946607 0.826144 0.162583
0.982023 0.827002 0.163438
0.114011 0.864209 0.147918
0.166993 0.865429 0.149144
0.221187 0.866659 0.150379
0.276331 0.867894 0.151621
0.332230 0.869134 0.152869
0.388708 0.870377 0.154120
0.445601 0.871622 0.155376
0.502750 0.872869 0.156634
0.559999 0.874119 0.157895
0.617193 0.875370 0.159159
0.674180 0.876622 0.160425
0.730805 0.877875 0.161693
0.786917 0.879130 0.162963
0.842364 0.880385 0.164235
0.896991 0.881641 0.165509
0.950648 0.882898 0.166785
0.986002 0.883741 0.167641
0.118152 0.920294 0.152104
0.171202 0.921492 0.153331
0.225453 0.922698 0.154568
0.280645 0.923909 0.155812
0.336580 0.925125 0.157061
0.393084 0.926343 0.158314
0.449993 0.927564 0.159571
0.507146 0.928787 0.160830
0.564389 0.930012 0.162093
0.621566 0.931238 0.163358
0.678524 0.932466 0.164626
0.735110 0.933694 0.165895
0.791172 0.934924 0.167167
0.846556 0.936154 0.168441
0.901111 0.937385 0.169716
0.954684 0.938617 0.170994
0.989975 0.939443 0.171851
0.122300 0.975234 0.156296
0.175417 0.976404 0.157525
0.229725 0.977583 0.158763
0.284963 0.978767 0.160009
0.340934 0.979955 0.161259
0.397464 0.981146 0.162514
0.454387 0.982339 0.163772
0.511544 0.983535 0.165033
0.568779 0.984731 0.166297
0.625938 0.985929 0.167564
0.682867 0.987128 0.168833
0.739413 0.988328 0.170104
0.795423 0.989529 0.171378
0.850745 0.990731 0.172653
0.905226 0.991933 0.173930
0.958714 0.993136 0.175208
0.993942 0.993942 0.176066
0.057304 0.050925 0.140757
0.109266 0.052109 0.141980
0.162577 0.053304 0.143213
0.216982 0.054504 0.144452
0.272286 0.055710 0.145697
0.328317 0.056920 0.146946
0.384912 0.058133 0.148199
0.441913 0.059350 0.149454
0.499164 0.060570 0.150713
0.556513 0.061792 0.151974
0.613806 0.063017 0.153237
0.670891 0.064244 0.154503
0.727616 0.065473 0.155770
0.783829 0.066704 0.157040
0.839378 0.067937 0.158311
0.894112 0.069172 0.159584
0.930274 0.070000 0.160439
0.061311 0.105753 0.144883
0.113351 0.106962 0.146108
0.166730 0.108181 0.147343
0.221193 0.109407 0.148584
0.276545 0.110638 0.149830
0.332613 0.111873 0.151080
0.389235 0.113111 0.152334
0.446252 0.114353 0.153592
0.503508 0.115597 0.154852
0.560851 0.116845 0.156114
0.618127 0.118094 0.157379
0.675185 0.119346 0.158646
0.731872 0.120600 0.159915
0.788036 0.121856 0.161186
0.843524 0.123113 0.162459
0.898186 0.124373 0.163734
0.934294 0.125218 0.164589
0.065335 0.161798 0.149027
0.117453 0.163028 0.150253
0.170900 0.164269 0.151489
0.225420 0.165516 0.152732
0.280819 0.166769 0.153979
0.336924 0.168025 0.155231
0.393571 0.169285 0.156487
0.450603 0.170549 0.157746
0.507864 0.171815 0.159007
0.565200 0.173083 0.160271
0.622459 0.174354 0.161538
0.679488 0.175627 0.162806
0.736136 0.176903 0.164077
0.792249 0.178180 0.165349
0.847677 0.179458 0.166624
0.902266 0.180739 0.167900
0.938319 0.181599 0.168756
0.069373 0.218853 0.153182
0.121568 0.220102 0.154410
0.175081 0.221361 0.155647
0.229658 0.222626 0.156892
0.285104 0.223897 0.158141
0.341244 0.225172 0.159394
0.397916 0.226450 0.160652
0.454963 0.227731 0.161912
0.512227 0.229015 0.163175
0.569556 0.230302 0.164440
0.626797 0.231591 0.165708
0.683797 0.232882 0.166978
0.740404 0.234175 0.168251
0.796466 0.235470 0.169525
0.851831 0.236766 0.170800
0.906347 0.238065 0.172078
0.942345 0.238936 0.172935
0.073423 0.276740 0.157348
0.125693 0.278004 0.158577
0.179273 0.279277 0.159817
0.233906 0.280558 0.161062
0.289397 0.281843 0.162313
0.345572 0.283132 0.163568
0.402269 0.284425 0.164827
0.459329 0.285721 0.166088
0.516596 0.287020 0.167353
0.573917 0.288321 0.168620
0.631138 0.289624 0.169889
0.688108 0.290929 0.171161
0.744674 0.292237 0.172434
0.800684 0.293546 0.173710
0.855986 0.294857 0.174987
0.910428 0.296169 0.176266
0.946369 0.297050 0.177125
0.077483 0.335287 0.161524
0.129829 0.336562 0.162754
0.183474 0.337847 0.163995
0.238162 0.339138 0.165242
0.293698 0.340435 0.166494
0.349907 0.341735 0.167751
0.406627 0.343039 0.169011
0.463700 0.344346 0.170274
0.520969 0.345656 0.171540
0.578280 0.346968 0.172809
0.635482 0.348282 0.174079
0.692421 0.349598 0.175352
0.748945 0.350916 0.176628
0.804902 0.352236 0.177905
0.860140 0.353558 0.179183
0.914506 0.354880 0.180464
0.950391 0.355768 0.181323
0.081553 0.394326 0.165708
0.133973 0.395609 0.166940
0.187683 0.396901 0.168182
0.242425 0.398201 0.169430
0.298005 0.399505 0.170684
0.354248 0.400813 0.171942
0.410991 0.402125 0.173204
0.468075 0.403439 0.174468
0.525345 0.404756 0.175736
0.582647 0.406076 0.177006
0.639828 0.407397 0.178278
0.696735 0.408721 0.179552
0.753216 0.410046 0.180829
0.809119 0.411373 0.182107
0.864292 0.412701 0.183388
0.918582 0.414031 0.184669
0.954410 0.414924 0.185530
0.085632 0.453692 0.169899
0.138126 0.454979 0.171133
0.191900 0.456276 0.172377
0.246696 0.457579 0.173627
0.302318 0.458888 0.174882
0.358594 0.460200 0.176141
0.415358 0.461516 0.177404
0.472454 0.462834 0.178670
0.529724 0.464155 0.179939
0.587015 0.465479 0.181210
0.644174 0.466804 0.182484
0.701049 0.468131 0.183760
0.757486 0.469460 0.185038
0.813335 0.470791 0.186318
0.868442 0.472123 0.187599
0.922655 0.473456 0.188883
0.958424 0.474351 0.189744
0.089719 0.513219 0.174099
0.142287 0.514507 0.175334
0.196123 0.515805 0.176579
0.250972 0.517109 0.177830
0.306637 0.518418 0.179087
0.362945 0.519731 0.180348
0.419730 0.521048 0.181612
0.476836 0.522367 0.182880
0.534106 0.523688 0.184150
0.591385 0.525012 0.185423
0.648522 0.526338 0.186698
0.705363 0.527665 0.187975
0.761756 0.528994 0.189254
0.817548 0.530324 0.190536
0.872588 0.531656 0.191819
0.926723 0.532989 0.193103
0.962435 0.533884 0.193966
0.093816 0.572745 0.178306
0.146455 0.574030 0.179542
0.200354 0.575325 0.180788
0.255255 0.576627 0.182041
0.310962 0.577933 0.183299
0.367300 0.579243 0.184561
0.424106 0.580557 0.185827
0.481221 0.581873 0.187096
0.538489 0.583191 0.188368
0.595756 0.584511 0.189642
0.652870 0.585834 0.190918
0.709676 0.587158 0.192197
0.766024 0.588483 0.193478
0.821760 0.589810 0.194760
0.876732 0.591138 0.196045
0.930788 0.592468 0.197331
0.966440 0.593360 0.198194
0.097920 0.632104 0.182519
0.150631 0.633384 0.183757
0.204591 0.634673 0.185004
0.259544 0.635968 0.186259
0.315291 0.637268 0.187518
0.371659 0.638572 0.188782
0.428485 0.639879 0.190049
0.485608 0.641188 0.191319
0.542874 0.642500 0.192592
0.600128 0.643813 0.193868
0.657217 0.645129 0.195146
0.713988 0.646446 0.196426
0.770290 0.647764 0.197708
0.825968 0.649084 0.198992
0.880872 0.650405 0.200278
0.934849 0.651727 0.201565
0.970441 0.652614 0.202429
0.102032 0.691134 0.186739
0.154814 0.692404 0.187978
0.208835 0.693684 0.189227
0.263838 0.694969 0.190483
0.319625 0.696260 0.191744
0.376023 0.697553 0.193009
0.432866 0.698850 0.194277
0.489998 0.700149 0.195549
0.547261 0.701451 0.196823
0.604501 0.702754 0.198100
0.661564 0.704059 0.199380
0.718300 0.705365 0.200661
0.774554 0.706673 0.201944
0.830174 0.707982 0.203230
0.885008 0.709292 0.204517
0.938904 0.710603 0.205806
0.974436 0.711483 0.206670
0.106152 0.749672 0.190966
0.159003 0.750929 0.192206
0.213085 0.752195 0.193457
0.268137 0.753467 0.194714
0.323963 0.754744 0.195976
0.380389 0.756024 0.197242
0.437251 0.757308 0.198512
0.494389 0.758593 0.199785
0.551648 0.759881 0.201061
0.608873 0.761170 0.202339
0.665911 0.762461 0.203620
0.722610 0.763753 0.204902
0.778815 0.765047 0.206187
0.834377 0.766341 0.207474
0.889141 0.767637 0.208762
0.942955 0.768934 0.210052
0.978426 0.769803 0.210918
0.110279 0.807553 0.195198
0.163200 0.808793 0.196440
0.217340 0.810043 0.197692
0.272441 0.811299 0.198950
0.328306 0.812558 0.200214
0.384760 0.813822 0.201481
0.441638 0.815088 0.202753
0.498783 0.816356 0.204027
0.556037 0.817626 0.205304
0.613246 0.818898 0.206584
0.670257 0.820171 0.207866
0.726918 0.821445 0.209150
0.783075 0.822721 0.210436
0.838576 0.823998 0.211724
0.893269 0.825276 0.213013
0.947001 0.826554 0.214305
0.982411 0.827412 0.215171
0.114414 0.864614 0.199437
0.167403 0.865835 0.200680
0.221602 0.867064 0.201933
0.276751 0.868299 0.203193
0.332653 0.869539 0.204458
0.389133 0.870781 0.205727
0.446028 0.872026 0.206999
0.503178 0.873274 0.208275
0.560426 0.874523 0.209553
0.617619 0.875774 0.210834
0.674602 0.877026 0.212117
0.731224 0.878279 0.213403
0.787331 0.879533 0.214690
0.842772 0.880788 0.215979
0.897393 0.882044 0.217270
0.951041 0.883301 0.218563
0.986389 0.884144 0.219430
0.118555 0.920692 0.203682
0.171612 0.921889 0.204926
0.225868 0.923095 0.206181
0.281065 0.924306 0.207442
0.337004 0.925522 0.208708
0.393510 0.926740 0.209978
0.450420 0.927961 0.211252
0.507574 0.929184 0.212529
0.564816 0.930408 0.213808
0.621991 0.931634 0.215091
0.678946 0.932862 0.216375
0.735529 0.934090 0.217662
0.791585 0.935319 0.218950
0.846964 0.936549 0.220241
0.901512 0.937780 0.221533
0.955076 0.939011 0.222827
0.990361 0.939837 0.223695
0.122704 0.975623 0.207932
0.175827 0.976793 0.209178
0.230141 0.977972 0.210433
0.285383 0.979156 0.211696
0.341358 0.980343 0.212963
0.397890 0.981534 0.214235
0.454814 0.982727 0.215510
0.511972 0.983922 0.216788
0.569206 0.985118 0.218069
0.626363 0.986316 0.219352
0.683289 0.987515 0.220638
0.739831 0.988715 0.221926
0.795836 0.989915 0.223216
0.851152 0.991117 0.224508
0.905626 0.992319 0.225801
0.959106 0.993521 0.227096
0.994328 0.994328 0.227965
0.057693 0.051314 0.191580
0.109664 0.052498 0.192820
0.162981 0.053693 0.194071
0.217392 0.054894 0.195328
0.272701 0.056100 0.196590
0.328735 0.057310 0.197857
0.385333 0.058523 0.199127
0.442335 0.059740 0.200400
0.499587 0.060960 0.201676
0.556935 0.062183 0.202955
0.614227 0.063407 0.204235
0.671309 0.064635 0.205518
0.728030 0.065864 0.206803
0.784239 0.067095 0.208090
0.839782 0.068328 0.209379
0.894509 0.069563 0.210669
0.930665 0.070392 0.211535
