assets/luts/dust_gold.cube
# Пыльное золото — чердак, коробки, пыль в луче
TITLE "dust_gold"
LUT_3D_SIZE 9
DOMAIN_MIN 0.0 0.0 0.0
DOMAIN_MAX 1.0 1.0 1.0
0.056507 0.050131 0.039483
0.161752 0.052509 0.041850
0.271440 0.054914 0.044245
0.384053 0.057337 0.046657
0.498300 0.059773 0.049082
0.612946 0.062219 0.051517
0.726769 0.064674 0.053962
0.838553 0.067137 0.056414
0.929473 0.069200 0.058469
0.064536 0.160972 0.047455
0.170072 0.163443 0.049830
0.279971 0.165942 0.052233
0.392711 0.168458 0.054653
0.507000 0.170987 0.057086
0.621600 0.173526 0.059530
0.735290 0.176074 0.061982
0.846854 0.178629 0.064443
0.937521 0.180769 0.066504
0.072622 0.275893 0.055485
0.178444 0.278430 0.057868
0.288548 0.280995 0.060279
0.401408 0.283577 0.062707
0.515732 0.286171 0.065148
0.630280 0.288775 0.067599
0.743830 0.291387 0.070059
0.855165 0.294007 0.072528
0.945574 0.296199 0.074595
0.080749 0.393466 0.063558
0.186852 0.396041 0.065949
0.297154 0.398644 0.068367
0.410129 0.401264 0.070803
0.524481 0.403895 0.073252
0.638970 0.406536 0.075711
0.752373 0.409185 0.078179
0.863473 0.411840 0.080655
0.953617 0.414062 0.082729
0.088913 0.512355 0.071669
0.195291 0.514941 0.074067
0.305786 0.517555 0.076493
0.418869 0.520184 0.078937
0.533242 0.522825 0.081393
0.647665 0.525474 0.083860
0.760914 0.528130 0.086335
0.871771 0.530793 0.088819
0.961645 0.533020 0.090899
0.097111 0.631246 0.079814
0.203757 0.633815 0.082220
0.314438 0.636410 0.084654
0.427622 0.639021 0.087105
0.542011 0.641642 0.089568
0.656361 0.644272 0.092043
0.769450 0.646907 0.094526
0.880057 0.649548 0.097017
0.969654 0.651758 0.099103
0.105341 0.748829 0.087993
0.212248 0.751352 0.090406
0.323110 0.753902 0.092847
0.436388 0.756466 0.095305
0.550785 0.759039 0.097776
0.665056 0.761620 0.100257
0.777977 0.764206 0.102748
0.888328 0.766797 0.105246
0.977642 0.768964 0.107338
0.113601 0.863795 0.096202
0.220764 0.866246 0.098622
0.331798 0.868721 0.101070
0.445165 0.871209 0.103536
0.559563 0.873706 0.106014
0.673748 0.876210 0.108503
0.786495 0.878718 0.111000
0.896582 0.881230 0.113505
0.985607 0.883330 0.115604
0.121889 0.974837 0.104441
0.229301 0.977187 0.106868
0.340502 0.979560 0.109323
0.453951 0.981944 0.111796
0.568344 0.984336 0.114281
0.682436 0.986734 0.116777
0.795001 0.989135 0.119281
0.904818 0.991539 0.121793
0.993549 0.993549 0.123897
0.057304 0.050925 0.140757
0.162577 0.053304 0.143213
0.272286 0.055710 0.145697
0.384912 0.058133 0.148199
0.499164 0.060570 0.150713
0.613806 0.063017 0.153237
0.727616 0.065473 0.155770
0.839378 0.067937 0.158311
0.930274 0.070000 0.160439
0.065335 0.161798 0.149027
0.170900 0.164269 0.151489
0.280819 0.166769 0.153979
0.393571 0.169285 0.156487
0.507864 0.171815 0.159007
0.622459 0.174354 0.161538
0.736136 0.176903 0.164077
0.847677 0.179458 0.166624
0.938319 0.181599 0.168756
0.073423 0.276740 0.157348
0.179273 0.279277 0.159817
0.289397 0.281843 0.162313
0.402269 0.284425 0.164827
0.516596 0.287020 0.167353
0.631138 0.289624 0.169889
0.744674 0.292237 0.172434
0.855986 0.294857 0.174987
0.946369 0.297050 0.177125
0.081553 0.394326 0.165708
0.187683 0.396901 0.168182
0.298005 0.399505 0.170684
0.410991 0.402125 0.173204
0.525345 0.404756 0.175736
0.639828 0.407397 0.178278
0.753216 0.410046 0.180829
0.864292 0.412701 0.183388
0.954410 0.414924 0.185530
0.089719 0.513219 0.174099
0.196123 0.515805 0.176579
0.306637 0.518418 0.179087
0.419730 0.521048 0.181612
0.534106 0.523688 0.184150
0.648522 0.526338 0.186698
0.761756 0.528994 0.189254
0.872588 0.531656 0.191819
0.962435 0.533884 0.193966
0.097920 0.632104 0.182519
0.204591 0.634673 0.185004
0.315291 0.637268 0.187518
0.428485 0.639879 0.190049
0.542874 0.642500 0.192592
0.657217 0.645129 0.195146
0.770290 0.647764 0.197708
0.880872 0.650405 0.200278
0.970441 0.652614 0.202429
0.106152 0.749672 0.190966
0.213085 0.752195 0.193457
0.323963 0.754744 0.195976
0.437251 0.757308 0.198512
0.551648 0.759881 0.201061
0.665911 0.762461 0.203620
0.778815 0.765047 0.206187
0.889141 0.767637 0.208762
0.978426 0.769803 0.210918
0.114414 0.864614 0.199437
0.221602 0.867064 0.201933
0.332653 0.869539 0.204458
0.446028 0.872026 0.206999
0.560426 0.874523 0.209553
0.674602 0.877026 0.212117
0.787331 0.879533 0.214690
0.897393 0.882044 0.217270
0.986389 0.884144 0.219430
0.122704 0.975623 0.207932
0.230141 0.977972 0.210433
0.341358 0.980343 0.212963
0.454814 0.982727 0.215510
0.569206 0.985118 0.218069
0.683289 0.987515 0.220638
0.795836 0.989915 0.223216
0.905626 0.992319 0.225801
0.994328 0.994328 0.227965
0.058080 0.051699 0.242643
0.163382 0.054079 0.245164
0.273112 0.056486 0.247713
0.385750 0.058910 0.250279
0.500007 0.061347 0.252857
0.614644 0.063795 0.255445
0.728441 0.066252 0.258042
0.840183 0.068717 0.260646
0.931054 0.070781 0.262826
0.066114 0.162602 0.251128
0.171707 0.165074 0.253653
0.281646 0.167575 0.256206
0.394410 0.170092 0.258777
0.508706 0.172622 0.261359
0.623297 0.175162 0.263952
0.736960 0.177711 0.266553
0.848479 0.180267 0.269161
0.939097 0.182408 0.271344
0.074204 0.277566 0.259659
0.180082 0.280104 0.262189
0.290225 0.282670 0.264746
0.403108 0.285252 0.267320
0.517438 0.287847 0.269907
0.631975 0.290452 0.272504
0.745497 0.293065 0.275109
0.856787 0.295685 0.277721
0.947144 0.297879 0.279908
0.082337 0.395165 0.268223
0.188493 0.397740 0.270756
0.298834 0.400344 0.273317
0.411830 0.402964 0.275896
0.526187 0.405596 0.278487
0.640664 0.408237 0.281087
0.754037 0.410886 0.283696
0.865090 0.413541 0.286312
0.955182 0.415764 0.288502
0.090506 0.514061 0.276812
0.196936 0.516647 0.279349
0.307468 0.519261 0.281915
0.420571 0.521890 0.284497
0.534947 0.524530 0.287092
0.649357 0.527180 0.289696
0.762576 0.529836 0.292309
0.873385 0.532498 0.294929
0.963204 0.534726 0.297122
0.098708 0.632941 0.285424
0.205405 0.635509 0.287965
0.316122 0.638104 0.290534
0.429325 0.640715 0.293121
0.543716 0.643335 0.295719
0.658051 0.645964 0.298327
0.771108 0.648599 0.300943
0.881666 0.651240 0.303567
0.971208 0.653449 0.305763
0.106943 0.750494 0.294057
0.213900 0.753017 0.296602
0.324796 0.755565 0.299175
0.438092 0.758128 0.301764
0.552490 0.760701 0.304366
0.666745 0.763281 0.306978
0.779632 0.765866 0.309597
0.889933 0.768456 0.312224
0.979191 0.770622 0.314423
0.115207 0.865412 0.302709
0.222419 0.867862 0.305257
0.333486 0.870336 0.307833
0.446870 0.872823 0.310426
0.561267 0.875319 0.313031
0.675435 0.877821 0.315646
0.788147 0.880328 0.318270
0.898182 0.882838 0.320900
0.987151 0.884937 0.323101
0.123499 0.976388 0.311378
0.230959 0.978736 0.313929
0.342192 0.981107 0.316509
0.455656 0.983490 0.319105
0.570047 0.985880 0.321714
0.684121 0.988276 0.324332
0.796650 0.990676 0.326958
0.906414 0.993078 0.329591
0.995086 0.995086 0.331796
0.058847 0.052464 0.345348
0.164177 0.054844 0.347911
0.273927 0.057252 0.350502
0.386577 0.059677 0.353110
0.500838 0.062115 0.355729
0.615471 0.064563 0.358359
0.729256 0.067021 0.360996
0.840976 0.069486 0.363640
0.931823 0.071551 0.365853
0.066883 0.163397 0.353972
0.172503 0.165869 0.356538
0.282462 0.168370 0.359131
0.395238 0.170888 0.361742
0.509537 0.173418 0.364364
0.624123 0.175959 0.366996
0.737773 0.178508 0.369635
0.849271 0.181065 0.372282
0.939864 0.183206 0.374497
0.074976 0.278382 0.362638
0.180880 0.280920 0.365206
0.291042 0.283486 0.367802
0.403936 0.286069 0.370414
0.518269 0.288664 0.373039
0.632801 0.291269 0.375673
0.746309 0.293883 0.378315
0.857576 0.296503 0.380963
0.947909 0.298697 0.383180
0.083110 0.395992 0.371330
0.189293 0.398568 0.373900
0.299652 0.401172 0.376498
0.412659 0.403792 0.379113
0.527018 0.406424 0.381740
0.641489 0.409066 0.384376
0.754848 0.411715 0.387020
0.865878 0.414370 0.389670
0.955944 0.416593 0.391889
0.091282 0.514892 0.380042
0.197737 0.517478 0.382614
0.308287 0.520092 0.385214
0.421400 0.522721 0.387831
0.535778 0.525361 0.390460
0.650181 0.528011 0.393098
0.763385 0.530667 0.395744
0.874170 0.533329 0.398397
0.963964 0.535557 0.400617
0.099487 0.633766 0.388771
0.206209 0.636335 0.391345
0.316943 0.638929 0.393947
0.430155 0.641539 0.396566
0.544546 0.644160 0.399197
0.658875 0.646789 0.401836
0.771916 0.649423 0.404484
0.882450 0.652064 0.407138
0.971965 0.654272 0.409360
0.107723 0.751305 0.397514
0.214705 0.753827 0.400090
0.325617 0.756376 0.402694
0.438922 0.758938 0.405315
0.553320 0.761510 0.407947
0.667567 0.764090 0.410589
0.780438 0.766674 0.413238
0.890714 0.769264 0.415894
0.979945 0.771430 0.418117
0.115990 0.866200 0.406270
0.223225 0.868649 0.408848
0.334309 0.871122 0.411454
0.447700 0.873609 0.414076
0.562097 0.876104 0.416710
0.676256 0.878605 0.419353
0.788951 0.881111 0.422004
0.898961 0.883621 0.424661
0.987902 0.885720 0.426885
0.124284 0.977143 0.415038
0.231767 0.979491 0.417617
0.343016 0.981861 0.420224
0.456486 0.984243 0.422848
0.570877 0.986632 0.425483
0.684941 0.989027 0.428128
0.797453 0.991426 0.430780
0.907190 0.993827 0.433439
0.995835 0.995835 0.435663
0.059606 0.053222 0.448385
0.164964 0.055603 0.450969
0.274734 0.058011 0.453580
0.387397 0.060437 0.456208
0.501661 0.062876 0.458847
0.616290 0.065325 0.461495
0.730063 0.067783 0.464151
0.841762 0.070249 0.466813
0.932586 0.072315 0.469041
0.067645 0.164184 0.457077
0.173292 0.166657 0.459662
0.283271 0.169158 0.462274
0.396058 0.171677 0.464902
0.510361 0.174208 0.467542
0.624942 0.176749 0.470191
0.738579 0.179299 0.472847
0.850055 0.181857 0.475510
0.940624 0.183998 0.477738
0.075740 0.279190 0.465805
0.181671 0.281728 0.468390
0.291852 0.284295 0.471002
0.404757 0.286878 0.473631
0.519093 0.289474 0.476272
0.633619 0.292079 0.478921
0.747113 0.294693 0.481578
0.858358 0.297314 0.484241
0.948666 0.299508 0.486469
0.083877 0.396813 0.474552
0.190086 0.399389 0.477138
0.300463 0.401993 0.479751
0.413480 0.404613 0.482380
0.527841 0.407245 0.485021
0.642306 0.409887 0.487671
0.755651 0.412536 0.490328
0.866658 0.415192 0.492991
0.956699 0.417414 0.495220
0.092051 0.515716 0.483314
0.198532 0.518302 0.485900
0.309099 0.520915 0.488514
0.422222 0.523544 0.491143
0.536601 0.526185 0.493784
0.650998 0.528834 0.496434
0.764186 0.531490 0.499091
0.874948 0.534152 0.501755
0.964716 0.536380 0.503983
0.100258 0.634584 0.492087
0.207005 0.637152 0.494673
0.317756 0.639747 0.497287
0.430977 0.642357 0.499917
0.545369 0.644977 0.502558
0.659690 0.647605 0.505208
0.772716 0.650240 0.507865
0.883226 0.652880 0.510528
0.972715 0.655088 0.512756
0.108497 0.752108 0.500869
0.215503 0.754631 0.503455
0.326431 0.757178 0.506069
0.439745 0.759740 0.508698
0.554143 0.762312 0.511339
0.668382 0.764891 0.513989
0.781237 0.767475 0.516646
0.891488 0.770064 0.519309
0.980692 0.772230 0.521537
0.116765 0.866980 0.509657
0.224024 0.869428 0.512243
0.335124 0.871901 0.514857
0.448523 0.874387 0.517486
0.562920 0.876881 0.520127
0.677070 0.879382 0.522776
0.789748 0.881888 0.525433
0.899733 0.884397 0.528095
0.988646 0.886495 0.530323
0.125062 0.977891 0.518451
0.232568 0.980238 0.521036
0.343832 0.982607 0.523650
0.457310 0.984988 0.526279
0.571699 0.987377 0.528919
0.685754 0.989771 0.531568
0.798248 0.992169 0.534224
0.907960 0.994570 0.536886
0.996576 0.996576 0.539113
0.060361 0.053974 0.551121
0.165746 0.056356 0.553705
0.275536 0.058765 0.556315
0.388211 0.061192 0.558942
0.502479 0.063631 0.561579
0.617104 0.066081 0.564225
0.730864 0.068540 0.566878
0.842543 0.071007 0.569537
0.933343 0.073073 0.571761
0.068402 0.164966 0.559811
0.174076 0.167440 0.562393
0.284074 0.169941 0.565003
0.396872 0.172460 0.567628
0.511179 0.174992 0.570264
0.625755 0.177534 0.572909
0.739379 0.180084 0.575561
0.850834 0.182642 0.578218
0.941378 0.184784 0.580441
0.076500 0.279993 0.568529
0.182457 0.282531 0.571111
0.292656 0.285098 0.573719
0.405572 0.287682 0.576343
0.519910 0.290278 0.578978
0.634431 0.292884 0.581622
0.747912 0.295498 0.584272
0.859135 0.298119 0.586928
0.949418 0.300313 0.589150
0.084639 0.397627 0.577262
0.190874 0.400203 0.579842
0.301269 0.402807 0.582450
0.414296 0.405428 0.585072
0.528659 0.408060 0.587706
0.643117 0.410702 0.590348
0.756448 0.413351 0.592997
0.867433 0.416007 0.595651
0.957448 0.418230 0.597871
0.092815 0.516534 0.586004
0.199321 0.519120 0.588582
0.309906 0.521733 0.591188
0.423038 0.524362 0.593809
0.537419 0.527002 0.596441
0.651808 0.529652 0.599082
0.764982 0.532308 0.601729
0.875721 0.534970 0.604381
0.965463 0.537197 0.606600
0.101025 0.635397 0.594750
0.207796 0.637964 0.597327
0.318564 0.640559 0.599931
0.431793 0.643168 0.602551
0.546187 0.645788 0.605181
0.660500 0.648416 0.607819
0.773510 0.651051 0.610464
0.883996 0.653691 0.613115
0.973459 0.655899 0.615333
0.109266 0.752906 0.603499
0.216295 0.755428 0.606074
0.327240 0.757975 0.608676
0.440561 0.760537 0.611294
0.554960 0.763108 0.613922
0.669191 0.765687 0.616559
0.782030 0.768271 0.619202
0.892256 0.770859 0.621851
0.981433 0.773024 0.624066
0.117536 0.867755 0.612248
0.224818 0.870202 0.614822
0.335933 0.872674 0.617422
0.449340 0.875160 0.620038
0.563736 0.877654 0.622664
0.677878 0.880154 0.625298
0.790539 0.882659 0.627939
0.900499 0.885167 0.630586
0.989385 0.887265 0.632800
0.125835 0.978633 0.620997
0.233363 0.980979 0.623569
0.344642 0.983348 0.626167
0.458127 0.985728 0.628780
0.572515 0.988116 0.631404
0.686561 0.990509 0.634036
0.799037 0.992906 0.636675
0.908724 0.995306 0.639319
0.997312 0.997312 0.641531
0.061112 0.054723 0.652874
0.166524 0.057105 0.655436
0.276334 0.059516 0.658026
0.389020 0.061943 0.660630
0.503293 0.064383 0.663245
0.617913 0.066834 0.665867
0.731661 0.069293 0.668496
0.843319 0.071761 0.671130
0.934095 0.073828 0.673333
0.069155 0.165744 0.661491
0.174856 0.168218 0.664051
0.284873 0.170720 0.666638
0.397682 0.173240 0.669239
0.511992 0.175772 0.671851
0.626563 0.178314 0.674470
0.740174 0.180865 0.677096
0.851608 0.183424 0.679727
0.942128 0.185566 0.681928
0.077255 0.280791 0.670132
0.183238 0.283330 0.672689
0.293456 0.285897 0.675273
0.406383 0.288481 0.677871
0.520723 0.291078 0.680480
0.635239 0.293684 0.683096
0.748706 0.296298 0.685719
0.859907 0.298920 0.688346
0.950166 0.301114 0.690544
0.085397 0.398437 0.678781
0.191657 0.401014 0.681335
0.302070 0.403618 0.683916
0.415107 0.406239 0.686511
0.529472 0.408871 0.689116
0.643924 0.411513 0.691729
0.757241 0.414162 0.694349
0.868203 0.416818 0.696973
0.958193 0.419041 0.699168
0.093575 0.517347 0.687432
0.200106 0.519933 0.689983
0.310708 0.522546 0.692560
0.423849 0.525175 0.695152
0.538232 0.527816 0.697754
0.652614 0.530465 0.700364
0.765773 0.533121 0.702980
0.876489 0.535783 0.705601
0.966205 0.538010 0.707793
0.101787 0.636204 0.696082
0.208582 0.638772 0.698630
0.319367 0.641366 0.701204
0.432605 0.643975 0.703792
0.546999 0.646595 0.706391
0.661305 0.649223 0.708997
0.774300 0.651857 0.711609
0.884762 0.654497 0.714226
0.974198 0.656704 0.716415
0.110030 0.753699 0.704729
0.217083 0.756221 0.707273
0.328044 0.758768 0.709843
0.441374 0.761329 0.712428
0.555772 0.763900 0.715023
0.669995 0.766478 0.717625
0.782818 0.769061 0.720233
0.893020 0.771649 0.722847
0.982170 0.773814 0.725032
0.118303 0.868525 0.713370
0.225608 0.870972 0.715911
0.336738 0.873443 0.718477
0.450152 0.875928 0.721058
0.564548 0.878421 0.723649
0.678682 0.880921 0.726247
0.791326 0.883425 0.728852
0.901261 0.885933 0.731461
0.990119 0.888030 0.733643
0.126604 0.979371 0.722005
0.234155 0.981717 0.724541
0.345448 0.984084 0.727104
0.458940 0.986464 0.729681
0.573327 0.988851 0.732268
0.687363 0.991243 0.734862
0.799822 0.993640 0.737462
0.909483 0.996039 0.740067
0.998044 0.998044 0.742246
0.061859 0.055469 0.752940
0.167299 0.057852 0.755462
0.277128 0.060262 0.758009
0.389826 0.062690 0.760571
0.504102 0.065131 0.763142
0.618718 0.067583 0.765720
0.732453 0.070043 0.768304
0.844091 0.072511 0.770893
0.934843 0.074579 0.773058
0.069905 0.166518 0.761418
0.175632 0.168993 0.763935
0.285668 0.171496 0.766478
0.398489 0.174016 0.769035
0.512801 0.176548 0.771601
0.627368 0.179091 0.774175
0.740965 0.181643 0.776754
0.852378 0.184202 0.779338
0.942874 0.186344 0.781499
0.078007 0.281586 0.769912
0.184016 0.284125 0.772425
0.294253 0.286692 0.774963
0.407190 0.289277 0.777515
0.521533 0.291874 0.780077
0.636042 0.294480 0.782646
0.749496 0.297095 0.785220
0.860675 0.299717 0.787799
0.950909 0.301911 0.789955
0.086151 0.399244 0.778409
0.192436 0.401820 0.780917
0.302867 0.404424 0.783450
0.415914 0.407045 0.785997
0.530281 0.409678 0.788554
0.644727 0.412320 0.791118
0.758029 0.414969 0.793687
0.868969 0.417626 0.796260
0.958935 0.419849 0.798413
0.094332 0.518156 0.786902
0.200887 0.520742 0.789405
0.311506 0.523355 0.791933
0.424657 0.525984 0.794475
0.539041 0.528625 0.797027
0.653417 0.531274 0.799585
0.766560 0.533930 0.802149
0.877253 0.536592 0.804717
0.966944 0.538819 0.806865
0.102546 0.637008 0.795387
0.209365 0.639575 0.797885
0.320166 0.642169 0.800408
0.433413 0.644778 0.802945
0.547808 0.647398 0.805491
0.662107 0.650025 0.808044
0.775085 0.652659 0.810603
0.885524 0.655299 0.813165
0.974934 0.657506 0.815308
0.110791 0.754489 0.803863
0.217868 0.757010 0.806356
0.328844 0.759556 0.808873
0.442182 0.762117 0.811405
0.556580 0.764687 0.813946
0.670796 0.767265 0.816493
0.783602 0.769848 0.819046
0.893780 0.772436 0.821603
0.982904 0.774600 0.823741
0.119066 0.869291 0.812327
0.226394 0.871737 0.814815
0.337539 0.874208 0.817327
0.450961 0.876692 0.819853
0.565356 0.879185 0.822388
0.679481 0.881684 0.824930
0.792109 0.884187 0.827477
0.902018 0.886695 0.830028
0.990850 0.888791 0.832161
0.127369 0.980106 0.820779
0.234942 0.982450 0.823261
0.346250 0.984817 0.825767
0.459748 0.987196 0.828287
0.574134 0.989582 0.830817
0.688162 0.991973 0.833353
0.800604 0.994369 0.835894
0.910238 0.996767 0.838439
0.998772 0.998772 0.840567
0.062604 0.056211 0.850611
0.168070 0.058595 0.853072
0.277918 0.061006 0.855557
0.390628 0.063435 0.858056
0.504908 0.065877 0.860563
0.619520 0.068329 0.863077
0.733243 0.070790 0.865596
0.844860 0.073259 0.868118
0.935589 0.075327 0.870228
0.070652 0.167289 0.858882
0.176405 0.169764 0.861336
0.286460 0.172268 0.863815
0.399291 0.174788 0.866308
0.513607 0.177322 0.868809
0.628169 0.179865 0.871316
0.741754 0.182417 0.873828
0.853145 0.184977 0.876344
0.943617 0.187120 0.878448
0.078756 0.282377 0.867163
0.184791 0.284917 0.869611
0.295046 0.287484 0.872084
0.407993 0.290069 0.874569
0.522339 0.292666 0.877064
0.636843 0.295273 0.879564
0.750283 0.297888 0.882070
0.861440 0.300510 0.884579
0.951650 0.302705 0.886677
0.086903 0.400047 0.875440
0.193213 0.402623 0.877881
0.303661 0.405228 0.880347
0.416718 0.407849 0.882826
0.531087 0.410482 0.885314
0.645527 0.413124 0.887808
0.758815 0.415773 0.890306
0.869732 0.418430 0.892808
0.959672 0.420653 0.894900
0.095085 0.518962 0.883706
0.201665 0.521548 0.886141
0.312301 0.524161 0.888600
0.425461 0.526790 0.891072
0.539846 0.529431 0.893553
0.654215 0.532079 0.896040
0.767344 0.534736 0.898531
0.878014 0.537397 0.901026
0.967679 0.539625 0.903112
0.103301 0.637808 0.891959
0.210145 0.640375 0.894388
0.320962 0.642969 0.896840
0.434218 0.645578 0.899305
0.548613 0.648197 0.901778
0.662905 0.650824 0.904258
0.775868 0.653458 0.906742
0.886283 0.656097 0.909230
0.975667 0.658305 0.911310
0.111549 0.755275 0.900197
0.218649 0.757795 0.902618
0.329641 0.760341 0.905063
0.442987 0.762902 0.907521
0.557385 0.765471 0.909987
0.671593 0.768049 0.912460
0.784383 0.770631 0.914936
0.894536 0.773219 0.917417
0.983634 0.775382 0.919490
0.119826 0.870054 0.908417
0.227177 0.872500 0.910831
0.338337 0.874970 0.913269
0.451766 0.877453 0.915719
0.566161 0.879945 0.918178
0.680277 0.882443 0.920643
0.792888 0.884947 0.923112
0.902773 0.887453 0.925585
0.991577 0.889549 0.927652
0.128131 0.980837 0.916618
0.235726 0.983180 0.919024
0.347049 0.985546 0.921455
0.460554 0.987924 0.923898
0.574939 0.990310 0.926349
0.688957 0.992700 0.928806
0.801381 0.995095 0.931268
0.910991 0.997492 0.933733
0.999496 0.999496 0.935793
