assets/luts/dust_gold.cube
# Пыльное золото — чердак, коробки, пыль в луче
TITLE "dust_gold"
LUT_3D_SIZE 5
DOMAIN_MIN 0.0 0.0 0.0
DOMAIN_MAX 1.0 1.0 1.0
0.056507 0.050131 0.039483
0.271440 0.054914 0.044245
0.498300 0.059773 0.049082
0.726769 0.064674 0.053962
0.929473 0.069200 0.058469
0.072622 0.275893 0.055485
0.288548 0.280995 0.060279
0.515732 0.286171 0.065148
0.743830 0.291387 0.070059
0.945574 0.296199 0.074595
0.088913 0.512355 0.071669
0.305786 0.517555 0.076493
0.533242 0.522825 0.081393
0.760914 0.528130 0.086335
0.961645 0.533020 0.090899
0.105341 0.748829 0.087993
0.323110 0.753902 0.092847
0.550785 0.759039 0.097776
0.777977 0.764206 0.102748
0.977642 0.768964 0.107338
0.121889 0.974837 0.104441
0.340502 0.979560 0.109323
0.568344 0.984336 0.114281
0.795001 0.989135 0.119281
0.993549 0.993549 0.123897
0.058080 0.051699 0.242643
0.273112 0.056486 0.247713
0.500007 0.061347 0.252857
0.728441 0.066252 0.258042
0.931054 0.070781 0.262826
0.074204 0.277566 0.259659
0.290225 0.282670 0.264746
0.517438 0.287847 0.269907
0.745497 0.293065 0.275109
0.947144 0.297879 0.279908
0.090506 0.514061 0.276812
0.307468 0.519261 0.281915
0.534947 0.524530 0.287092
0.762576 0.529836 0.292309
0.963204 0.534726 0.297122
0.106943 0.750494 0.294057
0.324796 0.755565 0.299175
0.552490 0.760701 0.304366
0.779632 0.765866 0.309597
0.979191 0.770622 0.314423
0.123499 0.976388 0.311378
0.342192 0.981107 0.316509
0.570047 0.985880 0.321714
0.796650 0.990676 0.326958
0.995086 0.995086 0.331796
0.059606 0.053222 0.448385
0.274734 0.058011 0.453580
0.501661 0.062876 0.458847
0.730063 0.067783 0.464151
0.932586 0.072315 0.469041
0.075740 0.279190 0.465805
0.291852 0.284295 0.471002
0.519093 0.289474 0.476272
0.747113 0.294693 0.481578
0.948666 0.299508 0.486469
0.092051 0.515716 0.483314
0.309099 0.520915 0.488514
0.536601 0.526185 0.493784
0.764186 0.531490 0.499091
0.964716 0.536380 0.503983
0.108497 0.752108 0.500869
0.326431 0.757178 0.506069
0.554143 0.762312 0.511339
0.781237 0.767475 0.516646
0.980692 0.772230 0.521537
0.125062 0.977891 0.518451
0.343832 0.982607 0.523650
0.571699 0.987377 0.528919
0.798248 0.992169 0.534224
0.996576 0.996576 0.539113
0.061112 0.054723 0.652874
0.276334 0.059516 0.658026
0.503293 0.064383 0.663245
0.731661 0.069293 0.668496
0.934095 0.073828 0.673333
0.077255 0.280791 0.670132
0.293456 0.285897 0.675273
0.520723 0.291078 0.680480
0.748706 0.296298 0.685719
0.950166 0.301114 0.690544
0.093575 0.517347 0.687432
0.310708 0.522546 0.692560
0.538232 0.527816 0.697754
0.765773 0.533121 0.702980
0.966205 0.538010 0.707793
0.110030 0.753699 0.704729
0.328044 0.758768 0.709843
0.555772 0.763900 0.715023
0.782818 0.769061 0.720233
0.982170 0.773814 0.725032
0.126604 0.979371 0.722005
0.345448 0.984084 0.727104
0.573327 0.988851 0.732268
0.799822 0.993640 0.737462
0.998044 0.998044 0.742246
0.062604 0.056211 0.850611
0.277918 0.061006 0.855557
0.504908 0.065877 0.860563
0.733243 0.070790 0.865596
0.935589 0.075327 0.870228
0.078756 0.282377 0.867163
0.295046 0.287484 0.872084
0.522339 0.292666 0.877064
0.750283 0.297888 0.882070
0.951650 0.302705 0.886677
0.095085 0.518962 0.883706
0.312301 0.524161 0.888600
0.539846 0.529431 0.893553
0.767344 0.534736 0.898531
0.967679 0.539625 0.903112
0.111549 0.755275 0.900197
0.329641 0.760341 0.905063
0.557385 0.765471 0.909987
0.784383 0.770631 0.914936
0.983634 0.775382 0.919490
0.128131 0.980837 0.916618
0.347049 0.985546 0.921455
0.574939 0.990310 0.926349
0.801381 0.995095 0.931268
0.999496 0.999496 0.935793
