assets/luts/lamp_glow.cube
# Ламповый свет — лавка древностей после заката
TITLE "lamp_glow"
LUT_3D_SIZE 9
DOMAIN_MIN 0.0 0.0 0.0
DOMAIN_MAX 1.0 1.0 1.0
0.050297 0.035897 0.023248
0.168865 0.034975 0.022339
0.299170 0.034031 0.021407
0.436716 0.033075 0.020462
0.577367 0.032109 0.019508
0.716985 0.031136 0.018548
0.851373 0.030159 0.017583
0.976265 0.029176 0.016613
1.000000 0.028756 0.016198
0.047223 0.148353 0.020254
0.165518 0.147348 0.019347
0.295636 0.146319 0.018418
0.433087 0.145275 0.017476
0.573742 0.144221 0.016525
0.713464 0.143159 0.015568
0.848058 0.142091 0.014606
0.973260 0.141018 0.013639
1.000000 0.140559 0.013226
0.044171 0.268521 0.017281
0.162191 0.267458 0.016377
0.292119 0.266369 0.015451
0.429475 0.265264 0.014512
0.570131 0.264148 0.013564
0.709954 0.263024 0.012610
0.844751 0.261894 0.011651
0.970258 0.260757 0.010687
1.000000 0.260270 0.010275
0.041134 0.393685 0.014324
0.158878 0.392590 0.013423
0.288615 0.391466 0.012500
0.425872 0.390327 0.011564
0.566527 0.389175 0.010619
0.706448 0.388015 0.009668
0.841444 0.386848 0.008712
0.967254 0.385675 0.007751
1.000000 0.385172 0.007340
0.038110 0.521045 0.011381
0.155575 0.519941 0.010483
0.285119 0.518808 0.009562
0.422276 0.517660 0.008629
0.562927 0.516499 0.007688
0.702943 0.515329 0.006739
0.838136 0.514152 0.005786
0.964246 0.512968 0.004829
1.000000 0.512461 0.004419
0.035098 0.647788 0.008451
0.152283 0.646700 0.007555
0.281632 0.645584 0.006637
0.418686 0.644452 0.005707
0.559330 0.643308 0.004769
0.699439 0.642154 0.003824
0.834826 0.640993 0.002874
0.961233 0.639825 0.001920
1.000000 0.639325 0.001511
0.032098 0.771106 0.005532
0.149001 0.770060 0.004640
0.278152 0.768985 0.003725
0.415100 0.767895 0.002798
0.555735 0.766793 0.001862
0.695935 0.765682 0.000920
0.831513 0.764563 0.000000
0.958213 0.763437 0.000000
1.000000 0.762955 0.000000
0.029109 0.888197 0.002625
0.145727 0.887216 0.001736
0.274678 0.886208 0.000824
0.411519 0.885185 0.000000
0.552143 0.884151 0.000000
0.692429 0.883108 0.000000
0.828196 0.882058 0.000000
0.955188 0.881001 0.000000
1.000000 0.880548 0.000000
0.026131 0.996262 0.000000
0.142463 0.995370 0.000000
0.271211 0.994454 0.000000
0.407942 0.993525 0.000000
0.548551 0.992584 0.000000
0.688923 0.991635 0.000000
0.824876 0.990680 0.000000
0.952156 0.989718 0.000000
1.000000 0.989305 0.000000
0.049992 0.035596 0.135173
0.168534 0.034675 0.134177
0.298820 0.033731 0.133155
0.436356 0.032775 0.132120
0.577008 0.031809 0.131075
0.716637 0.030837 0.130022
0.851045 0.029860 0.128963
0.975968 0.028878 0.127899
1.000000 0.028458 0.127443
0.046919 0.148025 0.131892
0.165187 0.147021 0.130898
0.295286 0.145991 0.129879
0.432728 0.144947 0.128846
0.573383 0.143894 0.127802
0.713115 0.142832 0.126752
0.847730 0.141765 0.125695
0.972962 0.140692 0.124634
1.000000 0.140233 0.124179
0.043868 0.268174 0.128632
0.161861 0.267112 0.127640
0.291770 0.266023 0.126623
0.429116 0.264918 0.125592
0.569772 0.263802 0.124551
0.709605 0.262678 0.123503
0.844421 0.261548 0.122448
0.969959 0.260411 0.121389
1.000000 0.259925 0.120935
0.040831 0.393328 0.125386
0.158548 0.392233 0.124396
0.288266 0.391109 0.123381
0.425513 0.389969 0.122352
0.566168 0.388818 0.121314
0.706098 0.387658 0.120267
0.841114 0.386491 0.119215
0.966955 0.385318 0.118158
1.000000 0.384815 0.117706
0.037808 0.520685 0.122151
0.155246 0.519581 0.121164
0.284771 0.518448 0.120151
0.421918 0.517299 0.119125
0.562568 0.516139 0.118088
0.702593 0.514969 0.117044
0.837806 0.513791 0.115995
0.963945 0.512607 0.114940
1.000000 0.512100 0.114488
0.034798 0.647433 0.118928
0.151955 0.646345 0.117942
0.281284 0.645229 0.116932
0.418327 0.644097 0.115908
0.558971 0.642952 0.114874
0.699089 0.641799 0.113832
0.834495 0.640637 0.112785
0.960931 0.639470 0.111732
1.000000 0.638969 0.111282
0.031799 0.770765 0.115715
0.148673 0.769718 0.114731
0.277804 0.768644 0.113723
0.414742 0.767553 0.112701
0.555376 0.766451 0.111669
0.695584 0.765339 0.110630
0.831181 0.764220 0.109585
0.957911 0.763095 0.108535
1.000000 0.762612 0.108085
0.028811 0.887877 0.112511
0.145400 0.886895 0.111529
0.274331 0.885887 0.110524
0.411161 0.884864 0.109504
0.551783 0.883830 0.108474
0.692079 0.882787 0.107437
0.827864 0.881736 0.106395
0.954884 0.880679 0.105347
1.000000 0.880226 0.104899
0.025834 0.995971 0.109316
0.142136 0.995079 0.108337
0.270864 0.994163 0.107334
0.407584 0.993233 0.106316
0.548192 0.992292 0.105289
0.688572 0.991343 0.104254
0.824543 0.990387 0.103214
0.951851 0.989425 0.102169
1.000000 0.989012 0.101721
0.049711 0.035318 0.246357
0.168227 0.034398 0.245304
0.298497 0.033454 0.244223
0.436024 0.032498 0.243127
0.576676 0.031533 0.242021
0.716315 0.030561 0.240906
0.850742 0.029584 0.239785
0.975693 0.028602 0.238658
1.000000 0.028182 0.238175
0.046639 0.147722 0.242886
0.164881 0.146718 0.241834
0.294963 0.145689 0.240755
0.432396 0.144645 0.239661
0.573051 0.143592 0.238556
0.712793 0.142530 0.237442
0.847426 0.141463 0.236323
0.972687 0.140391 0.235197
1.000000 0.139932 0.234715
0.043588 0.267854 0.239434
0.161556 0.266792 0.238383
0.291447 0.265703 0.237306
0.428784 0.264598 0.236213
0.569440 0.263483 0.235110
0.709282 0.262359 0.233998
0.844117 0.261228 0.232880
0.969683 0.260092 0.231756
1.000000 0.259605 0.231275
0.040552 0.392998 0.235995
0.158243 0.391902 0.234945
0.287944 0.390779 0.233869
0.425182 0.389639 0.232778
0.565836 0.388488 0.231676
0.705775 0.387328 0.230566
0.840809 0.386161 0.229449
0.966678 0.384988 0.228327
1.000000 0.384485 0.227847
0.037530 0.520352 0.232565
0.154942 0.519248 0.231517
0.284449 0.518116 0.230443
0.421586 0.516967 0.229353
0.562236 0.515806 0.228253
0.702270 0.514636 0.227144
0.837500 0.513459 0.226029
0.963668 0.512275 0.224909
1.000000 0.511768 0.224429
0.034520 0.647105 0.229144
0.151651 0.646017 0.228098
0.280962 0.644901 0.227025
0.417996 0.643769 0.225937
0.558638 0.642624 0.224838
0.698765 0.641471 0.223731
0.834189 0.640309 0.222618
0.960652 0.639141 0.221499
1.000000 0.638641 0.221020
0.031522 0.770449 0.225732
0.148370 0.769402 0.224687
0.277483 0.768328 0.223615
0.414411 0.767237 0.222529
0.555044 0.766135 0.221432
0.695260 0.765023 0.220327
0.830875 0.763904 0.219215
0.957631 0.762778 0.218098
1.000000 0.762296 0.217619
0.028535 0.887581 0.222327
0.145098 0.886599 0.221283
0.274010 0.885591 0.220214
0.410830 0.884568 0.219129
0.551451 0.883533 0.218033
0.691754 0.882490 0.216930
0.827557 0.881439 0.215820
0.954604 0.880382 0.214704
1.000000 0.879929 0.214226
0.025559 0.995702 0.218929
0.141834 0.994810 0.217887
0.270543 0.993894 0.216819
0.407253 0.992963 0.215736
0.547859 0.992022 0.214642
0.688247 0.991073 0.213540
0.824235 0.990117 0.212432
0.951570 0.989154 0.211318
1.000000 0.988741 0.210841
0.049440 0.035051 0.358208
0.167933 0.034131 0.357120
0.298185 0.033187 0.356003
0.435705 0.032231 0.354870
0.576357 0.031266 0.353727
0.716005 0.030295 0.352574
0.850450 0.029318 0.351414
0.975429 0.028336 0.350248
1.000000 0.027916 0.349749
0.046369 0.147431 0.354621
0.164587 0.146427 0.353533
0.294652 0.145398 0.352417
0.432077 0.144354 0.351286
0.572732 0.143301 0.350143
0.712483 0.142240 0.348991
0.847134 0.141173 0.347832
0.972421 0.140101 0.346667
1.000000 0.139642 0.346169
0.043318 0.267545 0.351052
0.161262 0.266483 0.349965
0.291137 0.265394 0.348850
0.428465 0.264290 0.347719
0.569121 0.263175 0.346577
0.708971 0.262051 0.345426
0.843824 0.260921 0.344268
0.969417 0.259785 0.343104
1.000000 0.259298 0.342606
0.040284 0.392680 0.347493
0.157950 0.391584 0.346407
0.287633 0.390461 0.345292
0.424863 0.389321 0.344162
0.565516 0.388170 0.343021
0.705464 0.387011 0.341871
0.840516 0.385843 0.340714
0.966411 0.384670 0.339551
1.000000 0.384168 0.339053
0.037262 0.520031 0.343942
0.154650 0.518928 0.342857
0.284139 0.517795 0.341743
0.421267 0.516646 0.340614
0.561916 0.515485 0.339474
0.701959 0.514316 0.338325
0.837206 0.513138 0.337169
0.963400 0.511954 0.336007
1.000000 0.511447 0.335509
0.034253 0.646789 0.340398
0.151359 0.645702 0.339314
0.280652 0.644586 0.338201
0.417677 0.643453 0.337073
0.558319 0.642308 0.335934
0.698454 0.641154 0.334786
0.833894 0.639993 0.333631
0.960384 0.638825 0.332470
1.000000 0.638325 0.331972
0.031256 0.770145 0.336860
0.148079 0.769098 0.335777
0.277173 0.768024 0.334666
0.414092 0.766933 0.333538
0.554724 0.765830 0.332400
0.694948 0.764719 0.331253
0.830579 0.763599 0.330099
0.957362 0.762473 0.328939
1.000000 0.761991 0.328442
0.028269 0.887296 0.333329
0.144807 0.886314 0.332246
0.273701 0.885306 0.331135
0.410511 0.884282 0.330009
0.551131 0.883248 0.328872
0.691442 0.882204 0.327726
0.827261 0.881153 0.326572
0.954334 0.880095 0.325413
1.000000 0.879642 0.324917
0.025294 0.995443 0.329802
0.141544 0.994551 0.328720
0.270235 0.993634 0.327611
0.406934 0.992704 0.326485
0.547539 0.991762 0.325349
0.687935 0.990813 0.324204
0.823939 0.989856 0.323052
0.951300 0.988893 0.321894
1.000000 0.988480 0.321398
0.049176 0.034790 0.469754
0.167645 0.033870 0.468651
0.297882 0.032927 0.467519
0.435393 0.031972 0.466371
0.576046 0.031007 0.465211
0.715702 0.030035 0.464042
0.850166 0.029059 0.462865
0.975171 0.028078 0.461682
1.000000 0.027658 0.461176
0.046105 0.147147 0.466118
0.164300 0.146143 0.465015
0.294349 0.145114 0.463883
0.431765 0.144071 0.462735
0.572421 0.143018 0.461575
0.712180 0.141957 0.460406
0.846849 0.140890 0.459230
0.972163 0.139818 0.458047
1.000000 0.139359 0.457541
0.043056 0.267245 0.462497
0.160975 0.266183 0.461394
0.290834 0.265094 0.460263
0.428154 0.263990 0.459115
0.568809 0.262875 0.457955
0.708669 0.261751 0.456787
0.843539 0.260621 0.455610
0.969158 0.259485 0.454428
1.000000 0.258998 0.453922
0.040022 0.392370 0.458885
0.157664 0.391275 0.457782
0.287331 0.390151 0.456651
0.424551 0.389012 0.455503
0.565205 0.387861 0.454344
0.705161 0.386701 0.453176
0.840230 0.385534 0.452000
0.966150 0.384361 0.450818
1.000000 0.383858 0.450312
0.037001 0.519719 0.455279
0.154364 0.518615 0.454177
0.283837 0.517483 0.453046
0.420956 0.516334 0.451898
0.561604 0.515173 0.450739
0.701655 0.514003 0.449571
0.836920 0.512826 0.448396
0.963139 0.511642 0.447214
1.000000 0.511135 0.446708
0.033993 0.646482 0.451679
0.151075 0.645394 0.450576
0.280350 0.644278 0.449446
0.417366 0.643145 0.448298
0.558007 0.642000 0.447140
0.698150 0.640846 0.445972
0.833607 0.639685 0.444797
0.960122 0.638517 0.443615
1.000000 0.638016 0.443109
0.030996 0.769849 0.448082
0.147794 0.768802 0.446980
0.276872 0.767727 0.445850
0.413781 0.766636 0.444703
0.554412 0.765533 0.443544
0.694644 0.764422 0.442377
0.830292 0.763302 0.441202
0.957100 0.762176 0.440021
1.000000 0.761694 0.439515
0.028011 0.887018 0.444489
0.144523 0.886036 0.443388
0.273400 0.885028 0.442257
0.410200 0.884004 0.441111
0.550819 0.882969 0.439953
0.691137 0.881925 0.438786
0.826973 0.880874 0.437611
0.954071 0.879816 0.436430
1.000000 0.879363 0.435925
0.025036 0.995191 0.440900
0.141261 0.994298 0.439799
0.269934 0.993381 0.438669
0.406623 0.992450 0.437522
0.547227 0.991509 0.436365
0.687630 0.990559 0.435198
0.823650 0.989602 0.434024
0.951036 0.988639 0.432843
1.000000 0.988226 0.432338
0.048917 0.034535 0.579693
0.167363 0.033615 0.578593
0.297584 0.032672 0.577465
0.435088 0.031717 0.576321
0.575741 0.030752 0.575164
0.715406 0.029781 0.573999
0.849887 0.028805 0.572825
0.974918 0.027824 0.571646
1.000000 0.027404 0.571140
0.045847 0.146868 0.576069
0.164019 0.145865 0.574969
0.294051 0.144836 0.573840
0.431460 0.143793 0.572696
0.572115 0.142740 0.571539
0.711883 0.141679 0.570373
0.846569 0.140612 0.569199
0.971909 0.139540 0.568019
1.000000 0.139081 0.567513
0.042798 0.266950 0.572459
0.160694 0.265888 0.571358
0.290537 0.264800 0.570230
0.427848 0.263695 0.569084
0.568504 0.262580 0.567927
0.708371 0.261457 0.566761
0.843258 0.260327 0.565587
0.968903 0.259191 0.564406
1.000000 0.258704 0.563900
0.039765 0.392066 0.568855
0.157384 0.390971 0.567755
0.287034 0.389847 0.566625
0.424246 0.388708 0.565480
0.564899 0.387557 0.564322
0.704864 0.386397 0.563155
0.839949 0.385230 0.561981
0.965895 0.384057 0.560800
1.000000 0.383555 0.560294
0.036745 0.519413 0.565256
0.154084 0.518309 0.564155
0.283540 0.517176 0.563025
0.420651 0.516027 0.561879
0.561299 0.514867 0.560721
0.701357 0.513697 0.559554
0.836638 0.512519 0.558379
0.962883 0.511335 0.557198
1.000000 0.510828 0.556692
0.033738 0.646180 0.561660
0.150795 0.645092 0.560559
0.280054 0.643976 0.559429
0.417061 0.642843 0.558282
0.557701 0.641698 0.557124
0.697852 0.640544 0.555956
0.833325 0.639382 0.554781
0.959865 0.638214 0.553600
1.000000 0.637714 0.553094
0.030742 0.769559 0.558066
0.147516 0.768511 0.556964
0.276576 0.767436 0.555834
0.413476 0.766345 0.554687
0.554106 0.765242 0.553529
0.694346 0.764130 0.552361
0.830009 0.763011 0.551185
0.956842 0.761884 0.550004
1.000000 0.761402 0.549497
0.027757 0.886746 0.554474
0.144245 0.885763 0.553372
0.273104 0.884755 0.552241
0.409895 0.883731 0.551094
0.550513 0.882696 0.549935
0.690839 0.881652 0.548767
0.826690 0.880600 0.547592
0.953813 0.879542 0.546409
1.000000 0.879089 0.545903
0.024783 0.994943 0.550883
0.140983 0.994050 0.549781
0.269639 0.993133 0.548650
0.406319 0.992202 0.547503
0.546921 0.991260 0.546344
0.687331 0.990310 0.545175
0.823367 0.989353 0.543999
0.950777 0.988389 0.542817
1.000000 0.987976 0.542310
0.048662 0.034283 0.686654
0.167085 0.033364 0.685577
0.297291 0.032421 0.684471
0.434787 0.031466 0.683349
0.575440 0.030502 0.682215
0.715114 0.029531 0.681072
0.849612 0.028555 0.679921
0.974669 0.027574 0.678763
1.000000 0.027154 0.678268
0.045593 0.146594 0.683102
0.163742 0.145590 0.682023
0.293758 0.144562 0.680917
0.431159 0.143519 0.679793
0.571815 0.142466 0.678659
0.711591 0.141406 0.677514
0.846293 0.140339 0.676362
0.971659 0.139267 0.675204
1.000000 0.138808 0.674707
0.042545 0.266660 0.679561
0.160418 0.265598 0.678482
0.290244 0.264510 0.677374
0.427548 0.263405 0.676250
0.568203 0.262290 0.675114
0.708079 0.261167 0.673968
0.842983 0.260037 0.672815
0.968652 0.258901 0.671656
1.000000 0.258415 0.671159
0.039512 0.391766 0.676025
0.157108 0.390671 0.674944
0.286742 0.389548 0.673836
0.423946 0.388409 0.672710
0.564598 0.387258 0.671573
0.704571 0.386098 0.670427
0.839673 0.384931 0.669273
0.965644 0.383758 0.668112
1.000000 0.383256 0.667615
0.036493 0.519111 0.672491
0.153809 0.518007 0.671409
0.283248 0.516875 0.670299
0.420350 0.515726 0.669173
0.560998 0.514565 0.668035
0.701064 0.513395 0.666888
0.836361 0.512217 0.665733
0.962631 0.511034 0.664571
1.000000 0.510527 0.664074
0.033486 0.645882 0.668958
0.150520 0.644794 0.667875
0.279763 0.643678 0.666764
0.416761 0.642545 0.665637
0.557400 0.641400 0.664498
0.697558 0.640246 0.663350
0.833048 0.639085 0.662194
0.959613 0.637916 0.661032
1.000000 0.637416 0.660534
0.030491 0.769272 0.665425
0.147241 0.768225 0.664341
0.276285 0.767150 0.663230
0.413176 0.766058 0.662102
0.553805 0.764956 0.660962
0.694052 0.763843 0.659813
0.829731 0.762724 0.658656
0.956589 0.761597 0.657492
1.000000 0.761115 0.656994
0.027507 0.886477 0.661892
0.143971 0.885495 0.660808
0.272813 0.884486 0.659695
0.409595 0.883462 0.658566
0.550212 0.882427 0.657425
0.690545 0.881382 0.656275
0.826411 0.880331 0.655117
0.953558 0.879273 0.653953
1.000000 0.878819 0.653454
0.024534 0.994699 0.658358
0.140710 0.993806 0.657273
0.269348 0.992889 0.656160
0.406019 0.991957 0.655030
0.546620 0.991015 0.653888
0.687037 0.990065 0.652737
0.823088 0.989107 0.651579
0.950522 0.988144 0.650413
1.000000 0.987731 0.649914
0.048411 0.034035 0.789273
0.166812 0.033116 0.788234
0.297002 0.032174 0.787169
0.434490 0.031218 0.786087
0.575143 0.030254 0.784993
0.714826 0.029284 0.783891
0.849340 0.028308 0.782780
0.974423 0.027328 0.781664
1.000000 0.026908 0.781185
0.045342 0.146323 0.785848
0.163468 0.145320 0.784808
0.293469 0.144291 0.783741
0.430862 0.143249 0.782657
0.571518 0.142196 0.781562
0.711302 0.141136 0.780458
0.846022 0.140069 0.779346
0.971412 0.138998 0.778228
1.000000 0.138539 0.777748
0.042295 0.266373 0.782433
0.160145 0.265312 0.781392
0.289956 0.264223 0.780322
0.427251 0.263119 0.779237
0.567906 0.262004 0.778141
0.707790 0.260881 0.777035
0.842710 0.259751 0.775921
0.968405 0.258616 0.774801
1.000000 0.258129 0.774321
0.039263 0.391471 0.779020
0.156835 0.390376 0.777977
0.286453 0.389253 0.776906
0.423649 0.388113 0.775820
0.564301 0.386962 0.774721
0.704281 0.385803 0.773614
0.839400 0.384636 0.772498
0.965395 0.383463 0.771377
1.000000 0.382961 0.770896
0.036245 0.518813 0.775607
0.153537 0.517709 0.774563
0.282960 0.516577 0.773490
0.420054 0.515428 0.772402
0.560700 0.514267 0.771302
0.700775 0.513097 0.770193
0.836088 0.511920 0.769076
0.962382 0.510736 0.767953
1.000000 0.510229 0.767471
0.033238 0.645589 0.772194
0.150249 0.644501 0.771147
0.279475 0.643384 0.770074
0.416464 0.642251 0.768984
0.557103 0.641107 0.767882
0.697268 0.639953 0.766771
0.832774 0.638791 0.765653
0.959363 0.637622 0.764528
1.000000 0.637122 0.764046
0.030244 0.768990 0.768778
0.146970 0.767942 0.767730
0.275997 0.766867 0.766655
0.412879 0.765776 0.765563
0.553508 0.764672 0.764460
0.693762 0.763560 0.763348
0.829457 0.762440 0.762228
0.956338 0.761314 0.761101
1.000000 0.760831 0.760619
0.027260 0.886212 0.765360
0.143701 0.885229 0.764311
0.272526 0.884221 0.763234
0.409299 0.883196 0.762141
0.549914 0.882161 0.761037
0.690254 0.881116 0.759923
0.826136 0.880065 0.758801
0.953307 0.879006 0.757673
1.000000 0.878553 0.757190
0.024288 0.994458 0.761940
0.140440 0.993565 0.760889
0.269062 0.992647 0.759811
0.405723 0.991716 0.758717
0.546323 0.990773 0.757610
0.686746 0.989823 0.756495
0.822812 0.988865 0.755372
0.950270 0.987901 0.754242
1.000000 0.987488 0.753758
0.048162 0.033790 0.886204
0.166541 0.032871 0.885222
0.296716 0.031929 0.884213
0.434196 0.030974 0.883188
0.574850 0.030010 0.882153
0.714541 0.029040 0.881108
0.849072 0.028064 0.880057
0.974179 0.027084 0.878998
1.000000 0.026664 0.878545
0.045094 0.146055 0.882963
0.163198 0.145052 0.881978
0.293184 0.144024 0.880967
0.430569 0.142981 0.879940
0.571224 0.141929 0.878902
0.711017 0.140869 0.877856
0.845753 0.139803 0.876801
0.971168 0.138731 0.875741
1.000000 0.138273 0.875286
0.042047 0.266090 0.879728
0.159875 0.265029 0.878740
0.289670 0.263940 0.877727
0.426957 0.262836 0.876698
0.567612 0.261722 0.875658
0.707504 0.260599 0.874609
0.842441 0.259469 0.873553
0.968160 0.258333 0.872490
1.000000 0.257847 0.872034
0.039016 0.391179 0.876492
0.156566 0.390084 0.875503
0.286168 0.388961 0.874488
0.423355 0.387821 0.873457
0.564007 0.386670 0.872414
0.703995 0.385511 0.871363
0.839130 0.384344 0.870304
0.965150 0.383171 0.869239
1.000000 0.382669 0.868783
0.035999 0.518519 0.873255
0.153268 0.517415 0.872264
0.282675 0.516282 0.871246
0.419760 0.515133 0.870213
0.560407 0.513973 0.869168
0.700488 0.512803 0.868115
0.835817 0.511625 0.867054
0.962136 0.510441 0.865987
1.000000 0.509934 0.865529
0.032993 0.645299 0.870015
0.149981 0.644211 0.869021
0.279191 0.643094 0.868002
0.416171 0.641961 0.866966
0.556809 0.640816 0.865920
0.696982 0.639662 0.864864
0.832503 0.638500 0.863801
0.959116 0.637332 0.862731
1.000000 0.636831 0.862273
0.029999 0.768710 0.866771
0.146703 0.767663 0.865775
0.275713 0.766587 0.864753
0.412586 0.765496 0.863716
0.553214 0.764393 0.862667
0.693475 0.763280 0.861609
0.829185 0.762160 0.860544
0.956090 0.761034 0.859472
1.000000 0.760551 0.859013
0.027017 0.885950 0.863523
0.143434 0.884967 0.862525
0.272242 0.883958 0.861501
0.409006 0.882934 0.860461
0.549620 0.881898 0.859410
0.689967 0.880853 0.858350
0.825864 0.879801 0.857283
0.953059 0.878743 0.856209
1.000000 0.878289 0.855749
0.024045 0.994220 0.860270
0.140173 0.993326 0.859270
0.268778 0.992409 0.858244
0.405430 0.991477 0.857202
0.546029 0.990534 0.856149
0.686459 0.989583 0.855087
0.822540 0.988625 0.854018
0.950021 0.987661 0.852941
1.000000 0.987248 0.852480
