assets/luts/lamp_glow.cube
# Ламповый свет — лавка древностей после заката
TITLE "lamp_glow"
LUT_3D_SIZE 5
DOMAIN_MIN 0.0 0.0 0.0
DOMAIN_MAX 1.0 1.0 1.0
0.050297 0.035897 0.023248
0.299170 0.034031 0.021407
0.577367 0.032109 0.019508
0.851373 0.030159 0.017583
1.000000 0.028756 0.016198
0.044171 0.268521 0.017281
0.292119 0.266369 0.015451
0.570131 0.264148 0.013564
0.844751 0.261894 0.011651
1.000000 0.260270 0.010275
0.038110 0.521045 0.011381
0.285119 0.518808 0.009562
0.562927 0.516499 0.007688
0.838136 0.514152 0.005786
1.000000 0.512461 0.004419
0.032098 0.771106 0.005532
0.278152 0.768985 0.003725
0.555735 0.766793 0.001862
0.831513 0.764563 0.000000
1.000000 0.762955 0.000000
0.026131 0.996262 0.000000
0.271211 0.994454 0.000000
0.548551 0.992584 0.000000
0.824876 0.990680 0.000000
1.000000 0.989305 0.000000
0.049711 0.035318 0.246357
0.298497 0.033454 0.244223
0.576676 0.031533 0.242021
0.850742 0.029584 0.239785
1.000000 0.028182 0.238175
0.043588 0.267854 0.239434
0.291447 0.265703 0.237306
0.569440 0.263483 0.235110
0.844117 0.261228 0.232880
1.000000 0.259605 0.231275
0.037530 0.520352 0.232565
0.284449 0.518116 0.230443
0.562236 0.515806 0.228253
0.837500 0.513459 0.226029
1.000000 0.511768 0.224429
0.031522 0.770449 0.225732
0.277483 0.768328 0.223615
0.555044 0.766135 0.221432
0.830875 0.763904 0.219215
1.000000 0.762296 0.217619
0.025559 0.995702 0.218929
0.270543 0.993894 0.216819
0.547859 0.992022 0.214642
0.824235 0.990117 0.212432
1.000000 0.988741 0.210841
0.049176 0.034790 0.469754
0.297882 0.032927 0.467519
0.576046 0.031007 0.465211
0.850166 0.029059 0.462865
1.000000 0.027658 0.461176
0.043056 0.267245 0.462497
0.290834 0.265094 0.460263
0.568809 0.262875 0.457955
0.843539 0.260621 0.455610
1.000000 0.258998 0.453922
0.037001 0.519719 0.455279
0.283837 0.517483 0.453046
0.561604 0.515173 0.450739
0.836920 0.512826 0.448396
1.000000 0.511135 0.446708
0.030996 0.769849 0.448082
0.276872 0.767727 0.445850
0.554412 0.765533 0.443544
0.830292 0.763302 0.441202
1.000000 0.761694 0.439515
0.025036 0.995191 0.440900
0.269934 0.993381 0.438669
0.547227 0.991509 0.436365
0.823650 0.989602 0.434024
1.000000 0.988226 0.432338
0.048662 0.034283 0.686654
0.297291 0.032421 0.684471
0.575440 0.030502 0.682215
0.849612 0.028555 0.679921
1.000000 0.027154 0.678268
0.042545 0.266660 0.679561
0.290244 0.264510 0.677374
0.568203 0.262290 0.675114
0.842983 0.260037 0.672815
1.000000 0.258415 0.671159
0.036493 0.519111 0.672491
0.283248 0.516875 0.670299
0.560998 0.514565 0.668035
0.836361 0.512217 0.665733
1.000000 0.510527 0.664074
0.030491 0.769272 0.665425
0.276285 0.767150 0.663230
0.553805 0.764956 0.660962
0.829731 0.762724 0.658656
1.000000 0.761115 0.656994
0.024534 0.994699 0.658358
0.269348 0.992889 0.656160
0.546620 0.991015 0.653888
0.823088 0.989107 0.651579
1.000000 0.987731 0.649914
0.048162 0.033790 0.886204
0.296716 0.031929 0.884213
0.574850 0.030010 0.882153
0.849072 0.028064 0.880057
1.000000 0.026664 0.878545
0.042047 0.266090 0.879728
0.289670 0.263940 0.877727
0.567612 0.261722 0.875658
0.842441 0.259469 0.873553
1.000000 0.257847 0.872034
0.035999 0.518519 0.873255
0.282675 0.516282 0.871246
0.560407 0.513973 0.869168
0.835817 0.511625 0.867054
1.000000 0.509934 0.865529
0.029999 0.768710 0.866771
0.275713 0.766587 0.864753
0.553214 0.764393 0.862667
0.829185 0.762160 0.860544
1.000000 0.760551 0.859013
0.024045 0.994220 0.860270
0.268778 0.992409 0.858244
0.546029 0.990534 0.856149
0.822540 0.988625 0.854018
1.000000 0.987248 0.852480
