assets/luts/lamp_glow.cube
# Ламповый свет — лавка древностей после заката
TITLE "lamp_glow"
LUT_3D_SIZE 17
DOMAIN_MIN 0.0 0.0 0.0
DOMAIN_MAX 1.0 1.0 1.0
0.050297 0.035897 0.023248
0.107782 0.035440 0.022798
0.168865 0.034975 0.022339
0.232850 0.034505 0.021875
0.299170 0.034031 0.021407
0.367298 0.033554 0.020935
0.436716 0.033075 0.020462
0.506910 0.032593 0.019986
0.577367 0.032109 0.019508
0.647566 0.031623 0.019029
0.716985 0.031136 0.018548
0.785098 0.030648 0.018066
0.851373 0.030159 0.017583
0.915275 0.029668 0.017098
0.976265 0.029176 0.016613
1.000000 0.028756 0.016198
1.000000 0.028756 0.016198
0.048757 0.091003 0.021748
0.106169 0.090524 0.021298
0.167188 0.090037 0.020839
0.231121 0.089544 0.020376
0.297400 0.089047 0.019909
0.365498 0.088546 0.019438
0.434898 0.088043 0.018965
0.505088 0.087537 0.018490
0.575552 0.087030 0.018013
0.645770 0.086520 0.017535
0.715222 0.086009 0.017055
0.783380 0.085497 0.016573
0.849714 0.084983 0.016091
0.913687 0.084468 0.015607
0.974761 0.083952 0.015123
1.000000 0.083511 0.014708
1.000000 0.083511 0.014708
0.047223 0.148353 0.020254
0.104562 0.147855 0.019805
0.165518 0.147348 0.019347
0.229398 0.146836 0.018884
0.295636 0.146319 0.018418
0.363704 0.145798 0.017948
0.433087 0.145275 0.017476
0.503271 0.144749 0.017002
0.573742 0.144221 0.016525
0.643980 0.143691 0.016048
0.713464 0.143159 0.015568
0.781667 0.142626 0.015088
0.848058 0.142091 0.014606
0.912102 0.141555 0.014123
0.973260 0.141018 0.013639
1.000000 0.140559 0.013226
1.000000 0.140559 0.013226
0.045695 0.207638 0.018765
0.102960 0.207125 0.018317
0.163853 0.206602 0.017860
0.227680 0.206073 0.017398
0.293876 0.205539 0.016932
0.361915 0.205002 0.016463
0.431280 0.204461 0.015992
0.501458 0.203918 0.015518
0.571935 0.203373 0.015043
0.642193 0.202826 0.014566
0.711708 0.202277 0.014087
0.779956 0.201726 0.013607
0.846404 0.201174 0.013126
0.910518 0.200621 0.012644
0.971759 0.200066 0.012161
1.000000 0.199592 0.011748
1.000000 0.199592 0.011748
0.044171 0.268521 0.017281
0.101362 0.267994 0.016833
0.162191 0.267458 0.016377
0.225965 0.266916 0.015916
0.292119 0.266369 0.015451
0.360128 0.265818 0.014983
0.429475 0.265264 0.014512
0.499648 0.264707 0.014039
0.570131 0.264148 0.013564
0.640407 0.263587 0.013088
0.709954 0.263024 0.012610
0.778245 0.262460 0.012131
0.844751 0.261894 0.011651
0.908935 0.261326 0.011170
0.970258 0.260757 0.010687
1.000000 0.260270 0.010275
1.000000 0.260270 0.010275
0.042650 0.330653 0.015801
0.099768 0.330117 0.015354
0.160533 0.329571 0.014898
0.224253 0.329019 0.014438
0.290366 0.328461 0.013973
0.358344 0.327900 0.013506
0.427673 0.327336 0.013036
0.497839 0.326769 0.012564
0.568328 0.326199 0.012090
0.638623 0.325627 0.011614
0.708201 0.325054 0.011137
0.776536 0.324478 0.010659
0.843097 0.323901 0.010179
0.907351 0.323323 0.009699
0.968757 0.322743 0.009218
1.000000 0.322247 0.008806
1.000000 0.322247 0.008806
0.041134 0.393685 0.014324
0.098177 0.393143 0.013878
0.158878 0.392590 0.013423
0.222545 0.392031 0.012963
0.288615 0.391466 0.012500
0.356562 0.390898 0.012033
0.425872 0.390327 0.011564
0.496032 0.389752 0.011092
0.566527 0.389175 0.010619
0.636839 0.388596 0.010144
0.706448 0.388015 0.009668
0.774826 0.387432 0.009190
0.841444 0.386848 0.008712
0.905766 0.386262 0.008232
0.967254 0.385675 0.007751
1.000000 0.385172 0.007340
1.000000 0.385172 0.007340
0.039620 0.457266 0.012851
0.096589 0.456720 0.012405
0.157225 0.456164 0.011951
0.220838 0.455601 0.011492
0.286866 0.455032 0.011029
0.354783 0.454460 0.010563
0.424074 0.453885 0.010095
0.494226 0.453307 0.009624
0.564726 0.452726 0.009152
0.635057 0.452143 0.008678
0.704695 0.451557 0.008202
0.773117 0.450970 0.007725
0.839790 0.450382 0.007247
0.904181 0.449792 0.006768
0.965751 0.449200 0.006289
1.000000 0.448694 0.005878
1.000000 0.448694 0.005878
0.038110 0.521045 0.011381
0.095004 0.520498 0.010936
0.155575 0.519941 0.010483
0.219134 0.519377 0.010024
0.285119 0.518808 0.009562
0.353005 0.518236 0.009097
0.422276 0.517660 0.008629
0.492422 0.517080 0.008159
0.562927 0.516499 0.007688
0.633274 0.515915 0.007214
0.702943 0.515329 0.006739
0.771407 0.514741 0.006263
0.838136 0.514152 0.005786
0.902595 0.513560 0.005308
0.964246 0.512968 0.004829
1.000000 0.512461 0.004419
1.000000 0.512461 0.004419
0.036602 0.584669 0.009914
0.093422 0.584125 0.009470
0.153928 0.583570 0.009017
0.217433 0.583009 0.008560
0.283375 0.582443 0.008098
0.351229 0.581873 0.007634
0.420480 0.581299 0.007167
0.490618 0.580722 0.006698
0.561128 0.580143 0.006227
0.631493 0.579562 0.005754
0.701191 0.578978 0.005280
0.769697 0.578393 0.004805
0.836481 0.577806 0.004328
0.901009 0.577217 0.003851
0.962740 0.576626 0.003373
1.000000 0.576121 0.002964
1.000000 0.576121 0.002964
0.035098 0.647788 0.008451
0.091842 0.647249 0.008007
0.152283 0.646700 0.007555
0.215733 0.646145 0.007098
0.281632 0.645584 0.006637
0.349454 0.645020 0.006174
0.418686 0.644452 0.005707
0.488816 0.643881 0.005239
0.559330 0.643308 0.004769
0.629711 0.642732 0.004297
0.699439 0.642154 0.003824
0.767987 0.641574 0.003349
0.834826 0.640993 0.002874
0.899421 0.640410 0.002397
0.961233 0.639825 0.001920
1.000000 0.639325 0.001511
1.000000 0.639325 0.001511
0.033597 0.710051 0.006990
0.090266 0.709520 0.006547
0.150641 0.708980 0.006096
0.214036 0.708434 0.005640
0.279891 0.707882 0.005180
0.347681 0.707326 0.004717
0.416892 0.706767 0.004251
0.487014 0.706205 0.003784
0.557532 0.705641 0.003314
0.627930 0.705074 0.002843
0.697687 0.704505 0.002371
0.766277 0.703935 0.001897
0.833170 0.703362 0.001422
0.897832 0.702788 0.000946
0.959724 0.702212 0.000469
1.000000 0.701719 0.000062
1.000000 0.701719 0.000062
0.032098 0.771106 0.005532
0.088691 0.770588 0.005090
0.149001 0.770060 0.004640
0.212341 0.769525 0.004184
0.278152 0.768985 0.003725
0.345909 0.768442 0.003263
0.415100 0.767895 0.002798
0.485213 0.767345 0.002331
0.555735 0.766793 0.001862
0.626149 0.766238 0.001392
0.695935 0.765682 0.000920
0.764566 0.765123 0.000447
0.831513 0.764563 0.000000
0.896241 0.764001 0.000000
0.958213 0.763437 0.000000
1.000000 0.762955 0.000000
1.000000 0.762955 0.000000
0.030602 0.830605 0.004077
0.087120 0.830101 0.003636
0.147363 0.829588 0.003186
0.210647 0.829068 0.002732
0.276414 0.828544 0.002273
0.344139 0.828016 0.001812
0.413309 0.827484 0.001348
0.483413 0.826950 0.000881
0.553939 0.826413 0.000414
0.624369 0.825874 0.000000
0.694182 0.825333 0.000000
0.762854 0.824789 0.000000
0.829855 0.824245 0.000000
0.894650 0.823698 0.000000
0.956701 0.823150 0.000000
1.000000 0.822681 0.000000
1.000000 0.822681 0.000000
0.029109 0.888197 0.002625
0.085551 0.887711 0.002185
0.145727 0.887216 0.001736
0.208956 0.886714 0.001282
0.274678 0.886208 0.000824
0.342370 0.885698 0.000363
0.411519 0.885185 0.000000
0.481614 0.884669 0.000000
0.552143 0.884151 0.000000
0.622588 0.883631 0.000000
0.692429 0.883108 0.000000
0.761142 0.882584 0.000000
0.828196 0.882058 0.000000
0.893057 0.881530 0.000000
0.955188 0.881001 0.000000
1.000000 0.880548 0.000000
1.000000 0.880548 0.000000
0.027619 0.943532 0.001176
0.083984 0.943067 0.000736
0.144094 0.942593 0.000288
0.207267 0.942113 0.000000
0.272944 0.941628 0.000000
0.340602 0.941140 0.000000
0.409730 0.940648 0.000000
0.479816 0.940154 0.000000
0.550347 0.939658 0.000000
0.620807 0.939159 0.000000
0.690676 0.938659 0.000000
0.759429 0.938157 0.000000
0.826536 0.937652 0.000000
0.891463 0.937147 0.000000
0.953672 0.936640 0.000000
1.000000 0.936206 0.000000
1.000000 0.936206 0.000000
0.026131 0.996262 0.000000
0.082419 0.995820 0.000000
0.142463 0.995370 0.000000
0.205579 0.994914 0.000000
0.271211 0.994454 0.000000
0.338836 0.993991 0.000000
0.407942 0.993525 0.000000
0.478018 0.993056 0.000000
0.548551 0.992584 0.000000
0.619027 0.992111 0.000000
0.688923 0.991635 0.000000
0.757716 0.991158 0.000000
0.824876 0.990680 0.000000
0.889868 0.990199 0.000000
0.952156 0.989718 0.000000
1.000000 0.989305 0.000000
1.000000 0.989305 0.000000
0.050140 0.035741 0.079739
0.107618 0.035285 0.079265
0.168694 0.034820 0.078782
0.232674 0.034351 0.078293
0.298990 0.033877 0.077801
0.367114 0.033399 0.077305
0.436530 0.032920 0.076806
0.506725 0.032438 0.076305
0.577182 0.031954 0.075802
0.647383 0.031469 0.075297
0.716805 0.030982 0.074790
0.784923 0.030494 0.074282
0.851204 0.030004 0.073773
0.915113 0.029514 0.073263
0.976112 0.029022 0.072752
1.000000 0.028602 0.072314
1.000000 0.028602 0.072314
0.048600 0.090840 0.078160
0.106004 0.090362 0.077686
0.167017 0.089874 0.077204
0.230944 0.089381 0.076715
0.297219 0.088884 0.076223
0.365314 0.088384 0.075728
0.434713 0.087881 0.075230
0.504902 0.087375 0.074729
0.575366 0.086868 0.074227
0.645587 0.086358 0.073723
0.715042 0.085847 0.073217
0.783205 0.085335 0.072710
0.849544 0.084821 0.072201
0.913525 0.084306 0.071691
0.974608 0.083790 0.071181
1.000000 0.083349 0.070744
1.000000 0.083349 0.070744
0.047066 0.148184 0.076587
0.104397 0.147686 0.076114
0.165347 0.147179 0.075632
0.229222 0.146667 0.075145
0.295455 0.146150 0.074653
0.363521 0.145629 0.074158
0.432902 0.145106 0.073661
0.503086 0.144580 0.073161
0.573557 0.144052 0.072659
0.643797 0.143522 0.072155
0.713284 0.142990 0.071650
0.781492 0.142457 0.071144
0.847889 0.141923 0.070636
0.911940 0.141387 0.070127
0.973106 0.140850 0.069617
1.000000 0.140391 0.069181
1.000000 0.140391 0.069181
0.045538 0.207464 0.075019
0.102796 0.206950 0.074547
0.163682 0.206427 0.074065
0.227503 0.205898 0.073579
0.293696 0.205365 0.073088
0.361731 0.204827 0.072593
0.431095 0.204287 0.072097
0.501272 0.203744 0.071597
0.571750 0.203199 0.071096
0.642009 0.202652 0.070593
0.711528 0.202103 0.070089
0.779780 0.201552 0.069583
0.846234 0.201000 0.069076
0.910356 0.200447 0.068567
0.971605 0.199892 0.068058
1.000000 0.199418 0.067623
1.000000 0.199418 0.067623
0.044014 0.268342 0.073455
0.101198 0.267816 0.072983
0.162021 0.267280 0.072503
0.225789 0.266737 0.072017
0.291939 0.266190 0.071527
0.359945 0.265639 0.071033
0.429290 0.265085 0.070537
0.499462 0.264529 0.070038
0.569946 0.263970 0.069538
0.640224 0.263409 0.069035
0.709774 0.262846 0.068532
0.778070 0.262281 0.068026
0.844581 0.261715 0.067520
0.908772 0.261148 0.067012
0.970104 0.260579 0.066503
1.000000 0.260092 0.066068
1.000000 0.260092 0.066068
0.042494 0.330471 0.071895
0.099604 0.329935 0.071424
0.160363 0.329389 0.070944
0.224077 0.328837 0.070459
0.290186 0.328279 0.069969
0.358161 0.327718 0.069476
0.427488 0.327154 0.068981
0.497653 0.326587 0.068483
0.568143 0.326017 0.067983
0.638439 0.325446 0.067481
0.708020 0.324872 0.066978
0.776360 0.324297 0.066473
0.842927 0.323720 0.065968
0.907188 0.323141 0.065461
0.968602 0.322561 0.064953
1.000000 0.322065 0.064518
1.000000 0.322065 0.064518
0.040978 0.393501 0.070339
0.098013 0.392958 0.069868
0.158707 0.392406 0.069389
0.222369 0.391846 0.068904
0.288435 0.391282 0.068415
0.356379 0.390714 0.067923
0.425687 0.390142 0.067428
0.495846 0.389568 0.066931
0.566341 0.388991 0.066431
0.636656 0.388412 0.065930
0.706267 0.387831 0.065428
0.774650 0.387248 0.064924
0.841274 0.386664 0.064419
0.905603 0.386078 0.063912
0.967100 0.385490 0.063405
1.000000 0.384988 0.062971
1.000000 0.384988 0.062971
0.039464 0.457081 0.068786
0.096426 0.456534 0.068315
0.157055 0.455978 0.067837
0.220663 0.455415 0.067352
0.286686 0.454847 0.066864
0.354600 0.454275 0.066372
0.423888 0.453699 0.065878
0.494040 0.453121 0.065382
0.564541 0.452540 0.064883
0.634873 0.451957 0.064383
0.704515 0.451372 0.063881
0.772941 0.450785 0.063378
0.839620 0.450196 0.062873
0.904018 0.449606 0.062368
0.965596 0.449014 0.061861
1.000000 0.448508 0.061428
1.000000 0.448508 0.061428
0.037954 0.520859 0.067235
0.094841 0.520312 0.066766
0.155406 0.519755 0.066288
0.218959 0.519191 0.065804
0.284940 0.518623 0.065316
0.352822 0.518050 0.064825
0.422091 0.517474 0.064332
0.492236 0.516895 0.063836
0.562741 0.516313 0.063338
0.633091 0.515729 0.062838
0.702763 0.515143 0.062337
0.771231 0.514555 0.061834
0.837966 0.513966 0.061331
0.902432 0.513374 0.060826
0.964091 0.512782 0.060320
1.000000 0.512275 0.059887
1.000000 0.512275 0.059887
0.036447 0.584484 0.065688
0.093259 0.583940 0.065219
0.153759 0.583385 0.064741
0.217258 0.582824 0.064258
0.283195 0.582258 0.063771
0.351046 0.581688 0.063281
0.420295 0.581114 0.062788
0.490432 0.580537 0.062293
0.560943 0.579958 0.061795
0.631309 0.579377 0.061297
0.701011 0.578793 0.060796
0.769521 0.578208 0.060294
0.836311 0.577620 0.059791
0.900845 0.577032 0.059287
0.962585 0.576441 0.058781
1.000000 0.575936 0.058349
1.000000 0.575936 0.058349
0.034943 0.647605 0.064143
0.091680 0.647066 0.063675
0.152114 0.646517 0.063198
0.215558 0.645962 0.062716
0.281452 0.645401 0.062229
0.349271 0.644837 0.061740
0.418501 0.644269 0.061247
0.488630 0.643698 0.060753
0.559144 0.643124 0.060256
0.629528 0.642549 0.059758
0.699258 0.641971 0.059258
0.767811 0.641391 0.058757
0.834655 0.640809 0.058254
0.899257 0.640226 0.057751
0.961077 0.639642 0.057246
1.000000 0.639141 0.056814
1.000000 0.639141 0.056814
0.033442 0.709870 0.062601
0.090103 0.709340 0.062134
0.150472 0.708800 0.061657
0.213861 0.708253 0.061176
0.279711 0.707702 0.060690
0.347498 0.707146 0.060201
0.416707 0.706587 0.059709
0.486828 0.706025 0.059215
0.557347 0.705461 0.058719
0.627747 0.704894 0.058222
0.697506 0.704325 0.057723
0.766100 0.703754 0.057222
0.832999 0.703181 0.056720
0.897668 0.702607 0.056217
0.959568 0.702031 0.055713
1.000000 0.701539 0.055282
1.000000 0.701539 0.055282
0.031944 0.770930 0.061062
0.088529 0.770412 0.060595
0.148832 0.769883 0.060120
0.212166 0.769349 0.059639
0.277972 0.768809 0.059153
0.345726 0.768265 0.058665
0.414915 0.767719 0.058174
0.485027 0.767169 0.057681
0.555550 0.766616 0.057185
0.625966 0.766062 0.056689
0.695754 0.765505 0.056190
0.764389 0.764946 0.055690
0.831342 0.764386 0.055189
0.896077 0.763824 0.054687
0.958057 0.763260 0.054184
1.000000 0.762778 0.053753
1.000000 0.762778 0.053753
0.030448 0.830434 0.059526
0.086958 0.829930 0.059059
0.147194 0.829417 0.058584
0.210473 0.828897 0.058104
0.276235 0.828373 0.057619
0.343956 0.827844 0.057132
0.413124 0.827313 0.056641
0.483228 0.826778 0.056149
0.553753 0.826241 0.055654
0.624185 0.825702 0.055158
0.694001 0.825161 0.054660
0.762677 0.824618 0.054161
0.829684 0.824073 0.053660
0.894486 0.823526 0.053159
0.956545 0.822978 0.052656
1.000000 0.822509 0.052227
1.000000 0.822509 0.052227
0.028955 0.888032 0.057992
0.085389 0.887546 0.057526
0.145558 0.887050 0.057052
0.208781 0.886549 0.056572
0.274499 0.886043 0.056088
0.342187 0.885533 0.055601
0.411334 0.885020 0.055111
0.481428 0.884504 0.054620
0.551957 0.883985 0.054126
0.622404 0.883465 0.053630
0.692248 0.882942 0.053133
0.760965 0.882418 0.052634
0.828025 0.881892 0.052135
0.892893 0.881364 0.051634
0.955031 0.880835 0.051132
1.000000 0.880382 0.050703
1.000000 0.880382 0.050703
0.027465 0.943374 0.056461
0.083822 0.942909 0.055995
0.143925 0.942434 0.055522
0.207092 0.941954 0.055043
0.272765 0.941470 0.054560
0.340420 0.940981 0.054073
0.409545 0.940490 0.053584
0.479630 0.939996 0.053093
0.550161 0.939499 0.052600
0.620623 0.939001 0.052105
0.690495 0.938500 0.051608
0.759252 0.937998 0.051110
0.826365 0.937494 0.050611
0.891299 0.936988 0.050111
0.953516 0.936481 0.049610
1.000000 0.936047 0.049181
1.000000 0.936047 0.049181
0.025978 0.996112 0.054932
0.082258 0.995670 0.054467
0.142294 0.995220 0.053994
0.205405 0.994764 0.053516
0.271032 0.994304 0.053033
0.338653 0.993841 0.052548
0.407757 0.993374 0.052059
0.477832 0.992905 0.051569
0.548366 0.992434 0.051076
0.618843 0.991960 0.050582
0.688742 0.991485 0.050086
0.757539 0.991007 0.049589
0.824704 0.990529 0.049091
0.889703 0.990048 0.048591
0.951999 0.989566 0.048091
1.000000 0.989154 0.047663
1.000000 0.989154 0.047663
0.049992 0.035596 0.135173
0.107463 0.035140 0.134679
0.168534 0.034675 0.134177
0.232508 0.034205 0.133668
0.298820 0.033731 0.133155
0.366942 0.033254 0.132639
0.436356 0.032775 0.132120
0.506550 0.032293 0.131598
0.577008 0.031809 0.131075
0.647211 0.031324 0.130549
0.716637 0.030837 0.130022
0.784758 0.030349 0.129493
0.851045 0.029860 0.128963
0.914962 0.029369 0.128431
0.975968 0.028878 0.127899
1.000000 0.028458 0.127443
1.000000 0.028458 0.127443
0.048452 0.090688 0.133529
0.105850 0.090209 0.133036
0.166857 0.089722 0.132534
0.230779 0.089229 0.132026
0.297050 0.088732 0.131514
0.365142 0.088232 0.130998
0.434539 0.087729 0.130479
0.504728 0.087223 0.129958
0.575193 0.086716 0.129435
0.645415 0.086206 0.128910
0.714874 0.085695 0.128383
0.783041 0.085183 0.127855
0.849386 0.084669 0.127326
0.913373 0.084155 0.126795
0.974464 0.083639 0.126263
1.000000 0.083198 0.125808
1.000000 0.083198 0.125808
0.046919 0.148025 0.131892
0.104243 0.147527 0.131400
0.165187 0.147021 0.130898
0.229056 0.146508 0.130391
0.295286 0.145991 0.129879
0.363348 0.145471 0.129364
0.432728 0.144947 0.128846
0.502911 0.144422 0.128325
0.573383 0.143894 0.127802
0.643625 0.143364 0.127278
0.713115 0.142832 0.126752
0.781327 0.142299 0.126224
0.847730 0.141765 0.125695
0.911788 0.141229 0.125165
0.972962 0.140692 0.124634
1.000000 0.140233 0.124179
1.000000 0.140233 0.124179
0.045391 0.207300 0.130260
0.102642 0.206787 0.129768
0.163522 0.206264 0.129267
0.227338 0.205735 0.128760
0.293526 0.205201 0.128249
0.361559 0.204664 0.127734
0.430921 0.204124 0.127217
0.501098 0.203581 0.126697
0.571576 0.203036 0.126175
0.641837 0.202489 0.125651
0.711359 0.201940 0.125125
0.779615 0.201389 0.124598
0.846075 0.200837 0.124070
0.910203 0.200284 0.123540
0.971461 0.199729 0.123009
1.000000 0.199255 0.122555
1.000000 0.199255 0.122555
0.043868 0.268174 0.128632
0.101044 0.267648 0.128140
0.161861 0.267112 0.127640
0.225624 0.266570 0.127134
0.291770 0.266023 0.126623
0.359773 0.265472 0.126109
0.429116 0.264918 0.125592
0.499287 0.264361 0.125072
0.569772 0.263802 0.124551
0.640052 0.263241 0.124028
0.709605 0.262678 0.123503
0.777905 0.262114 0.122976
0.844421 0.261548 0.122448
0.908619 0.260980 0.121919
0.969959 0.260411 0.121389
1.000000 0.259925 0.120935
1.000000 0.259925 0.120935
0.042348 0.330300 0.127007
0.099451 0.329764 0.126516
0.160203 0.329218 0.126016
0.223913 0.328666 0.125511
0.290017 0.328109 0.125000
0.357989 0.327547 0.124487
0.427314 0.326983 0.123970
0.497479 0.326416 0.123452
0.567969 0.325847 0.122931
0.638267 0.325275 0.122408
0.707851 0.324701 0.121883
0.776195 0.324126 0.121357
0.842768 0.323549 0.120830
0.907035 0.322971 0.120302
0.968457 0.322391 0.119772
1.000000 0.321895 0.119319
1.000000 0.321895 0.119319
0.040831 0.393328 0.125386
0.097860 0.392785 0.124895
0.158548 0.392233 0.124396
0.222204 0.391673 0.123891
0.288266 0.391109 0.123381
0.356207 0.390541 0.122868
0.425513 0.389969 0.122352
0.495672 0.389395 0.121834
0.566168 0.388818 0.121314
0.636484 0.388239 0.120791
0.706098 0.387658 0.120267
0.774485 0.387075 0.119742
0.841114 0.386491 0.119215
0.905450 0.385905 0.118687
0.966955 0.385318 0.118158
1.000000 0.384815 0.117706
1.000000 0.384815 0.117706
0.039318 0.456907 0.123767
0.096273 0.456360 0.123277
0.156896 0.455804 0.122778
0.220498 0.455241 0.122274
0.286517 0.454673 0.121765
0.354428 0.454101 0.121252
0.423715 0.453525 0.120737
0.493866 0.452947 0.120219
0.564367 0.452366 0.119699
0.634701 0.451783 0.119178
0.704346 0.451198 0.118654
0.772776 0.450611 0.118130
0.839460 0.450022 0.117604
0.903865 0.449432 0.117076
0.965451 0.448840 0.116548
1.000000 0.448334 0.116096
1.000000 0.448334 0.116096
0.037808 0.520685 0.122151
0.094688 0.520138 0.121662
0.155246 0.519581 0.121164
0.218794 0.519017 0.120660
0.284771 0.518448 0.120151
0.352650 0.517876 0.119639
0.421918 0.517299 0.119125
0.492061 0.516720 0.118607
0.562568 0.516139 0.118088
0.632919 0.515555 0.117567
0.702593 0.514969 0.117044
0.771066 0.514381 0.116520
0.837806 0.513791 0.115995
0.902279 0.513200 0.115468
0.963945 0.512607 0.114940
1.000000 0.512100 0.114488
1.000000 0.512100 0.114488
0.036302 0.584310 0.120538
0.093106 0.583766 0.120050
0.153599 0.583212 0.119552
0.217093 0.582650 0.119048
0.283026 0.582084 0.118540
0.350874 0.581514 0.118029
0.420122 0.580940 0.117515
0.490258 0.580364 0.116998
0.560769 0.579785 0.116480
0.631137 0.579203 0.115959
0.700841 0.578620 0.115437
0.769356 0.578034 0.114913
0.836151 0.577447 0.114388
0.900691 0.576858 0.113862
0.962439 0.576268 0.113335
1.000000 0.575763 0.112884
1.000000 0.575763 0.112884
0.034798 0.647433 0.118928
0.091527 0.646894 0.118440
0.151955 0.646345 0.117942
0.215394 0.645790 0.117439
0.281284 0.645229 0.116932
0.349099 0.644665 0.116421
0.418327 0.644097 0.115908
0.488455 0.643526 0.115392
0.558971 0.642952 0.114874
0.629355 0.642377 0.114354
0.699089 0.641799 0.113832
0.767645 0.641219 0.113309
0.834495 0.640637 0.112785
0.899103 0.640054 0.112259
0.960931 0.639470 0.111732
1.000000 0.638969 0.111282
1.000000 0.638969 0.111282
0.033297 0.709701 0.117320
0.089951 0.709171 0.116832
0.150313 0.708631 0.116336
0.213697 0.708084 0.115833
0.279543 0.707533 0.115326
0.347326 0.706977 0.114816
0.416534 0.706418 0.114303
0.486654 0.705856 0.113788
0.557173 0.705291 0.113270
0.627574 0.704725 0.112751
0.697337 0.704156 0.112230
0.765935 0.703585 0.111707
0.832838 0.703012 0.111183
0.897514 0.702438 0.110658
0.959422 0.701862 0.110132
1.000000 0.701369 0.109682
1.000000 0.701369 0.109682
0.031799 0.770765 0.115715
0.088377 0.770246 0.115227
0.148673 0.769718 0.114731
0.212002 0.769183 0.114229
0.277804 0.768644 0.113723
0.345555 0.768100 0.113213
0.414742 0.767553 0.112701
0.484853 0.767003 0.112186
0.555376 0.766451 0.111669
0.625793 0.765896 0.111150
0.695584 0.765339 0.110630
0.764223 0.764781 0.110108
0.831181 0.764220 0.109585
0.895923 0.763658 0.109060
0.957911 0.763095 0.108535
1.000000 0.762612 0.108085
1.000000 0.762612 0.108085
0.030303 0.830273 0.114111
0.086805 0.829769 0.113625
0.147035 0.829256 0.113129
0.210309 0.828736 0.112628
0.276066 0.828212 0.112122
0.343785 0.827683 0.111613
0.412951 0.827152 0.111101
0.483053 0.826617 0.110587
0.553579 0.826080 0.110070
0.624012 0.825541 0.109552
0.693831 0.825000 0.109032
0.762512 0.824457 0.108511
0.829523 0.823912 0.107989
0.894331 0.823365 0.107465
0.956398 0.822817 0.106940
1.000000 0.822348 0.106491
1.000000 0.822348 0.106491
0.028811 0.887877 0.112511
0.085237 0.887391 0.112025
0.145400 0.886895 0.111529
0.208618 0.886394 0.111029
0.274331 0.885887 0.110524
0.342016 0.885378 0.110015
0.411161 0.884864 0.109504
0.481254 0.884348 0.108990
0.551783 0.883830 0.108474
0.622231 0.883310 0.107957
0.692079 0.882787 0.107437
0.760799 0.882262 0.106917
0.827864 0.881736 0.106395
0.892738 0.881208 0.105871
0.954884 0.880679 0.105347
1.000000 0.880226 0.104899
1.000000 0.880226 0.104899
0.027321 0.943226 0.110912
0.083670 0.942760 0.110427
0.143767 0.942286 0.109932
0.206928 0.941806 0.109432
0.272596 0.941321 0.108927
0.340248 0.940833 0.108419
0.409372 0.940341 0.107909
0.479455 0.939847 0.107396
0.549987 0.939350 0.106880
0.620451 0.938852 0.106363
0.690325 0.938351 0.105845
0.759086 0.937849 0.105325
0.826204 0.937344 0.104803
0.891144 0.936839 0.104281
0.953369 0.936331 0.103757
1.000000 0.935897 0.103309
1.000000 0.935897 0.103309
0.025834 0.995971 0.109316
0.082106 0.995529 0.108831
0.142136 0.995079 0.108337
0.205241 0.994623 0.107838
0.270864 0.994163 0.107334
0.338482 0.993699 0.106826
0.407584 0.993233 0.106316
0.477658 0.992764 0.105804
0.548192 0.992292 0.105289
0.618670 0.991819 0.104772
0.688572 0.991343 0.104254
0.757373 0.990866 0.103735
0.824543 0.990387 0.103214
0.889548 0.989907 0.102692
0.951851 0.989425 0.102169
1.000000 0.989012 0.101721
1.000000 0.989012 0.101721
0.049850 0.035455 0.190654
0.107314 0.034999 0.190145
0.168379 0.034535 0.189626
0.232348 0.034065 0.189101
0.298657 0.033591 0.188572
0.366775 0.033114 0.188039
0.436188 0.032635 0.187503
0.506382 0.032153 0.186965
0.576840 0.031669 0.186424
0.647045 0.031184 0.185881
0.716474 0.030697 0.185337
0.784600 0.030209 0.184791
0.850892 0.029720 0.184244
0.914815 0.029230 0.183695
0.975829 0.028738 0.183145
1.000000 0.028318 0.182675
1.000000 0.028318 0.182675
