assets/luts/oak_brass.cube
# Дуб и латунь — старое дерево, латунные блики
TITLE "oak_brass"
LUT_3D_SIZE 17
DOMAIN_MIN 0.0 0.0 0.0
DOMAIN_MAX 1.0 1.0 1.0
0.043650 0.035490 0.027009
0.104391 0.034327 0.025854
0.167865 0.033158 0.024693
0.233560 0.031986 0.023529
0.301021 0.030812 0.022363
0.369809 0.029637 0.021196
0.439491 0.028460 0.020028
0.509637 0.027284 0.018860
0.579814 0.026106 0.017691
0.649594 0.024929 0.016522
0.718544 0.023751 0.015353
0.786232 0.022574 0.014184
0.852225 0.021397 0.013015
0.916090 0.020220 0.011847
0.977391 0.019043 0.010679
1.000000 0.017867 0.009511
1.000000 0.017261 0.008910
0.039835 0.091221 0.023246
0.100412 0.090010 0.022094
0.163745 0.088793 0.020937
0.229325 0.087572 0.019777
0.296697 0.086349 0.018615
0.365422 0.085125 0.017451
0.435068 0.083899 0.016287
0.505203 0.082673 0.015122
0.575397 0.081446 0.013957
0.645219 0.080218 0.012792
0.714238 0.078991 0.011627
0.782022 0.077763 0.010462
0.848138 0.076535 0.009297
0.912152 0.075307 0.008132
0.973630 0.074080 0.006968
1.000000 0.072852 0.005804
1.000000 0.072220 0.005205
0.035984 0.149779 0.019447
0.096392 0.148526 0.018299
0.159582 0.147267 0.017146
0.225044 0.146004 0.015989
0.292324 0.144738 0.014831
0.360984 0.143471 0.013671
0.430590 0.142202 0.012511
0.500713 0.140932 0.011350
0.570922 0.139662 0.010189
0.640785 0.138390 0.009027
0.709872 0.137119 0.007866
0.777752 0.135847 0.006705
0.843990 0.134575 0.005544
0.908154 0.133303 0.004383
0.969809 0.132031 0.003223
1.000000 0.130758 0.002063
1.000000 0.130103 0.001466
0.032115 0.210614 0.015631
0.092352 0.209326 0.014487
0.155395 0.208031 0.013338
0.220737 0.206732 0.012185
0.287923 0.205431 0.011031
0.356515 0.204127 0.009875
0.426080 0.202822 0.008719
0.496189 0.201516 0.007562
0.566411 0.200209 0.006404
0.636314 0.198901 0.005247
0.705469 0.197592 0.004090
0.773442 0.196283 0.002933
0.839802 0.194973 0.001776
0.904115 0.193663 0.000619
0.965946 0.192353 0.000000
1.000000 0.191043 0.000000
1.000000 0.190368 0.000000
0.028238 0.273301 0.011808
0.088300 0.271985 0.010668
0.151194 0.270662 0.009522
0.216413 0.269334 0.008374
0.283502 0.268004 0.007223
0.352025 0.266671 0.006071
0.421548 0.265337 0.004919
0.491640 0.264001 0.003766
0.561873 0.262664 0.002612
0.631815 0.261326 0.001459
0.701035 0.259987 0.000306
0.769102 0.258647 0.000000
0.835583 0.257307 0.000000
0.900044 0.255967 0.000000
0.962050 0.254626 0.000000
1.000000 0.253284 0.000000
1.000000 0.252593 0.000000
0.024357 0.337451 0.007981
0.084242 0.336113 0.006845
0.146985 0.334769 0.005703
0.212078 0.333419 0.004558
0.279069 0.332067 0.003412
0.347519 0.330712 0.002264
0.416997 0.329355 0.001116
0.487073 0.327997 0.000000
0.557315 0.326637 0.000000
0.627293 0.325276 0.000000
0.696578 0.323914 0.000000
0.764737 0.322551 0.000000
0.831337 0.321187 0.000000
0.895944 0.319823 0.000000
0.958126 0.318459 0.000000
1.000000 0.317093 0.000000
1.000000 0.316390 0.000000
0.020474 0.402683 0.004154
0.080180 0.401332 0.003022
0.142769 0.399973 0.001884
0.207735 0.398609 0.000743
0.274625 0.397242 0.000000
0.343002 0.395872 0.000000
0.412433 0.394500 0.000000
0.482489 0.393126 0.000000
0.552739 0.391750 0.000000
0.622753 0.390374 0.000000
0.692100 0.388996 0.000000
0.760349 0.387617 0.000000
0.827067 0.386237 0.000000
0.891820 0.384857 0.000000
0.954175 0.383475 0.000000
1.000000 0.382093 0.000000
1.000000 0.381381 0.000000
0.016593 0.468626 0.000329
0.076117 0.467268 0.000000
0.138551 0.465901 0.000000
0.203387 0.464530 0.000000
0.270174 0.463155 0.000000
0.338475 0.461777 0.000000
0.407858 0.460397 0.000000
0.477892 0.459015 0.000000
0.548147 0.457632 0.000000
0.618195 0.456246 0.000000
0.687603 0.454860 0.000000
0.755941 0.453472 0.000000
0.822776 0.452084 0.000000
0.887673 0.450694 0.000000
0.950200 0.449304 0.000000
1.000000 0.447912 0.000000
1.000000 0.447195 0.000000
0.012715 0.534907 0.000000
0.072055 0.533549 0.000000
0.134330 0.532182 0.000000
0.199035 0.530811 0.000000
0.265718 0.529436 0.000000
0.333941 0.528057 0.000000
0.403272 0.526677 0.000000
0.473283 0.525294 0.000000
0.543543 0.523909 0.000000
0.613622 0.522523 0.000000
0.683090 0.521135 0.000000
0.751515 0.519746 0.000000
0.818465 0.518356 0.000000
0.883505 0.516965 0.000000
0.946203 0.515572 0.000000
1.000000 0.514179 0.000000
1.000000 0.513461 0.000000
0.008841 0.601155 0.000000
0.067995 0.599804 0.000000
0.130110 0.598444 0.000000
0.194681 0.597080 0.000000
0.261257 0.595712 0.000000
0.329400 0.594340 0.000000
0.398679 0.592966 0.000000
0.468665 0.591590 0.000000
0.538927 0.590212 0.000000
0.609036 0.588832 0.000000
0.678562 0.587451 0.000000
0.747073 0.586068 0.000000
0.814135 0.584683 0.000000
0.879318 0.583298 0.000000
0.942185 0.581911 0.000000
1.000000 0.580523 0.000000
1.000000 0.579807 0.000000
0.004972 0.666996 0.000000
0.063939 0.665660 0.000000
0.125891 0.664315 0.000000
0.190326 0.662965 0.000000
0.256793 0.661611 0.000000
0.324854 0.660254 0.000000
0.394079 0.658894 0.000000
0.464037 0.657532 0.000000
0.534300 0.656168 0.000000
0.604438 0.654802 0.000000
0.674020 0.653434 0.000000
0.742614 0.652064 0.000000
0.809789 0.650693 0.000000
0.875111 0.649320 0.000000
0.938146 0.647947 0.000000
0.998459 0.646571 0.000000
1.000000 0.645862 0.000000
0.001110 0.732058 0.000000
0.059886 0.730743 0.000000
0.121674 0.729421 0.000000
0.185972 0.728093 0.000000
0.252327 0.726761 0.000000
0.320305 0.725425 0.000000
0.389473 0.724087 0.000000
0.459403 0.722746 0.000000
0.529664 0.721403 0.000000
0.599828 0.720058 0.000000
0.669465 0.718711 0.000000
0.738141 0.717363 0.000000
0.805426 0.716012 0.000000
0.870886 0.714661 0.000000
0.934088 0.713307 0.000000
0.994596 0.711952 0.000000
1.000000 0.711254 0.000000
0.000000 0.795965 0.000000
0.055839 0.794680 0.000000
0.117461 0.793386 0.000000
0.181618 0.792088 0.000000
0.247860 0.790785 0.000000
0.315752 0.789479 0.000000
0.384862 0.788170 0.000000
0.454761 0.786858 0.000000
0.525019 0.785544 0.000000
0.595208 0.784227 0.000000
0.664897 0.782909 0.000000
0.733654 0.781589 0.000000
0.801048 0.780267 0.000000
0.866645 0.778943 0.000000
0.930011 0.777618 0.000000
0.990712 0.776291 0.000000
1.000000 0.775607 0.000000
0.000000 0.858340 0.000000
0.051797 0.857092 0.000000
0.113250 0.855836 0.000000
0.177265 0.854574 0.000000
0.243393 0.853308 0.000000
0.311197 0.852038 0.000000
0.380247 0.850766 0.000000
0.450113 0.849491 0.000000
0.520367 0.848213 0.000000
0.590578 0.846933 0.000000
0.660318 0.845651 0.000000
0.729154 0.844367 0.000000
0.796654 0.843081 0.000000
0.862386 0.841793 0.000000
0.925916 0.840503 0.000000
0.986808 0.839212 0.000000
1.000000 0.838546 0.000000
0.000000 0.918808 0.000000
0.047762 0.917604 0.000000
0.109044 0.916392 0.000000
0.172916 0.915174 0.000000
0.238926 0.913952 0.000000
0.306640 0.912727 0.000000
0.375628 0.911499 0.000000
0.445459 0.910267 0.000000
0.515706 0.909034 0.000000
0.585939 0.907797 0.000000
0.655728 0.906559 0.000000
0.724641 0.905319 0.000000
0.792247 0.904076 0.000000
0.858112 0.902831 0.000000
0.921803 0.901585 0.000000
0.982885 0.900337 0.000000
1.000000 0.899693 0.000000
0.000000 0.976987 0.000000
0.043734 0.975834 0.000000
0.104843 0.974674 0.000000
0.168568 0.973509 0.000000
0.234460 0.972339 0.000000
0.302082 0.971165 0.000000
0.371006 0.969988 0.000000
0.440801 0.968809 0.000000
0.511039 0.967627 0.000000
0.581292 0.966442 0.000000
0.651127 0.965255 0.000000
0.720116 0.964066 0.000000
0.787825 0.962874 0.000000
0.853822 0.961681 0.000000
0.917673 0.960485 0.000000
0.978944 0.959288 0.000000
1.000000 0.958670 0.000000
0.000000 1.000000 0.000000
0.040365 1.000000 0.000000
0.101328 1.000000 0.000000
0.164929 1.000000 0.000000
0.230719 1.000000 0.000000
0.298263 1.000000 0.000000
0.367131 1.000000 0.000000
0.436895 1.000000 0.000000
0.507124 1.000000 0.000000
0.577391 1.000000 0.000000
0.647265 1.000000 0.000000
0.716316 1.000000 0.000000
0.784110 1.000000 0.000000
0.850216 1.000000 0.000000
0.914200 1.000000 0.000000
0.975627 1.000000 0.000000
1.000000 1.000000 0.000000
0.043253 0.035096 0.087678
0.103977 0.033933 0.086470
0.167436 0.032765 0.085255
0.233119 0.031593 0.084037
0.300571 0.030419 0.082817
0.369353 0.029244 0.081595
0.439032 0.028068 0.080373
0.509176 0.026892 0.079149
0.579356 0.025715 0.077925
0.649140 0.024538 0.076700
0.718097 0.023361 0.075476
0.785795 0.022184 0.074251
0.851801 0.021007 0.073026
0.915681 0.019831 0.071801
0.977001 0.018654 0.070577
1.000000 0.017478 0.069352
1.000000 0.016873 0.068722
0.039439 0.090811 0.083740
0.099999 0.089600 0.082535
0.163317 0.088383 0.081324
0.228885 0.087163 0.080109
0.296248 0.085940 0.078892
0.364967 0.084716 0.077674
0.434608 0.083491 0.076454
0.504742 0.082265 0.075234
0.574938 0.081038 0.074013
0.644764 0.079811 0.072792
0.713790 0.078583 0.071571
0.781584 0.077356 0.070349
0.847713 0.076129 0.069128
0.911742 0.074901 0.067906
0.973238 0.073674 0.066685
1.000000 0.072447 0.065464
1.000000 0.071815 0.064835
0.035589 0.149354 0.079764
0.095980 0.148102 0.078562
0.159155 0.146843 0.077354
0.224605 0.145580 0.076142
0.291875 0.144314 0.074929
0.360528 0.143047 0.073714
0.430131 0.141779 0.072497
0.500252 0.140509 0.071280
0.570462 0.139239 0.070063
0.640330 0.137968 0.068845
0.709424 0.136697 0.067627
0.777313 0.135426 0.066409
0.843564 0.134154 0.065191
0.907743 0.132882 0.063973
0.969416 0.131610 0.062755
1.000000 0.130338 0.061537
1.000000 0.129683 0.060910
0.031722 0.210177 0.075768
0.091941 0.208890 0.074569
0.154969 0.207595 0.073364
0.220298 0.206297 0.072156
0.287475 0.204995 0.070946
0.356060 0.203692 0.069734
0.425621 0.202387 0.068521
0.495729 0.201081 0.067308
0.565951 0.199774 0.066094
0.635859 0.198466 0.064879
0.705020 0.197158 0.063665
0.773003 0.195849 0.062450
0.839375 0.194540 0.061235
0.903703 0.193230 0.060021
0.965552 0.191920 0.058806
1.000000 0.190610 0.057592
1.000000 0.189935 0.056967
0.027846 0.272855 0.071761
0.087890 0.271539 0.070565
0.150769 0.270216 0.069364
0.215976 0.268889 0.068159
0.283055 0.267559 0.066952
0.351570 0.266226 0.065744
0.421089 0.264892 0.064535
0.491180 0.263556 0.063324
0.561413 0.262219 0.062114
0.631359 0.260881 0.060903
0.700586 0.259543 0.059692
0.768662 0.258203 0.058481
0.835155 0.256863 0.057269
0.899631 0.255523 0.056058
0.961655 0.254182 0.054848
1.000000 0.252841 0.053637
1.000000 0.252150 0.053013
0.023966 0.336997 0.067748
0.083833 0.335660 0.066556
0.146561 0.334316 0.065358
0.211641 0.332966 0.064156
0.278622 0.331614 0.062953
0.347065 0.330259 0.061748
0.416539 0.328903 0.060542
0.486612 0.327544 0.059336
0.556855 0.326185 0.058128
0.626837 0.324824 0.056921
0.696128 0.323462 0.055713
0.764296 0.322099 0.054506
0.830908 0.320736 0.053298
0.895531 0.319372 0.052091
0.957729 0.318007 0.050884
1.000000 0.316642 0.049677
1.000000 0.315939 0.049055
0.020085 0.402225 0.063732
0.079772 0.400874 0.062543
0.142346 0.399515 0.061349
0.207299 0.398151 0.060151
0.274179 0.396784 0.058951
0.342548 0.395414 0.057750
0.411975 0.394042 0.056547
0.482028 0.392668 0.055344
0.552279 0.391293 0.054141
0.622296 0.389916 0.052937
0.691650 0.388539 0.051733
0.759908 0.387160 0.050529
0.826637 0.385780 0.049325
0.891405 0.384400 0.048121
0.953777 0.383018 0.046917
1.000000 0.381637 0.045714
1.000000 0.380924 0.045094
0.016205 0.468166 0.059716
0.075711 0.466807 0.058531
0.138129 0.465441 0.057340
0.202952 0.464070 0.056145
0.269729 0.462695 0.054949
0.338022 0.461317 0.053751
0.407399 0.459937 0.052552
0.477431 0.458555 0.051353
0.547687 0.457171 0.050153
0.617738 0.455786 0.048953
0.687153 0.454400 0.047752
0.755499 0.453012 0.046552
0.822345 0.451624 0.045351
0.887257 0.450234 0.044151
0.949802 0.448844 0.042951
1.000000 0.447452 0.041752
1.000000 0.446735 0.041134
0.012328 0.534447 0.055701
0.071650 0.533088 0.054519
0.133909 0.531722 0.053332
0.198601 0.530350 0.052141
0.265273 0.528975 0.050948
0.333488 0.527597 0.049754
0.402814 0.526216 0.048559
0.472823 0.524833 0.047363
0.543083 0.523449 0.046167
0.613165 0.522063 0.044970
0.682639 0.520675 0.043773
0.751073 0.519286 0.042577
0.818033 0.517896 0.041380
0.883088 0.516504 0.040184
0.945803 0.515112 0.038988
1.000000 0.513718 0.037792
1.000000 0.513000 0.037176
0.008455 0.600697 0.051689
0.067591 0.599346 0.050511
0.129690 0.597986 0.049327
0.194248 0.596622 0.048140
0.260812 0.595254 0.046951
0.328947 0.593882 0.045760
0.398221 0.592508 0.044568
0.468204 0.591132 0.043376
0.538467 0.589754 0.042184
0.608579 0.588374 0.040991
0.678110 0.586992 0.039798
0.746629 0.585609 0.038605
0.813703 0.584225 0.037412
0.878900 0.582839 0.036219
0.941784 0.581452 0.035027
1.000000 0.580064 0.033835
1.000000 0.579348 0.033221
0.004588 0.666543 0.047681
0.063536 0.665207 0.046506
0.125472 0.663862 0.045326
0.189894 0.662512 0.044142
0.256349 0.661158 0.042957
0.324402 0.659801 0.041770
0.393621 0.658441 0.040582
0.463577 0.657079 0.039394
0.533840 0.655714 0.038205
0.603981 0.654348 0.037016
0.673568 0.652980 0.035826
0.742170 0.651610 0.034637
0.809356 0.650239 0.033448
0.874692 0.648866 0.032259
0.937744 0.647492 0.031071
0.998076 0.646117 0.029883
1.000000 0.645408 0.029271
0.000727 0.731612 0.043677
0.059485 0.730298 0.042506
0.121256 0.728975 0.041330
0.185540 0.727647 0.040150
0.251884 0.726314 0.038968
0.319853 0.724979 0.037785
0.389016 0.723641 0.036601
0.458942 0.722300 0.035416
0.529204 0.720957 0.034231
0.599371 0.719611 0.033046
0.669012 0.718264 0.031860
0.737697 0.716915 0.030675
0.804993 0.715565 0.029490
0.870466 0.714213 0.028305
0.933684 0.712859 0.027120
0.994211 0.711504 0.025936
1.000000 0.710806 0.025326
0.000000 0.795529 0.039679
0.055438 0.794244 0.038512
0.117043 0.792950 0.037339
0.181187 0.791652 0.036163
0.247418 0.790349 0.034985
0.315301 0.789042 0.033806
0.384405 0.787733 0.032625
0.454301 0.786421 0.031445
0.524559 0.785106 0.030263
0.594750 0.783790 0.029082
0.664444 0.782471 0.027900
0.733209 0.781151 0.026719
0.800613 0.779829 0.025537
0.866224 0.778505 0.024356
0.929606 0.777179 0.023175
0.990326 0.775852 0.021995
1.000000 0.775168 0.021387
0.000000 0.857918 0.035688
0.051398 0.856669 0.034524
0.112834 0.855412 0.033355
0.176835 0.854150 0.032183
0.242951 0.852884 0.031009
0.310746 0.851614 0.029833
0.379790 0.850341 0.028657
0.449653 0.849066 0.027480
0.519906 0.847788 0.026302
0.590120 0.846508 0.025124
0.659864 0.845225 0.023947
0.728708 0.843941 0.022769
0.796219 0.842654 0.021592
0.861964 0.841366 0.020415
0.925510 0.840076 0.019238
0.986421 0.838785 0.018061
1.000000 0.838118 0.017455
0.000000 0.918400 0.031703
0.047364 0.917195 0.030544
0.108629 0.915983 0.029378
0.172486 0.914765 0.028210
0.238485 0.913543 0.027039
0.306190 0.912317 0.025868
0.375171 0.911089 0.024695
0.445000 0.909857 0.023522
0.515246 0.908623 0.022348
0.585481 0.907387 0.021175
0.655274 0.906148 0.020001
0.724195 0.904907 0.018827
0.791811 0.903664 0.017654
0.857689 0.902419 0.016481
0.921396 0.901173 0.015308
0.982497 0.899924 0.014135
1.000000 0.899280 0.013531
0.000000 0.976596 0.027726
0.043337 0.975444 0.026570
0.104429 0.974283 0.025409
0.168140 0.973117 0.024244
0.234019 0.971947 0.023078
0.301633 0.970773 0.021910
0.370550 0.969596 0.020741
0.440341 0.968416 0.019572
0.510579 0.967233 0.018402
0.580833 0.966048 0.017233
0.650673 0.964861 0.016063
0.719669 0.963671 0.014893
0.787388 0.962479 0.013724
0.853398 0.961285 0.012555
0.917265 0.960090 0.011386
0.978554 0.958892 0.010217
1.000000 0.958274 0.009616
0.000000 1.000000 0.024400
0.039969 1.000000 0.023248
0.100915 1.000000 0.022089
0.164501 1.000000 0.020928
0.230279 1.000000 0.019765
0.297814 1.000000 0.018600
0.366676 1.000000 0.017435
0.436435 1.000000 0.016269
0.506664 1.000000 0.015103
0.576932 1.000000 0.013936
0.646811 1.000000 0.012770
0.715868 1.000000 0.011604
0.783673 1.000000 0.010438
0.849792 1.000000 0.009272
0.913791 1.000000 0.008106
0.975236 1.000000 0.006941
1.000000 1.000000 0.006341
0.042876 0.034722 0.147557
0.103585 0.033560 0.146306
0.167030 0.032392 0.145048
0.232702 0.031220 0.143787
0.300145 0.030047 0.142523
0.368920 0.028872 0.141257
0.438596 0.027697 0.139990
0.508739 0.026521 0.138721
0.578920 0.025344 0.137452
0.648709 0.024167 0.136183
0.717672 0.022991 0.134913
0.785380 0.021814 0.133642
0.851398 0.020638 0.132372
0.915293 0.019461 0.131101
0.976631 0.018286 0.129830
1.000000 0.017110 0.128560
1.000000 0.016505 0.127905
0.039064 0.090422 0.143479
0.099607 0.089211 0.142231
0.162912 0.087995 0.140975
0.228469 0.086775 0.139717
0.295822 0.085552 0.138455
0.364535 0.084328 0.137192
0.434173 0.083103 0.135928
0.504305 0.081877 0.134662
0.574502 0.080651 0.133396
0.644333 0.079424 0.132129
0.713366 0.078197 0.130862
0.781169 0.076970 0.129594
0.847309 0.075743 0.128326
0.911353 0.074516 0.127059
0.972867 0.073289 0.125791
1.000000 0.072062 0.124523
1.000000 0.071430 0.123870
0.035215 0.148951 0.139358
0.095589 0.147699 0.138112
0.158750 0.146440 0.136860
0.224189 0.145178 0.135604
0.291450 0.143913 0.134345
0.360097 0.142646 0.133085
0.429695 0.141378 0.131823
0.499815 0.140109 0.130561
0.570027 0.138839 0.129297
0.639898 0.137568 0.128033
0.708999 0.136297 0.126769
0.776897 0.135026 0.125504
0.843160 0.133754 0.124240
0.907353 0.132483 0.122975
0.969043 0.131211 0.121710
1.000000 0.129939 0.120445
1.000000 0.129284 0.119793
0.031349 0.209763 0.135215
0.091551 0.208476 0.133972
0.154565 0.207182 0.132723
0.219883 0.205883 0.131469
0.287050 0.204582 0.130214
0.355628 0.203279 0.128956
0.425186 0.201975 0.127697
0.495292 0.200669 0.126437
0.565515 0.199362 0.125177
0.635427 0.198054 0.123916
0.704594 0.196746 0.122655
0.772586 0.195437 0.121393
0.838970 0.194128 0.120131
0.903313 0.192819 0.118869
0.965178 0.191509 0.117607
1.000000 0.190200 0.116345
1.000000 0.189525 0.115695
0.027474 0.272432 0.131059
0.087502 0.271117 0.129819
0.150366 0.269794 0.128572
0.215561 0.268467 0.127321
0.282631 0.267136 0.126069
0.351139 0.265804 0.124814
0.420654 0.264470 0.123558
0.490743 0.263134 0.122301
0.560978 0.261797 0.121044
0.630927 0.260460 0.119786
0.700160 0.259121 0.118527
0.768245 0.257782 0.117269
0.834749 0.256442 0.116010
0.899239 0.255102 0.114751
0.961280 0.253762 0.113492
1.000000 0.252421 0.112233
1.000000 0.251730 0.111585
0.023595 0.336568 0.126894
0.083446 0.335231 0.125657
0.146159 0.333886 0.124413
0.211227 0.332537 0.123165
0.278198 0.331185 0.121916
0.346635 0.329830 0.120664
0.416104 0.328473 0.119411
0.486175 0.327115 0.118157
0.556419 0.325756 0.116903
0.626405 0.324395 0.115648
0.695702 0.323033 0.114392
0.763878 0.321671 0.113137
0.830501 0.320308 0.111881
0.895138 0.318944 0.110625
0.957353 0.317579 0.109369
1.000000 0.316214 0.108113
1.000000 0.315511 0.107467
0.019716 0.401791 0.122724
0.079386 0.400440 0.121490
0.141945 0.399081 0.120249
0.206886 0.397717 0.119005
0.273756 0.396350 0.117758
0.342118 0.394980 0.116509
0.411540 0.393608 0.115259
0.481591 0.392234 0.114008
0.551842 0.390859 0.112757
0.621863 0.389483 0.111505
0.691223 0.388105 0.110253
0.759489 0.386726 0.109000
0.826230 0.385347 0.107747
0.891012 0.383966 0.106495
0.953400 0.382585 0.105242
1.000000 0.381203 0.103989
1.000000 0.380491 0.103344
0.015837 0.467729 0.118552
0.075325 0.466371 0.117321
0.137728 0.465004 0.116083
0.202539 0.463633 0.114841
0.269306 0.462258 0.113597
0.337592 0.460880 0.112352
0.406965 0.459500 0.111105
0.476994 0.458119 0.109857
0.547251 0.456735 0.108609
0.617305 0.455350 0.107360
0.686725 0.453964 0.106111
0.755080 0.452576 0.104861
0.821937 0.451187 0.103612
0.886863 0.449798 0.102362
0.949423 0.448407 0.101113
1.000000 0.447016 0.099864
1.000000 0.446299 0.099220
0.011961 0.534010 0.114379
0.071266 0.532652 0.113151
0.133510 0.531285 0.111916
0.198189 0.529914 0.110677
0.264851 0.528538 0.109437
0.333058 0.527160 0.108194
0.402380 0.525779 0.106950
0.472386 0.524397 0.105706
0.542647 0.523012 0.104461
0.612732 0.521626 0.103215
0.682211 0.520238 0.101969
0.750653 0.518849 0.100723
0.817624 0.517459 0.099476
0.882693 0.516067 0.098230
0.945424 0.514675 0.096984
1.000000 0.513281 0.095738
1.000000 0.512563 0.095096
0.008090 0.600263 0.110207
0.067208 0.598911 0.108981
0.129292 0.597552 0.107750
0.193837 0.596188 0.106514
0.260391 0.594819 0.105277
0.328518 0.593448 0.104037
0.397787 0.592074 0.102797
0.467768 0.590697 0.101555
0.538030 0.589319 0.100313
0.608145 0.587939 0.099071
0.677682 0.586557 0.097828
0.746209 0.585174 0.096585
0.813294 0.583789 0.095342
0.878503 0.582404 0.094099
0.941403 0.581017 0.092856
1.000000 0.579628 0.091613
1.000000 0.578913 0.090972
0.004224 0.666114 0.106036
0.063154 0.664777 0.104814
0.125075 0.663432 0.103585
0.189483 0.662082 0.102353
0.255928 0.660728 0.101119
0.323973 0.659371 0.099882
0.393187 0.658011 0.098645
0.463141 0.656648 0.097407
0.533404 0.655284 0.096168
0.603546 0.653917 0.094929
0.673139 0.652549 0.093689
0.741749 0.651179 0.092449
0.808945 0.649808 0.091209
0.874294 0.648435 0.089970
0.937362 0.647061 0.088730
0.997713 0.645685 0.087490
1.000000 0.644976 0.086852
0.000364 0.731190 0.101869
0.059104 0.729875 0.100649
0.120860 0.728552 0.099424
0.185130 0.727224 0.098195
0.251464 0.725891 0.096963
0.319425 0.724556 0.095730
0.388582 0.723217 0.094496
0.458506 0.721876 0.093261
0.528767 0.720533 0.092026
0.598936 0.719187 0.090790
0.668583 0.717840 0.089553
0.737275 0.716491 0.088317
0.804581 0.715141 0.087081
0.870068 0.713788 0.085844
0.933301 0.712435 0.084608
0.993846 0.711079 0.083372
1.000000 0.710381 0.082735
0.000000 0.795116 0.097704
0.055059 0.793831 0.096488
0.116648 0.792537 0.095266
0.180778 0.791238 0.094040
0.246998 0.789935 0.092812
0.314873 0.788628 0.091582
0.383972 0.787318 0.090352
0.453864 0.786006 0.089120
0.524122 0.784692 0.087888
0.594316 0.783375 0.086655
0.664014 0.782056 0.085422
0.732787 0.780736 0.084189
0.800201 0.779413 0.082956
0.865824 0.778089 0.081723
0.929222 0.776763 0.080490
0.989960 0.775436 0.079257
1.000000 0.774752 0.078622
0.000000 0.857516 0.093545
0.051019 0.856268 0.092332
0.112440 0.855011 0.091113
0.176427 0.853748 0.089890
0.242532 0.852482 0.088665
0.310319 0.851212 0.087439
0.379357 0.849939 0.086211
0.449217 0.848663 0.084983
0.519469 0.847385 0.083754
0.589685 0.846104 0.082525
0.659434 0.844821 0.081295
0.728285 0.843537 0.080065
0.795806 0.842250 0.078836
0.861564 0.840962 0.077606
0.925125 0.839671 0.076377
0.986054 0.838379 0.075147
1.000000 0.837713 0.074514
0.000000 0.918013 0.089390
0.046987 0.916808 0.088180
0.108236 0.915595 0.086964
0.172079 0.914377 0.085745
0.238066 0.913155 0.084524
0.305763 0.911929 0.083301
0.374739 0.910700 0.082076
0.444563 0.909468 0.080851
0.514809 0.908234 0.079626
0.585046 0.906997 0.078400
0.654843 0.905758 0.077174
0.723771 0.904517 0.075948
0.791397 0.903273 0.074721
0.857288 0.902028 0.073495
0.921010 0.900781 0.072269
0.982128 0.899532 0.071043
1.000000 0.898888 0.070412
0.000000 0.976226 0.085240
0.042961 0.975073 0.084034
0.104037 0.973912 0.082822
0.167734 0.972746 0.081606
0.233602 0.971575 0.080388
0.301206 0.970401 0.079168
0.370117 0.969223 0.077947
0.439905 0.968043 0.076726
0.510142 0.966860 0.075504
0.580398 0.965675 0.074281
0.650242 0.964487 0.073058
0.719245 0.963297 0.071836
0.786974 0.962105 0.070613
0.852996 0.960910 0.069390
0.916878 0.959714 0.068168
0.978184 0.958516 0.066945
1.000000 0.957898 0.066316
0.000000 1.000000 0.081769
0.039593 1.000000 0.080565
0.100523 1.000000 0.079355
0.164095 1.000000 0.078142
0.229862 1.000000 0.076927
0.297388 1.000000 0.075710
0.366243 1.000000 0.074492
0.435999 1.000000 0.073274
0.506227 1.000000 0.072054
0.576497 1.000000 0.070835
0.646379 1.000000 0.069615
0.715444 1.000000 0.068395
0.783258 1.000000 0.067175
0.849389 1.000000 0.065956
0.913403 1.000000 0.064736
0.974865 1.000000 0.063517
1.000000 1.000000 0.062889
0.042511 0.034359 0.207543
0.103204 0.033197 0.206256
0.166636 0.032029 0.204963
0.232296 0.030858 0.203666
0.299731 0.029685 0.202366
0.368501 0.028511 0.201064
0.438172 0.027336 0.199761
0.508315 0.026160 0.198456
0.578497 0.024984 0.197151
0.648290 0.023808 0.195844
0.717261 0.022631 0.194537
0.784977 0.021455 0.193230
0.851007 0.020279 0.191922
0.914917 0.019103 0.190614
0.976271 0.017927 0.189305
1.000000 0.016752 0.187997
1.000000 0.016147 0.187323
