assets/luts/oak_brass.cube
# Дуб и латунь — старое дерево, латунные блики
TITLE "oak_brass"
LUT_3D_SIZE 5
DOMAIN_MIN 0.0 0.0 0.0
DOMAIN_MAX 1.0 1.0 1.0
0.043650 0.035490 0.027009
0.301021 0.030812 0.022363
0.579814 0.026106 0.017691
0.852225 0.021397 0.013015
1.000000 0.017261 0.008910
0.028238 0.273301 0.011808
0.283502 0.268004 0.007223
0.561873 0.262664 0.002612
0.835583 0.257307 0.000000
1.000000 0.252593 0.000000
0.012715 0.534907 0.000000
0.265718 0.529436 0.000000
0.543543 0.523909 0.000000
0.818465 0.518356 0.000000
1.000000 0.513461 0.000000
0.000000 0.795965 0.000000
0.247860 0.790785 0.000000
0.525019 0.785544 0.000000
0.801048 0.780267 0.000000
1.000000 0.775607 0.000000
0.000000 1.000000 0.000000
0.230719 1.000000 0.000000
0.507124 1.000000 0.000000
0.784110 1.000000 0.000000
1.000000 1.000000 0.000000
0.042153 0.034004 0.267751
0.299326 0.029331 0.262463
0.578083 0.024631 0.257132
0.850624 0.019927 0.251785
1.000000 0.015797 0.247079
0.026760 0.271619 0.250402
0.281815 0.266325 0.245143
0.560139 0.260987 0.239842
0.833969 0.255633 0.234526
1.000000 0.250922 0.229849
0.011256 0.533171 0.232803
0.264039 0.527699 0.227577
0.541807 0.522172 0.222309
0.816838 0.516619 0.217027
1.000000 0.511723 0.212380
0.000000 0.794322 0.215148
0.246192 0.789139 0.209956
0.523282 0.783894 0.204724
0.799409 0.778614 0.199479
1.000000 0.773951 0.194865
0.000000 1.000000 0.198216
0.229060 1.000000 0.193059
0.505387 1.000000 0.187864
0.782460 1.000000 0.182656
1.000000 1.000000 0.178076
0.040770 0.032629 0.508593
0.297757 0.027962 0.503118
0.576481 0.023267 0.497589
0.849141 0.018569 0.492035
1.000000 0.014443 0.487139
0.025394 0.270063 0.490597
0.280255 0.264771 0.485122
0.558534 0.259436 0.479595
0.832473 0.254085 0.474042
1.000000 0.249376 0.469148
0.009908 0.531563 0.472240
0.262487 0.526091 0.466768
0.540201 0.520564 0.461244
0.815331 0.515011 0.455695
1.000000 0.510115 0.450805
0.000000 0.792800 0.453718
0.244648 0.787614 0.448251
0.521674 0.782366 0.442733
0.797890 0.777083 0.437190
1.000000 0.772417 0.432306
0.000000 1.000000 0.435853
0.227526 1.000000 0.430393
0.503778 1.000000 0.424882
0.780931 1.000000 0.419348
1.000000 1.000000 0.414472
0.039434 0.031303 0.740869
0.296243 0.026640 0.735586
0.574932 0.021951 0.730243
0.847707 0.017258 0.724866
1.000000 0.013137 0.720119
0.024075 0.268560 0.723473
0.278747 0.263270 0.718162
0.556984 0.257938 0.712792
0.831028 0.252589 0.707388
1.000000 0.247883 0.702618
0.008607 0.530010 0.705633
0.260987 0.524538 0.700296
0.538648 0.519011 0.694900
0.813874 0.513457 0.689472
1.000000 0.508561 0.684680
0.000000 0.791329 0.687536
0.243157 0.786140 0.682176
0.520121 0.780889 0.676756
0.796422 0.775603 0.671304
1.000000 0.770935 0.666493
0.000000 1.000000 0.669988
0.226044 1.000000 0.664607
0.502224 1.000000 0.659167
0.779453 1.000000 0.653695
1.000000 1.000000 0.648867
0.038131 0.030008 0.952248
0.294763 0.025350 0.947507
0.573418 0.020666 0.942703
0.846305 0.015978 0.937858
1.000000 0.011862 0.933574
0.022788 0.267092 0.936601
0.277275 0.261805 0.931805
0.555468 0.256475 0.926946
0.829614 0.251129 0.922047
1.000000 0.246424 0.917715
0.007337 0.528492 0.920453
0.259523 0.523019 0.915603
0.537131 0.517492 0.910690
0.812449 0.511938 0.905738
1.000000 0.507042 0.901359
0.000000 0.789891 0.903970
0.241701 0.784699 0.899067
0.518602 0.779445 0.894102
0.794987 0.774156 0.889098
1.000000 0.769485 0.884675
0.000000 1.000000 0.887889
0.224597 1.000000 0.882938
0.500706 1.000000 0.877925
0.778008 1.000000 0.872873
1.000000 1.000000 0.868409
