assets/luts/oak_brass.cube
# Дуб и латунь — старое дерево, латунные блики
TITLE "oak_brass"
LUT_3D_SIZE 9
DOMAIN_MIN 0.0 0.0 0.0
DOMAIN_MAX 1.0 1.0 1.0
0.043650 0.035490 0.027009
0.167865 0.033158 0.024693
0.301021 0.030812 0.022363
0.439491 0.028460 0.020028
0.579814 0.026106 0.017691
0.718544 0.023751 0.015353
0.852225 0.021397 0.013015
0.977391 0.019043 0.010679
1.000000 0.017261 0.008910
0.035984 0.149779 0.019447
0.159582 0.147267 0.017146
0.292324 0.144738 0.014831
0.430590 0.142202 0.012511
0.570922 0.139662 0.010189
0.709872 0.137119 0.007866
0.843990 0.134575 0.005544
0.969809 0.132031 0.003223
1.000000 0.130103 0.001466
0.028238 0.273301 0.011808
0.151194 0.270662 0.009522
0.283502 0.268004 0.007223
0.421548 0.265337 0.004919
0.561873 0.262664 0.002612
0.701035 0.259987 0.000306
0.835583 0.257307 0.000000
0.962050 0.254626 0.000000
1.000000 0.252593 0.000000
0.020474 0.402683 0.004154
0.142769 0.399973 0.001884
0.274625 0.397242 0.000000
0.412433 0.394500 0.000000
0.552739 0.391750 0.000000
0.692100 0.388996 0.000000
0.827067 0.386237 0.000000
0.954175 0.383475 0.000000
1.000000 0.381381 0.000000
0.012715 0.534907 0.000000
0.134330 0.532182 0.000000
0.265718 0.529436 0.000000
0.403272 0.526677 0.000000
0.543543 0.523909 0.000000
0.683090 0.521135 0.000000
0.818465 0.518356 0.000000
0.946203 0.515572 0.000000
1.000000 0.513461 0.000000
0.004972 0.666996 0.000000
0.125891 0.664315 0.000000
0.256793 0.661611 0.000000
0.394079 0.658894 0.000000
0.534300 0.656168 0.000000
0.674020 0.653434 0.000000
0.809789 0.650693 0.000000
0.938146 0.647947 0.000000
1.000000 0.645862 0.000000
0.000000 0.795965 0.000000
0.117461 0.793386 0.000000
0.247860 0.790785 0.000000
0.384862 0.788170 0.000000
0.525019 0.785544 0.000000
0.664897 0.782909 0.000000
0.801048 0.780267 0.000000
0.930011 0.777618 0.000000
1.000000 0.775607 0.000000
0.000000 0.918808 0.000000
0.109044 0.916392 0.000000
0.238926 0.913952 0.000000
0.375628 0.911499 0.000000
0.515706 0.909034 0.000000
0.655728 0.906559 0.000000
0.792247 0.904076 0.000000
0.921803 0.901585 0.000000
1.000000 0.899693 0.000000
0.000000 1.000000 0.000000
0.101328 1.000000 0.000000
0.230719 1.000000 0.000000
0.367131 1.000000 0.000000
0.507124 1.000000 0.000000
0.647265 1.000000 0.000000
0.784110 1.000000 0.000000
0.914200 1.000000 0.000000
1.000000 1.000000 0.000000
0.042876 0.034722 0.147557
0.167030 0.032392 0.145048
0.300145 0.030047 0.142523
0.438596 0.027697 0.139990
0.578920 0.025344 0.137452
0.717672 0.022991 0.134913
0.851398 0.020638 0.132372
0.976631 0.018286 0.129830
1.000000 0.016505 0.127905
0.035215 0.148951 0.139358
0.158750 0.146440 0.136860
0.291450 0.143913 0.134345
0.429695 0.141378 0.131823
0.570027 0.138839 0.129297
0.708999 0.136297 0.126769
0.843160 0.133754 0.124240
0.969043 0.131211 0.121710
1.000000 0.129284 0.119793
0.027474 0.272432 0.131059
0.150366 0.269794 0.128572
0.282631 0.267136 0.126069
0.420654 0.264470 0.123558
0.560978 0.261797 0.121044
0.700160 0.259121 0.118527
0.834749 0.256442 0.116010
0.961280 0.253762 0.113492
1.000000 0.251730 0.111585
0.019716 0.401791 0.122724
0.141945 0.399081 0.120249
0.273756 0.396350 0.117758
0.411540 0.393608 0.115259
0.551842 0.390859 0.112757
0.691223 0.388105 0.110253
0.826230 0.385347 0.107747
0.953400 0.382585 0.105242
1.000000 0.380491 0.103344
0.011961 0.534010 0.114379
0.133510 0.531285 0.111916
0.264851 0.528538 0.109437
0.402380 0.525779 0.106950
0.542647 0.523012 0.104461
0.682211 0.520238 0.101969
0.817624 0.517459 0.099476
0.945424 0.514675 0.096984
1.000000 0.512563 0.095096
0.004224 0.666114 0.106036
0.125075 0.663432 0.103585
0.255928 0.660728 0.101119
0.393187 0.658011 0.098645
0.533404 0.655284 0.096168
0.673139 0.652549 0.093689
0.808945 0.649808 0.091209
0.937362 0.647061 0.088730
1.000000 0.644976 0.086852
0.000000 0.795116 0.097704
0.116648 0.792537 0.095266
0.246998 0.789935 0.092812
0.383972 0.787318 0.090352
0.524122 0.784692 0.087888
0.664014 0.782056 0.085422
0.800201 0.779413 0.082956
0.929222 0.776763 0.080490
1.000000 0.774752 0.078622
0.000000 0.918013 0.089390
0.108236 0.915595 0.086964
0.238066 0.913155 0.084524
0.374739 0.910700 0.082076
0.514809 0.908234 0.079626
0.654843 0.905758 0.077174
0.791397 0.903273 0.074721
0.921010 0.900781 0.072269
1.000000 0.898888 0.070412
0.000000 1.000000 0.081769
0.100523 1.000000 0.079355
0.229862 1.000000 0.076927
0.366243 1.000000 0.074492
0.506227 1.000000 0.072054
0.646379 1.000000 0.069615
0.783258 1.000000 0.067175
0.913403 1.000000 0.064736
1.000000 1.000000 0.062889
0.042153 0.034004 0.267751
0.166249 0.031674 0.265116
0.299326 0.029331 0.262463
0.437757 0.026982 0.259800
0.578083 0.024631 0.257132
0.716857 0.022279 0.254459
0.850624 0.019927 0.251785
0.975918 0.017577 0.249108
1.000000 0.015797 0.247079
0.034497 0.148177 0.259136
0.157973 0.145667 0.256509
0.290633 0.143141 0.253862
0.428858 0.140607 0.251207
0.569189 0.138069 0.248546
0.708182 0.135528 0.245881
0.842383 0.132987 0.243214
0.968326 0.130444 0.240545
1.000000 0.128519 0.238522
0.026760 0.271619 0.250402
0.149592 0.268981 0.247782
0.281815 0.266325 0.245143
0.419817 0.263659 0.242495
0.560139 0.260987 0.239842
0.699341 0.258312 0.237186
0.833969 0.255633 0.234526
0.960559 0.252953 0.231865
1.000000 0.250922 0.229849
0.019006 0.400956 0.241616
0.141174 0.398246 0.239004
0.272943 0.395515 0.236373
0.410704 0.392774 0.233733
0.551004 0.390025 0.231088
0.690401 0.387271 0.228440
0.825446 0.384513 0.225789
0.952675 0.381752 0.223137
1.000000 0.379658 0.221126
0.011256 0.533171 0.232803
0.132742 0.530446 0.230199
0.264039 0.527699 0.227577
0.401545 0.524940 0.224945
0.541807 0.522172 0.222309
0.681388 0.519398 0.219669
0.816838 0.516619 0.217027
0.944694 0.513835 0.214383
1.000000 0.511723 0.212380
0.003524 0.665288 0.223978
0.124311 0.662606 0.221382
0.255119 0.659901 0.218768
0.392353 0.657183 0.216146
0.532564 0.654456 0.213518
0.672314 0.651721 0.210887
0.808156 0.648979 0.208254
0.936627 0.646232 0.205620
1.000000 0.644147 0.203623
0.000000 0.794322 0.215148
0.115888 0.791742 0.212561
0.246192 0.789139 0.209956
0.383138 0.786522 0.207343
0.523282 0.783894 0.204724
0.663188 0.781258 0.202103
0.799409 0.778614 0.199479
0.928484 0.775963 0.196854
1.000000 0.773951 0.194865
0.000000 0.917268 0.206321
0.107479 0.914850 0.203743
0.237262 0.912408 0.201147
0.373907 0.909952 0.198543
0.513969 0.907484 0.195934
0.654016 0.905007 0.193322
0.790602 0.902522 0.190708
0.920267 0.900029 0.188093
1.000000 0.898135 0.186111
0.000000 1.000000 0.198216
0.099770 1.000000 0.195646
0.229060 1.000000 0.193059
0.365413 1.000000 0.190464
0.505387 1.000000 0.187864
0.645550 1.000000 0.185261
0.782460 1.000000 0.182656
0.912656 1.000000 0.180051
1.000000 1.000000 0.178076
0.041454 0.033309 0.388490
0.165494 0.030981 0.385784
0.298533 0.028639 0.383058
0.436946 0.026291 0.380321
0.577273 0.023941 0.377578
0.716067 0.021591 0.374829
0.849875 0.019241 0.372076
0.975229 0.016891 0.369320
1.000000 0.015112 0.367230
0.033801 0.147429 0.379639
0.157220 0.144920 0.376937
0.289842 0.142394 0.374214
0.428047 0.139861 0.371481
0.568378 0.137324 0.368741
0.707390 0.134785 0.365996
0.841630 0.132244 0.363247
0.967632 0.129703 0.360496
1.000000 0.127778 0.358409
0.026069 0.270832 0.370652
0.148843 0.268195 0.367954
0.281026 0.265539 0.365236
0.419007 0.262874 0.362506
0.559328 0.260203 0.359771
0.698547 0.257528 0.357030
0.833213 0.254850 0.354285
0.959861 0.252171 0.351538
1.000000 0.250140 0.349454
0.018320 0.400148 0.361600
0.140428 0.397438 0.358905
0.272156 0.394708 0.356191
0.409895 0.391966 0.353466
0.550192 0.389218 0.350735
0.689606 0.386465 0.347998
0.824687 0.383707 0.345258
0.951972 0.380946 0.342516
1.000000 0.378853 0.340436
0.010575 0.532358 0.352506
0.132000 0.529633 0.349816
0.263254 0.526886 0.347106
0.400736 0.524127 0.344386
0.540995 0.521359 0.341659
0.680591 0.518585 0.338928
0.816076 0.515806 0.336193
0.943986 0.513022 0.333455
1.000000 0.510910 0.331379
0.002847 0.664488 0.343385
0.123571 0.661806 0.340700
0.254337 0.659101 0.337995
0.391546 0.656382 0.335280
0.531751 0.653655 0.332558
0.671516 0.650919 0.329832
0.807391 0.648177 0.327102
0.935916 0.645429 0.324369
1.000000 0.643344 0.322298
0.000000 0.793553 0.334247
0.115152 0.790972 0.331567
0.245411 0.788368 0.328867
0.382332 0.785750 0.326157
0.522470 0.783122 0.323440
0.662388 0.780485 0.320719
0.798641 0.777840 0.317995
0.927768 0.775189 0.315268
1.000000 0.773176 0.313201
0.000000 0.916548 0.325097
0.106747 0.914128 0.322422
0.236484 0.911685 0.319727
0.373101 0.909228 0.317023
0.513156 0.906759 0.314312
0.653214 0.904281 0.311597
0.789831 0.901794 0.308879
0.919548 0.899300 0.306158
1.000000 0.897405 0.304095
0.000000 1.000000 0.316683
0.099042 1.000000 0.314013
0.228284 1.000000 0.311324
0.364609 1.000000 0.308625
0.504574 1.000000 0.305919
0.644748 1.000000 0.303210
0.781687 1.000000 0.300497
0.911933 1.000000 0.297782
1.000000 1.000000 0.295723
0.040770 0.032629 0.508593
0.164755 0.030303 0.505866
0.297757 0.027962 0.503118
0.436153 0.025616 0.500358
0.576481 0.023267 0.497589
0.715295 0.020918 0.494815
0.849141 0.018569 0.492035
0.974553 0.016221 0.489250
1.000000 0.014443 0.487139
0.033121 0.146696 0.499669
0.156484 0.144188 0.496943
0.289068 0.141664 0.494194
0.427254 0.139132 0.491434
0.567585 0.136596 0.488666
0.706616 0.134057 0.485891
0.840893 0.131518 0.483112
0.966953 0.128977 0.480328
1.000000 0.127053 0.478217
0.025394 0.270063 0.490597
0.148110 0.267426 0.487870
0.280255 0.264771 0.485122
0.418215 0.262106 0.482362
0.558534 0.259436 0.479595
0.697771 0.256762 0.476821
0.832473 0.254085 0.474042
0.959177 0.251406 0.471259
1.000000 0.249376 0.469148
0.017648 0.399357 0.481445
0.139698 0.396648 0.478719
0.271386 0.393918 0.475972
0.409103 0.391177 0.473212
0.549398 0.388429 0.470445
0.688828 0.385675 0.467672
0.823945 0.382918 0.464894
0.951284 0.380158 0.462112
1.000000 0.378064 0.460002
0.009908 0.531563 0.472240
0.131274 0.528838 0.469515
0.262487 0.526091 0.466768
0.399946 0.523332 0.464010
0.540201 0.520564 0.461244
0.679812 0.517790 0.458471
0.815331 0.515011 0.455695
0.943295 0.512227 0.452914
1.000000 0.510115 0.450805
0.002185 0.663706 0.462995
0.122849 0.661023 0.460270
0.253571 0.658317 0.457525
0.390756 0.655599 0.454768
0.530957 0.652871 0.452003
0.670735 0.650135 0.449232
0.806643 0.647392 0.446457
0.935220 0.644644 0.443678
1.000000 0.642559 0.441570
0.000000 0.792800 0.453718
0.114433 0.790219 0.450995
0.244648 0.787614 0.448251
0.381543 0.784995 0.445496
0.521674 0.782366 0.442733
0.661605 0.779728 0.439964
0.797890 0.777083 0.437190
0.927068 0.774431 0.434413
1.000000 0.772417 0.432306
0.000000 0.915842 0.444418
0.106032 0.913421 0.441696
0.235723 0.910977 0.438954
0.372314 0.908519 0.436200
0.512361 0.906049 0.433439
0.652430 0.903570 0.430672
0.789078 0.901082 0.427900
0.918844 0.898586 0.425125
1.000000 0.896691 0.423020
0.000000 1.000000 0.435853
0.098329 1.000000 0.433134
0.227526 1.000000 0.430393
0.363822 1.000000 0.427641
0.503778 1.000000 0.424882
0.643962 1.000000 0.422117
0.780931 1.000000 0.419348
0.911226 1.000000 0.416575
1.000000 1.000000 0.414472
0.040097 0.031961 0.626570
0.164029 0.029636 0.623869
0.296995 0.027297 0.621146
0.435373 0.024952 0.618410
0.575701 0.022604 0.615665
0.714535 0.020256 0.612912
0.848420 0.017909 0.610153
0.973889 0.015562 0.607389
1.000000 0.013786 0.605291
0.032453 0.145977 0.617728
0.155761 0.143470 0.615023
0.288307 0.140946 0.612297
0.426475 0.138415 0.609557
0.566805 0.135880 0.606808
0.705854 0.133342 0.604052
0.840169 0.130804 0.601290
0.966284 0.128265 0.598523
1.000000 0.126341 0.596423
0.024730 0.269306 0.608726
0.147390 0.266670 0.606018
0.279496 0.264015 0.603288
0.417436 0.261351 0.600545
0.557754 0.258682 0.597793
0.697008 0.256008 0.595034
0.831746 0.253332 0.592269
0.958504 0.250654 0.589499
1.000000 0.248624 0.587397
0.016989 0.398580 0.599633
0.138981 0.395871 0.596922
0.270629 0.393141 0.594189
0.408325 0.390400 0.591444
0.548617 0.387652 0.588689
0.688063 0.384900 0.585927
0.823214 0.382143 0.583159
0.950607 0.379382 0.580386
1.000000 0.377289 0.578282
0.009253 0.530782 0.590475
0.130560 0.528056 0.587762
0.261732 0.525309 0.585026
0.399168 0.522550 0.582277
0.539419 0.519782 0.579520
0.679045 0.517008 0.576755
0.814597 0.514228 0.573985
0.942614 0.511444 0.571210
1.000000 0.509333 0.569104
0.001535 0.662936 0.581266
0.122138 0.660253 0.578549
0.252818 0.657547 0.575811
0.389980 0.654828 0.573060
0.530175 0.652099 0.570300
0.669966 0.649363 0.567533
0.805907 0.646620 0.564761
0.934535 0.643872 0.561983
1.000000 0.641786 0.559876
0.000000 0.792060 0.572013
0.113726 0.789478 0.569294
0.243897 0.786872 0.566553
0.380768 0.784253 0.563800
0.520892 0.781623 0.561039
0.660836 0.778984 0.558270
0.797151 0.776338 0.555495
0.926379 0.773685 0.552716
1.000000 0.771671 0.550607
0.000000 0.915148 0.562723
0.105328 0.912726 0.560002
0.234975 0.910281 0.557260
0.371539 0.907821 0.554505
0.511579 0.905351 0.551741
0.651659 0.902870 0.548971
0.788336 0.900381 0.546194
0.918151 0.897885 0.543413
1.000000 0.895988 0.541304
0.000000 1.000000 0.554158
0.097629 1.000000 0.551436
0.226780 1.000000 0.548692
0.363049 1.000000 0.545935
0.502996 1.000000 0.543170
0.643190 1.000000 0.540398
0.780187 1.000000 0.537621
0.910529 1.000000 0.534839
1.000000 1.000000 0.532728
0.039434 0.031303 0.740869
0.163312 0.028979 0.738239
0.296243 0.026640 0.735586
0.434603 0.024297 0.732920
0.574932 0.021951 0.730243
0.713785 0.019604 0.727558
0.847707 0.017258 0.724866
0.973233 0.014913 0.722168
1.000000 0.013137 0.720119
0.031794 0.145267 0.732254
0.155047 0.142761 0.729618
0.287557 0.140238 0.726958
0.425706 0.137708 0.724284
0.566035 0.135174 0.721601
0.705102 0.132637 0.718909
0.839454 0.130100 0.716210
0.965625 0.127561 0.713505
1.000000 0.125639 0.711452
0.024075 0.268560 0.723473
0.146679 0.265925 0.720829
0.278747 0.263270 0.718162
0.416667 0.260607 0.715482
0.556984 0.257938 0.712792
0.696254 0.255265 0.710094
0.831028 0.252589 0.707388
0.957840 0.249912 0.704677
1.000000 0.247883 0.702618
0.016339 0.397813 0.714591
0.138274 0.395104 0.711940
0.269882 0.392374 0.709267
0.407557 0.389634 0.706580
0.547846 0.386887 0.703884
0.687308 0.384134 0.701179
0.822494 0.381377 0.698467
0.949939 0.378617 0.695749
1.000000 0.376525 0.693686
0.008607 0.530010 0.705633
0.129856 0.527285 0.702976
0.260987 0.524538 0.700296
0.398402 0.521778 0.697603
0.538648 0.519011 0.694900
0.678288 0.516236 0.692189
0.813874 0.513457 0.689472
0.941942 0.510673 0.686748
1.000000 0.508561 0.684680
0.000893 0.662177 0.696612
0.121438 0.659493 0.693949
0.252076 0.656787 0.691263
0.389214 0.654068 0.688564
0.529403 0.651339 0.685855
0.669208 0.648602 0.683138
0.805180 0.645859 0.680414
0.933859 0.643110 0.677685
1.000000 0.641024 0.675613
0.000000 0.791329 0.687536
0.113028 0.788746 0.684867
0.243157 0.786140 0.682176
0.380003 0.783520 0.679471
0.520121 0.780889 0.676756
0.660076 0.778250 0.674033
0.796422 0.775603 0.671304
0.925699 0.772950 0.668569
1.000000 0.770935 0.666493
0.000000 0.914463 0.678412
0.104634 0.912040 0.675737
0.234237 0.909594 0.673040
0.370776 0.907133 0.670330
0.510807 0.904661 0.667610
0.650898 0.902180 0.664882
0.787605 0.899690 0.662147
0.917467 0.897192 0.659407
1.000000 0.895295 0.657327
0.000000 1.000000 0.669988
0.096939 1.000000 0.667309
0.226044 1.000000 0.664607
0.362286 1.000000 0.661892
0.502224 1.000000 0.659167
0.642428 1.000000 0.656434
0.779453 1.000000 0.653695
0.909842 1.000000 0.650950
1.000000 1.000000 0.648867
0.038779 0.030652 0.849938
0.162604 0.028329 0.847423
0.295499 0.025992 0.844884
0.433842 0.023650 0.842331
0.574172 0.021305 0.839767
0.713043 0.018960 0.837194
0.847003 0.016615 0.834613
0.972585 0.014271 0.832025
1.000000 0.012496 0.830060
0.031143 0.144565 0.841694
0.154342 0.142060 0.839168
0.286815 0.139538 0.836619
0.424945 0.137009 0.834055
0.565274 0.134476 0.831481
0.704359 0.131940 0.828898
0.838746 0.129404 0.826307
0.964972 0.126866 0.823709
1.000000 0.124944 0.821736
0.023428 0.267822 0.833277
0.145977 0.265187 0.830741
0.278007 0.262534 0.828181
0.415907 0.259871 0.825608
0.556222 0.257203 0.823023
0.695509 0.254530 0.820430
0.830318 0.251855 0.817829
0.957183 0.249179 0.815221
1.000000 0.247150 0.813240
0.015696 0.397055 0.824752
0.137575 0.394346 0.822205
0.269144 0.391617 0.819636
0.406798 0.388877 0.817052
0.547084 0.386130 0.814458
0.686561 0.383377 0.811854
0.821780 0.380621 0.809243
0.949278 0.377861 0.806625
1.000000 0.375769 0.804637
0.007969 0.529248 0.816141
0.129160 0.526522 0.813584
0.260251 0.523775 0.811005
0.397643 0.521016 0.808411
0.537886 0.518248 0.805807
0.677540 0.515473 0.803194
0.813158 0.512694 0.800573
0.941277 0.509910 0.797946
1.000000 0.507798 0.795950
0.000259 0.661426 0.807456
0.120745 0.658742 0.804890
0.251342 0.656035 0.802301
0.388456 0.653316 0.799698
0.528641 0.650586 0.797084
0.668458 0.647849 0.794462
0.804462 0.645105 0.791831
0.933190 0.642356 0.789194
1.000000 0.640270 0.787192
0.000000 0.790607 0.798706
0.112339 0.788023 0.796131
0.242425 0.785416 0.793532
0.379247 0.782795 0.790920
0.519358 0.780164 0.788297
0.659325 0.777524 0.785665
0.795701 0.774876 0.783026
0.925027 0.772222 0.780379
1.000000 0.770207 0.778370
0.000000 0.913785 0.789897
0.103949 0.911361 0.787312
0.233508 0.908914 0.784704
0.370020 0.906452 0.782083
0.510044 0.903979 0.779451
0.650146 0.901497 0.776810
0.786881 0.899005 0.774162
0.916791 0.896507 0.771507
1.000000 0.894609 0.769491
0.000000 1.000000 0.781753
0.096256 1.000000 0.779160
0.225317 1.000000 0.776544
0.361532 1.000000 0.773914
0.501461 1.000000 0.771274
0.641674 1.000000 0.768625
0.778727 1.000000 0.765969
0.909163 1.000000 0.763306
1.000000 1.000000 0.761285
0.038131 0.030008 0.952248
0.161903 0.027686 0.949889
0.294763 0.025350 0.947507
0.433088 0.023009 0.945111
0.573418 0.020666 0.942703
0.712309 0.018322 0.940285
0.846305 0.015978 0.937858
0.971942 0.013636 0.935423
1.000000 0.011862 0.933574
0.030499 0.143870 0.944512
0.153644 0.141366 0.942140
0.286081 0.138845 0.939744
0.424192 0.136317 0.937333
0.564521 0.133785 0.934912
0.703622 0.131250 0.932480
0.838046 0.128715 0.930040
0.964325 0.126178 0.927592
1.000000 0.124257 0.925732
0.022788 0.267092 0.936601
0.145282 0.264458 0.934215
0.277275 0.261805 0.931805
0.415155 0.259142 0.929381
0.555468 0.256475 0.926946
0.694771 0.253803 0.924501
0.829614 0.251129 0.922047
0.956533 0.248453 0.919585
1.000000 0.246424 0.917715
0.015060 0.396304 0.928575
0.136883 0.393595 0.926174
0.268414 0.390866 0.923751
0.406047 0.388127 0.921314
0.546329 0.385380 0.918865
0.685822 0.382628 0.916406
0.821074 0.379872 0.913939
0.948623 0.377112 0.911464
1.000000 0.375020 0.909583
0.007337 0.528492 0.920453
0.128471 0.525767 0.918040
0.259523 0.523019 0.915603
0.396892 0.520260 0.913152
0.537131 0.517492 0.910690
0.676799 0.514718 0.908218
0.812449 0.511938 0.905738
0.940618 0.509154 0.903249
1.000000 0.507042 0.901359
0.000000 0.660683 0.912249
0.120059 0.657998 0.909822
0.250615 0.655291 0.907373
0.387706 0.652571 0.904909
0.527885 0.649841 0.902433
0.667716 0.647103 0.899948
0.803750 0.644359 0.897455
0.932528 0.641610 0.894954
1.000000 0.639523 0.893054
0.000000 0.789891 0.903970
0.111657 0.787306 0.901530
0.241701 0.784699 0.899067
0.378498 0.782077 0.896590
0.518602 0.779445 0.894102
0.658581 0.776804 0.891604
0.794987 0.774156 0.889098
0.924360 0.771501 0.886584
1.000000 0.769485 0.884675
0.000000 0.913114 0.895620
0.103270 0.910689 0.893168
0.232786 0.908240 0.890692
0.369272 0.905777 0.888203
0.509288 0.903303 0.885702
0.649400 0.900820 0.883191
0.786164 0.898328 0.880673
0.916121 0.895828 0.878146
1.000000 0.893929 0.876228
0.000000 1.000000 0.887889
0.095581 1.000000 0.885425
0.224597 1.000000 0.882938
0.360785 1.000000 0.880437
0.500706 1.000000 0.877925
0.640928 1.000000 0.875403
0.778008 1.000000 0.872873
0.908489 1.000000 0.870336
1.000000 1.000000 0.868409
