assets/luts/warm_amber.cube
# Янтарь — базовый тёплый цветокор канала
TITLE "warm_amber"
LUT_3D_SIZE 9
DOMAIN_MIN 0.0 0.0 0.0
DOMAIN_MAX 1.0 1.0 1.0
0.047408 0.036196 0.024434
0.168850 0.034775 0.023025
0.298469 0.033334 0.021594
0.433054 0.031882 0.020153
0.569726 0.030422 0.018705
0.705653 0.028957 0.017252
0.838004 0.027489 0.015795
0.963928 0.026017 0.014335
1.000000 0.025068 0.013394
0.042653 0.151986 0.019750
0.163793 0.150475 0.018345
0.293207 0.148942 0.016919
0.427688 0.147397 0.015483
0.564359 0.145844 0.014039
0.700390 0.144284 0.012591
0.832951 0.142720 0.011139
0.959193 0.141153 0.009683
1.000000 0.140142 0.008745
0.037912 0.273772 0.015081
0.158747 0.272199 0.013680
0.287951 0.270601 0.012259
0.422323 0.268992 0.010827
0.558989 0.267373 0.009389
0.695121 0.265747 0.007945
0.827888 0.264116 0.006498
0.954443 0.262481 0.005047
1.000000 0.261427 0.004112
0.033185 0.399406 0.010427
0.153711 0.397797 0.009031
0.282702 0.396164 0.007614
0.416962 0.394517 0.006187
0.553618 0.392861 0.004754
0.689846 0.391197 0.003315
0.822815 0.389528 0.001872
0.949679 0.387853 0.000426
1.000000 0.386774 0.000000
0.028473 0.526738 0.005788
0.148686 0.525121 0.004397
0.277459 0.523479 0.002985
0.411602 0.521823 0.001563
0.548246 0.520158 0.000134
0.684565 0.518484 0.000000
0.817732 0.516805 0.000000
0.944901 0.515120 0.000000
1.000000 0.514033 0.000000
0.023776 0.653619 0.001165
0.143671 0.652022 0.000000
0.272223 0.650399 0.000000
0.406246 0.648762 0.000000
0.542872 0.647115 0.000000
0.679278 0.645460 0.000000
0.812639 0.643799 0.000000
0.940110 0.642131 0.000000
1.000000 0.641056 0.000000
0.019094 0.777901 0.000000
0.138668 0.776350 0.000000
0.266994 0.774774 0.000000
0.400892 0.773184 0.000000
0.537496 0.771584 0.000000
0.673986 0.769975 0.000000
0.807536 0.768360 0.000000
0.935304 0.766739 0.000000
1.000000 0.765693 0.000000
0.014427 0.897434 0.000000
0.133676 0.895956 0.000000
0.261772 0.894455 0.000000
0.395541 0.892939 0.000000
0.532120 0.891414 0.000000
0.668689 0.889880 0.000000
0.802425 0.888340 0.000000
0.930485 0.886793 0.000000
1.000000 0.885795 0.000000
0.009775 1.000000 0.000000
0.128694 1.000000 0.000000
0.256558 1.000000 0.000000
0.390193 1.000000 0.000000
0.526742 1.000000 0.000000
0.663387 1.000000 0.000000
0.797304 1.000000 0.000000
0.925653 1.000000 0.000000
1.000000 0.999214 0.000000
0.046933 0.035725 0.142521
0.168345 0.034304 0.141017
0.297944 0.032863 0.139490
0.432518 0.031411 0.137951
0.569190 0.029952 0.136404
0.705129 0.028488 0.134852
0.837500 0.027020 0.133294
0.963457 0.025548 0.131733
1.000000 0.024600 0.130727
0.042179 0.151484 0.137520
0.163289 0.149974 0.136019
0.292682 0.148441 0.134496
0.427152 0.146896 0.132960
0.563823 0.145343 0.131417
0.699865 0.143785 0.129868
0.832446 0.142221 0.128314
0.958720 0.140653 0.126756
1.000000 0.139643 0.125752
0.037440 0.273250 0.132531
0.158244 0.271677 0.131033
0.287427 0.270080 0.129513
0.421788 0.268470 0.127981
0.558453 0.266851 0.126441
0.694595 0.265226 0.124895
0.827382 0.263596 0.123345
0.953969 0.261961 0.121791
1.000000 0.260906 0.120789
0.032715 0.398872 0.127552
0.153209 0.397263 0.126058
0.282179 0.395630 0.124541
0.416427 0.393983 0.123013
0.553082 0.392327 0.121477
0.689319 0.390664 0.119935
0.822308 0.388994 0.118388
0.949203 0.387320 0.116838
1.000000 0.386240 0.115838
0.028004 0.526201 0.122585
0.148185 0.524585 0.121094
0.276937 0.522943 0.119581
0.411068 0.521287 0.118056
0.547710 0.519621 0.116524
0.684038 0.517948 0.114985
0.817224 0.516268 0.113442
0.944424 0.514583 0.111896
1.000000 0.513496 0.110899
0.023308 0.653089 0.117630
0.143172 0.651491 0.116142
0.271701 0.649869 0.114633
0.405711 0.648232 0.113112
0.542335 0.646584 0.111583
0.678751 0.644929 0.110048
0.812130 0.643268 0.108509
0.939631 0.641600 0.106966
1.000000 0.640525 0.105972
0.018628 0.777386 0.112686
0.138169 0.775835 0.111202
0.266473 0.774259 0.109696
0.400358 0.772668 0.108179
0.536960 0.771068 0.106654
0.673458 0.769459 0.105123
0.807027 0.767844 0.103587
0.934824 0.766223 0.102048
1.000000 0.765176 0.101056
0.013962 0.896943 0.107754
0.133178 0.895466 0.106274
0.261252 0.893964 0.104772
0.395007 0.892448 0.103258
0.531583 0.890922 0.101737
0.668160 0.889388 0.100210
0.801914 0.887847 0.098678
0.930004 0.886301 0.097143
1.000000 0.885302 0.096154
0.009312 1.000000 0.102835
0.128198 1.000000 0.101358
0.256038 1.000000 0.099860
0.389660 1.000000 0.098350
0.526206 1.000000 0.096832
0.662858 1.000000 0.095309
0.796793 1.000000 0.093781
0.925170 0.999685 0.092250
1.000000 0.998753 0.091263
0.046478 0.035273 0.261710
0.167861 0.033853 0.260141
0.297441 0.032412 0.258549
0.432006 0.030961 0.256945
0.568678 0.029502 0.255331
0.704626 0.028038 0.253711
0.837018 0.026571 0.252085
0.963005 0.025100 0.250455
1.000000 0.024152 0.249404
0.041726 0.151004 0.256495
0.162807 0.149494 0.254929
0.292180 0.147962 0.253339
0.426640 0.146417 0.251737
0.563310 0.144865 0.250125
0.699362 0.143306 0.248507
0.831963 0.141743 0.246884
0.958267 0.140176 0.245257
1.000000 0.139165 0.244207
0.036988 0.272750 0.251288
0.157763 0.271177 0.249724
0.286926 0.269580 0.248136
0.421276 0.267971 0.246536
0.557940 0.266352 0.244927
0.694091 0.264727 0.243312
0.826898 0.263097 0.241691
0.953514 0.261462 0.240066
1.000000 0.260408 0.239018
0.032264 0.398361 0.246088
0.152729 0.396752 0.244526
0.281678 0.395119 0.242941
0.415915 0.393472 0.241343
0.552569 0.391816 0.239737
0.688815 0.390153 0.238124
0.821823 0.388484 0.236506
0.948747 0.386810 0.234883
1.000000 0.385730 0.233837
0.027555 0.525688 0.240896
0.147706 0.524071 0.239337
0.276436 0.522429 0.237754
0.410556 0.520773 0.236159
0.547196 0.519107 0.234554
0.683533 0.517434 0.232944
0.816738 0.515754 0.231328
0.943967 0.514069 0.229708
1.000000 0.512982 0.228664
0.022861 0.652582 0.235712
0.142693 0.650984 0.234155
0.271202 0.649361 0.232575
0.405200 0.647723 0.230982
0.541822 0.646076 0.229380
0.678245 0.644421 0.227772
0.811643 0.642759 0.226159
0.939172 0.641092 0.224541
1.000000 0.640016 0.223499
0.018181 0.776893 0.230536
0.137692 0.775342 0.228981
0.265974 0.773765 0.227403
0.399847 0.772175 0.225813
0.536446 0.770574 0.224214
0.672952 0.768965 0.222609
0.806539 0.767349 0.220998
0.934364 0.765728 0.219383
1.000000 0.764682 0.218342
0.013517 0.896474 0.225368
0.132702 0.894996 0.223816
0.260753 0.893494 0.222240
0.394496 0.891977 0.220653
0.531070 0.890451 0.219056
0.667654 0.888917 0.217453
0.801425 0.887376 0.215846
0.929542 0.885829 0.214233
1.000000 0.884830 0.213194
0.008868 1.000000 0.220208
0.127723 1.000000 0.218659
0.255540 1.000000 0.217086
0.389149 1.000000 0.215501
0.525692 1.000000 0.213907
0.662351 1.000000 0.212307
0.796303 1.000000 0.210702
0.924707 0.999245 0.209092
1.000000 0.998312 0.208055
0.046033 0.034831 0.382216
0.167388 0.033412 0.380610
0.296948 0.031971 0.378980
0.431504 0.030520 0.377337
0.568176 0.029062 0.375684
0.704134 0.027599 0.374024
0.836545 0.026131 0.372358
0.962562 0.024661 0.370687
1.000000 0.023713 0.369610
0.041282 0.150534 0.376876
0.162335 0.149024 0.375272
0.291688 0.147492 0.373643
0.426138 0.145948 0.372001
0.562808 0.144396 0.370349
0.698869 0.142838 0.368690
0.831489 0.141275 0.367026
0.957823 0.139708 0.365356
1.000000 0.138698 0.364280
0.036545 0.272260 0.371541
0.157291 0.270687 0.369938
0.286434 0.269091 0.368310
0.420775 0.267482 0.366669
0.557438 0.265864 0.365018
0.693598 0.264239 0.363361
0.826423 0.262609 0.361698
0.953069 0.260974 0.360029
1.000000 0.259920 0.358954
0.031823 0.397860 0.366209
0.152258 0.396252 0.364607
0.281187 0.394619 0.362981
0.415413 0.392972 0.361341
0.552067 0.391316 0.359692
0.688321 0.389653 0.358035
0.821347 0.387984 0.356373
0.948301 0.386310 0.354707
1.000000 0.385230 0.353632
0.027115 0.525185 0.360882
0.147236 0.523568 0.359281
0.275946 0.521926 0.357656
0.410055 0.520270 0.356017
0.546694 0.518604 0.354369
0.683038 0.516931 0.352714
0.816262 0.515251 0.351054
0.943519 0.513566 0.349388
1.000000 0.512479 0.348314
0.022422 0.652085 0.355558
0.142225 0.650486 0.353959
0.270712 0.648863 0.352335
0.404699 0.647226 0.350698
0.541319 0.645579 0.349051
0.677750 0.643923 0.347398
0.811166 0.642261 0.345738
0.938723 0.640594 0.344074
1.000000 0.639518 0.343001
0.017744 0.776411 0.350239
0.137225 0.774859 0.348641
0.265485 0.773282 0.347018
0.399346 0.771691 0.345383
0.535943 0.770090 0.343738
0.672457 0.768481 0.342086
0.806061 0.766865 0.340428
0.933914 0.765244 0.338765
1.000000 0.764197 0.337693
0.013082 0.896014 0.344925
0.132236 0.894536 0.343328
0.260265 0.893033 0.341707
0.393996 0.891517 0.340072
0.530567 0.889990 0.338429
0.667158 0.888455 0.336778
0.800947 0.886914 0.335122
0.929091 0.885366 0.333461
1.000000 0.884368 0.332390
0.008434 1.000000 0.339615
0.127258 1.000000 0.338019
0.255053 1.000000 0.336400
0.388649 1.000000 0.334767
0.525189 1.000000 0.333125
0.661854 1.000000 0.331476
0.795823 1.000000 0.329821
0.924255 0.998813 0.328162
1.000000 0.997880 0.327092
0.045594 0.034396 0.502828
0.166922 0.032976 0.501210
0.296463 0.031537 0.499568
0.431009 0.030086 0.497912
0.567681 0.028628 0.496245
0.703649 0.027165 0.494572
0.836080 0.025698 0.492892
0.962126 0.024228 0.491207
1.000000 0.023280 0.490120
0.040845 0.150071 0.497448
0.161869 0.148561 0.495830
0.291203 0.147030 0.494188
0.425643 0.145486 0.492532
0.562313 0.143934 0.490866
0.698383 0.142376 0.489192
0.831023 0.140813 0.487512
0.957385 0.139247 0.485827
1.000000 0.138237 0.484741
0.036109 0.271778 0.492068
0.156827 0.270205 0.490451
0.285950 0.268609 0.488808
0.420280 0.267000 0.487152
0.556943 0.265382 0.485486
0.693111 0.263757 0.483813
0.825956 0.262127 0.482133
0.952630 0.260493 0.480448
1.000000 0.259439 0.479362
0.031388 0.397367 0.486688
0.151795 0.395758 0.485071
0.280703 0.394125 0.483429
0.414919 0.392479 0.481773
0.551571 0.390823 0.480107
0.687834 0.389160 0.478434
0.820879 0.387491 0.476754
0.947860 0.385817 0.475070
1.000000 0.384738 0.473983
0.026682 0.524689 0.481309
0.146774 0.523072 0.479692
0.275463 0.521430 0.478050
0.409561 0.519774 0.476394
0.546198 0.518108 0.474729
0.682551 0.516435 0.473056
0.815792 0.514755 0.471376
0.943077 0.513070 0.469692
1.000000 0.511983 0.468606
0.021990 0.651594 0.475931
0.141764 0.649996 0.474314
0.270230 0.648373 0.472672
0.404205 0.646735 0.471016
0.540823 0.645088 0.469351
0.677262 0.643432 0.467678
0.810696 0.641770 0.465999
0.938280 0.640103 0.464315
1.000000 0.639027 0.463229
0.017314 0.775935 0.470553
0.136764 0.774383 0.468936
0.265004 0.772806 0.467295
0.398852 0.771215 0.465639
0.535448 0.769613 0.463974
0.671968 0.768004 0.462302
0.805590 0.766388 0.460623
0.933469 0.764766 0.458940
1.000000 0.763719 0.457854
0.012652 0.895561 0.465176
0.131776 0.894082 0.463559
0.259784 0.892579 0.461918
0.393503 0.891062 0.460263
0.530071 0.889535 0.458599
0.666669 0.888000 0.456926
0.800475 0.886458 0.455248
0.928645 0.884911 0.453565
1.000000 0.883912 0.452479
0.008006 1.000000 0.459800
0.126799 1.000000 0.458184
0.254572 1.000000 0.456543
0.388156 1.000000 0.454888
0.524693 1.000000 0.453224
0.661365 1.000000 0.451552
0.795350 0.999833 0.449875
0.923808 0.998387 0.448192
1.000000 0.997454 0.447106
0.045161 0.033965 0.622110
0.166460 0.032546 0.620505
0.295983 0.031107 0.618875
0.430519 0.029656 0.617231
0.567191 0.028199 0.615576
0.703168 0.026736 0.613914
0.835619 0.025270 0.612245
0.961694 0.023800 0.610571
1.000000 0.022853 0.609491
0.040412 0.149613 0.616770
0.161409 0.148104 0.615164
0.290724 0.146572 0.613533
0.425154 0.145029 0.611888
0.561823 0.143477 0.610232
0.697902 0.141919 0.608569
0.830561 0.140357 0.606899
0.956952 0.138791 0.605224
1.000000 0.137781 0.604143
0.035678 0.271301 0.611427
0.156367 0.269728 0.609820
0.285471 0.268132 0.608187
0.419791 0.266523 0.606541
0.556453 0.264905 0.604885
0.692630 0.263281 0.603220
0.825493 0.261651 0.601550
0.952195 0.260017 0.599874
1.000000 0.258963 0.598792
0.030958 0.396879 0.606080
0.151336 0.395270 0.604472
0.280225 0.393637 0.602839
0.414430 0.391991 0.601191
0.551081 0.390335 0.599534
0.687352 0.388672 0.597869
0.820415 0.387003 0.596197
0.947425 0.385330 0.594520
1.000000 0.384250 0.593438
0.026253 0.524198 0.600730
0.146316 0.522581 0.599121
0.274986 0.520939 0.597487
0.409072 0.519283 0.595839
0.545708 0.517617 0.594180
0.682069 0.515944 0.592514
0.815328 0.514264 0.590842
0.942640 0.512579 0.589164
1.000000 0.511492 0.588081
0.021563 0.651109 0.595377
0.141307 0.649511 0.593767
0.269753 0.647888 0.592132
0.403717 0.646250 0.590483
0.540333 0.644602 0.588824
0.676780 0.642947 0.587157
0.810230 0.641285 0.585484
0.937842 0.639617 0.583805
1.000000 0.638541 0.582722
0.016888 0.775464 0.590021
0.136309 0.773911 0.588411
0.264527 0.772334 0.586775
0.398364 0.770743 0.585125
0.534957 0.769142 0.583465
0.671485 0.767532 0.581797
0.805124 0.765916 0.580123
0.933030 0.764293 0.578443
1.000000 0.763247 0.577360
0.012228 0.895112 0.584663
0.131322 0.893633 0.583051
0.259309 0.892130 0.581415
0.393015 0.890612 0.579764
0.529580 0.889085 0.578103
0.666186 0.887550 0.576435
0.800007 0.886008 0.574760
0.928205 0.884460 0.573080
1.000000 0.883460 0.571996
0.007583 1.000000 0.579302
0.126346 1.000000 0.577689
0.254097 1.000000 0.576052
0.387669 1.000000 0.574401
0.524202 1.000000 0.572739
0.660881 1.000000 0.571070
0.794882 0.999412 0.569394
0.923366 0.997966 0.567713
1.000000 0.997033 0.566629
0.044731 0.033538 0.738574
0.166003 0.032119 0.737005
0.295507 0.030680 0.735411
0.430034 0.029231 0.733803
0.566706 0.027774 0.732185
0.702692 0.026311 0.730558
0.835162 0.024845 0.728925
0.961266 0.023376 0.727286
1.000000 0.022429 0.726229
0.039983 0.149159 0.733353
0.160952 0.147650 0.731781
0.290249 0.146119 0.730185
0.424669 0.144575 0.728575
0.561337 0.143024 0.726955
0.697426 0.141467 0.725326
0.830103 0.139905 0.723691
0.956522 0.138339 0.722050
1.000000 0.137329 0.720991
0.035250 0.270827 0.728124
0.155912 0.269255 0.726551
0.284997 0.267659 0.724952
0.419306 0.266051 0.723340
0.555967 0.264433 0.721718
0.692153 0.262809 0.720087
0.825034 0.261179 0.718450
0.951764 0.259545 0.716807
1.000000 0.258492 0.715746
0.030532 0.396395 0.722888
0.150882 0.394787 0.721313
0.279751 0.393154 0.719713
0.413946 0.391507 0.718098
0.550595 0.389852 0.716474
0.686875 0.388189 0.714841
0.819955 0.386520 0.713202
0.946992 0.384846 0.711557
1.000000 0.383767 0.710495
0.025828 0.523712 0.717646
0.145863 0.522095 0.716069
0.274512 0.520453 0.714467
0.408588 0.518797 0.712850
0.545222 0.517131 0.711224
0.681591 0.515457 0.709589
0.814867 0.513778 0.707948
0.942207 0.512093 0.706300
1.000000 0.511006 0.705238
0.021140 0.650629 0.712397
0.140855 0.649030 0.710818
0.269280 0.647407 0.709214
0.403233 0.645769 0.707595
0.539847 0.644121 0.705967
0.676301 0.642466 0.704330
0.809769 0.640803 0.702687
0.937407 0.639135 0.701038
1.000000 0.638059 0.699974
0.016466 0.774997 0.707142
0.135857 0.773444 0.705561
0.264055 0.771867 0.703955
0.397880 0.770275 0.702334
0.534471 0.768674 0.700704
0.671006 0.767064 0.699065
0.804661 0.765447 0.697420
0.932594 0.763825 0.695769
1.000000 0.762778 0.694704
0.011807 0.894667 0.701881
0.130871 0.893188 0.700298
0.258837 0.891684 0.698690
0.392531 0.890167 0.697067
0.529094 0.888639 0.695435
0.665706 0.887103 0.693795
0.799544 0.885561 0.692148
0.927768 0.884012 0.690495
1.000000 0.883013 0.689429
0.007164 1.000000 0.696613
0.125896 1.000000 0.695028
0.253626 1.000000 0.693418
0.387185 1.000000 0.691794
0.523716 1.000000 0.690160
0.660401 1.000000 0.688518
0.794418 0.998995 0.686869
0.922928 0.997548 0.685215
1.000000 0.996615 0.684147
0.044304 0.033114 0.850724
0.165549 0.031696 0.849214
0.295035 0.030257 0.847680
0.429552 0.028808 0.846132
0.566224 0.027351 0.844573
0.702220 0.025890 0.843007
0.834708 0.024424 0.841433
0.960840 0.022955 0.839854
1.000000 0.022008 0.838834
0.039558 0.148708 0.845698
0.160499 0.147199 0.844185
0.289777 0.145668 0.842647
0.424187 0.144125 0.841096
0.560855 0.142574 0.839534
0.696953 0.141017 0.837964
0.829648 0.139456 0.836387
0.956095 0.137890 0.834805
1.000000 0.136881 0.833783
0.034826 0.270358 0.840661
0.155460 0.268786 0.839144
0.284525 0.267190 0.837604
0.418825 0.265582 0.836049
0.555485 0.263964 0.834484
0.691679 0.262340 0.832911
0.824579 0.260711 0.831331
0.951336 0.259077 0.829745
1.000000 0.258024 0.828722
0.030109 0.395914 0.835613
0.150431 0.394306 0.834094
0.279280 0.392674 0.832550
0.413464 0.391027 0.830992
0.550113 0.389372 0.829424
0.686401 0.387709 0.827848
0.819499 0.386040 0.826265
0.946563 0.384367 0.824676
1.000000 0.383287 0.823650
0.025407 0.523229 0.830556
0.145413 0.521612 0.829033
0.274042 0.519970 0.827486
0.408107 0.518314 0.825925
0.544739 0.516648 0.824354
0.681116 0.514974 0.822774
0.814410 0.513295 0.821188
0.941776 0.511610 0.819596
1.000000 0.510523 0.818569
0.020719 0.650151 0.825488
0.140405 0.648553 0.823962
0.268811 0.646929 0.822412
0.402752 0.645291 0.820848
0.539364 0.643643 0.819274
0.675826 0.641988 0.817691
0.809311 0.640325 0.816102
0.936976 0.638657 0.814507
1.000000 0.637581 0.813478
0.016047 0.774533 0.820410
0.135409 0.772980 0.818881
0.263586 0.771403 0.817328
0.397400 0.769811 0.815761
0.533988 0.768209 0.814184
0.670531 0.766599 0.812599
0.804202 0.764982 0.811006
0.932161 0.763360 0.809408
1.000000 0.762313 0.808377
0.011390 0.894225 0.815322
0.130424 0.892746 0.813791
0.258369 0.891242 0.812235
0.392051 0.889724 0.810665
0.528611 0.888196 0.809084
0.665230 0.886660 0.807496
0.799084 0.885117 0.805901
0.927334 0.883568 0.804300
1.000000 0.882569 0.803267
0.006748 1.000000 0.810225
0.125450 1.000000 0.808691
0.253159 1.000000 0.807132
0.386706 1.000000 0.805559
0.523233 1.000000 0.803976
0.659925 1.000000 0.802384
0.793958 0.998580 0.800786
0.922492 0.997134 0.799182
1.000000 0.996200 0.798147
0.043880 0.032693 0.957075
0.165098 0.031275 0.955647
0.294565 0.029837 0.954195
0.429073 0.028388 0.952730
0.565745 0.026932 0.951254
0.701750 0.025471 0.949771
0.834257 0.024005 0.948280
0.960417 0.022537 0.946784
1.000000 0.021591 0.945818
0.039135 0.148260 0.952319
0.160049 0.146752 0.950886
0.289308 0.145221 0.949430
0.423709 0.143678 0.947961
0.560376 0.142128 0.946481
0.696482 0.140571 0.944993
0.829196 0.139010 0.943498
0.955671 0.137444 0.941998
1.000000 0.136435 0.941029
0.034405 0.269891 0.947549
0.155011 0.268319 0.946112
0.284057 0.266724 0.944652
0.418346 0.265116 0.943178
0.555006 0.263498 0.941694
0.691209 0.261875 0.940201
0.824126 0.260245 0.938702
0.950911 0.258612 0.937197
1.000000 0.257559 0.936226
0.029689 0.395437 0.942765
0.149983 0.393829 0.941324
0.278813 0.392197 0.939859
0.412986 0.390550 0.938381
0.549633 0.388895 0.936893
0.685929 0.387232 0.935396
0.819045 0.385564 0.933893
0.946137 0.383890 0.932384
1.000000 0.382811 0.931410
0.024988 0.522749 0.937967
0.144966 0.521132 0.936522
0.273575 0.519490 0.935053
0.407629 0.517834 0.933570
0.544260 0.516168 0.932078
0.680644 0.514495 0.930577
0.813955 0.512815 0.929070
0.941349 0.511130 0.927557
1.000000 0.510043 0.926580
0.020302 0.649677 0.933155
0.139959 0.648078 0.931706
0.268344 0.646455 0.930233
0.402274 0.644817 0.928747
0.538885 0.643169 0.927250
0.675354 0.641513 0.925745
0.808855 0.639850 0.924234
0.936547 0.638182 0.922716
1.000000 0.637106 0.921737
0.015631 0.774073 0.928330
0.134964 0.772519 0.926877
0.263120 0.770942 0.925400
0.396923 0.769350 0.923909
0.533508 0.767748 0.922409
0.670058 0.766137 0.920900
0.803746 0.764520 0.919384
0.931731 0.762897 0.917863
1.000000 0.761850 0.916880
0.010975 0.893786 0.923492
0.129980 0.892306 0.922035
0.257904 0.890802 0.920554
0.391574 0.889284 0.919059
0.528131 0.887756 0.917554
0.664757 0.886219 0.916042
0.798627 0.884676 0.914522
0.926902 0.883127 0.912996
1.000000 0.882127 0.912011
0.006334 1.000000 0.918640
0.125007 1.000000 0.917179
0.252694 1.000000 0.915694
0.386229 1.000000 0.914196
0.522753 1.000000 0.912687
0.659451 0.999609 0.911170
0.793500 0.998168 0.909647
0.922060 0.996721 0.908117
1.000000 0.995787 0.907129
