assets/luts/warm_amber.cube
# Янтарь — базовый тёплый цветокор канала
TITLE "warm_amber"
LUT_3D_SIZE 5
DOMAIN_MIN 0.0 0.0 0.0
DOMAIN_MAX 1.0 1.0 1.0
0.047408 0.036196 0.024434
0.298469 0.033334 0.021594
0.569726 0.030422 0.018705
0.838004 0.027489 0.015795
1.000000 0.025068 0.013394
0.037912 0.273772 0.015081
0.287951 0.270601 0.012259
0.558989 0.267373 0.009389
0.827888 0.264116 0.006498
1.000000 0.261427 0.004112
0.028473 0.526738 0.005788
0.277459 0.523479 0.002985
0.548246 0.520158 0.000134
0.817732 0.516805 0.000000
1.000000 0.514033 0.000000
0.019094 0.777901 0.000000
0.266994 0.774774 0.000000
0.537496 0.771584 0.000000
0.807536 0.768360 0.000000
1.000000 0.765693 0.000000
0.009775 1.000000 0.000000
0.256558 1.000000 0.000000
0.526742 1.000000 0.000000
0.797304 1.000000 0.000000
1.000000 0.999214 0.000000
0.046478 0.035273 0.261710
0.297441 0.032412 0.258549
0.568678 0.029502 0.255331
0.837018 0.026571 0.252085
1.000000 0.024152 0.249404
0.036988 0.272750 0.251288
0.286926 0.269580 0.248136
0.557940 0.266352 0.244927
0.826898 0.263097 0.241691
1.000000 0.260408 0.239018
0.027555 0.525688 0.240896
0.276436 0.522429 0.237754
0.547196 0.519107 0.234554
0.816738 0.515754 0.231328
1.000000 0.512982 0.228664
0.018181 0.776893 0.230536
0.265974 0.773765 0.227403
0.536446 0.770574 0.224214
0.806539 0.767349 0.220998
1.000000 0.764682 0.218342
0.008868 1.000000 0.220208
0.255540 1.000000 0.217086
0.525692 1.000000 0.213907
0.796303 1.000000 0.210702
1.000000 0.998312 0.208055
0.045594 0.034396 0.502828
0.296463 0.031537 0.499568
0.567681 0.028628 0.496245
0.836080 0.025698 0.492892
1.000000 0.023280 0.490120
0.036109 0.271778 0.492068
0.285950 0.268609 0.488808
0.556943 0.265382 0.485486
0.825956 0.262127 0.482133
1.000000 0.259439 0.479362
0.026682 0.524689 0.481309
0.275463 0.521430 0.478050
0.546198 0.518108 0.474729
0.815792 0.514755 0.471376
1.000000 0.511983 0.468606
0.017314 0.775935 0.470553
0.265004 0.772806 0.467295
0.535448 0.769613 0.463974
0.805590 0.766388 0.460623
1.000000 0.763719 0.457854
0.008006 1.000000 0.459800
0.254572 1.000000 0.456543
0.524693 1.000000 0.453224
0.795350 0.999833 0.449875
1.000000 0.997454 0.447106
0.044731 0.033538 0.738574
0.295507 0.030680 0.735411
0.566706 0.027774 0.732185
0.835162 0.024845 0.728925
1.000000 0.022429 0.726229
0.035250 0.270827 0.728124
0.284997 0.267659 0.724952
0.555967 0.264433 0.721718
0.825034 0.261179 0.718450
1.000000 0.258492 0.715746
0.025828 0.523712 0.717646
0.274512 0.520453 0.714467
0.545222 0.517131 0.711224
0.814867 0.513778 0.707948
1.000000 0.511006 0.705238
0.016466 0.774997 0.707142
0.264055 0.771867 0.703955
0.534471 0.768674 0.700704
0.804661 0.765447 0.697420
1.000000 0.762778 0.694704
0.007164 1.000000 0.696613
0.253626 1.000000 0.693418
0.523716 1.000000 0.690160
0.794418 0.998995 0.686869
1.000000 0.996615 0.684147
0.043880 0.032693 0.957075
0.294565 0.029837 0.954195
0.565745 0.026932 0.951254
0.834257 0.024005 0.948280
1.000000 0.021591 0.945818
0.034405 0.269891 0.947549
0.284057 0.266724 0.944652
0.555006 0.263498 0.941694
0.824126 0.260245 0.938702
1.000000 0.257559 0.936226
0.024988 0.522749 0.937967
0.273575 0.519490 0.935053
0.544260 0.516168 0.932078
0.813955 0.512815 0.929070
1.000000 0.510043 0.926580
0.015631 0.774073 0.928330
0.263120 0.770942 0.925400
0.533508 0.767748 0.922409
0.803746 0.764520 0.919384
1.000000 0.761850 0.916880
0.006334 1.000000 0.918640
0.252694 1.000000 0.915694
0.522753 1.000000 0.912687
0.793500 0.998168 0.909647
1.000000 0.995787 0.907129
