assets/luts/warm_amber.cube
# Янтарь — базовый тёплый цветокор канала
TITLE "warm_amber"
LUT_3D_SIZE 17
DOMAIN_MIN 0.0 0.0 0.0
DOMAIN_MAX 1.0 1.0 1.0
0.047408 0.036196 0.024434
0.106865 0.035490 0.023733
0.168850 0.034775 0.023025
0.232853 0.034056 0.022311
0.298469 0.033334 0.021594
0.365323 0.032609 0.020875
0.433054 0.031882 0.020153
0.501306 0.031153 0.019430
0.569726 0.030422 0.018705
0.637959 0.029690 0.017979
0.705653 0.028957 0.017252
0.772453 0.028223 0.016524
0.838004 0.027489 0.015795
0.901948 0.026753 0.015065
0.963928 0.026017 0.014335
1.000000 0.025280 0.013604
1.000000 0.025068 0.013394
0.045029 0.093207 0.022090
0.104404 0.092477 0.021390
0.166320 0.091738 0.020683
0.230266 0.090994 0.019970
0.295837 0.090247 0.019255
0.362659 0.089497 0.018537
0.430371 0.088745 0.017816
0.498616 0.087991 0.017094
0.567042 0.087235 0.016370
0.635296 0.086478 0.015646
0.703023 0.085719 0.014920
0.769869 0.084960 0.014193
0.835479 0.084200 0.013465
0.899496 0.083438 0.012736
0.961563 0.082676 0.012007
1.000000 0.081913 0.011277
1.000000 0.081694 0.011068
0.042653 0.151986 0.019750
0.101947 0.151234 0.019051
0.163793 0.150475 0.018345
0.227682 0.149710 0.017634
0.293207 0.148942 0.016919
0.359996 0.148170 0.016202
0.427688 0.147397 0.015483
0.495926 0.146621 0.014762
0.564359 0.145844 0.014039
0.632631 0.145065 0.013316
0.700390 0.144284 0.012591
0.767282 0.143503 0.011865
0.832951 0.142720 0.011139
0.897040 0.141937 0.010411
0.959193 0.141153 0.009683
1.000000 0.140368 0.008955
1.000000 0.140142 0.008745
0.040281 0.212264 0.017414
0.099493 0.211495 0.016716
0.161269 0.210718 0.016010
0.225099 0.209936 0.015300
0.290578 0.209150 0.014587
0.357334 0.208360 0.013871
0.425005 0.207569 0.013153
0.493236 0.206775 0.012433
0.561674 0.205979 0.011712
0.629965 0.205182 0.010990
0.697756 0.204383 0.010266
0.764693 0.203583 0.009542
0.830421 0.202782 0.008816
0.894582 0.201980 0.008090
0.956820 0.201177 0.007363
1.000000 0.200373 0.006636
1.000000 0.200142 0.006427
0.037912 0.273772 0.015081
0.097042 0.272990 0.014384
0.158747 0.272199 0.013680
0.222518 0.271402 0.012971
0.287951 0.270601 0.012259
0.354673 0.269798 0.011544
0.422323 0.268992 0.010827
0.490547 0.268183 0.010109
0.558989 0.267373 0.009389
0.627298 0.266561 0.008667
0.695121 0.265747 0.007945
0.762102 0.264932 0.007222
0.827888 0.264116 0.006498
0.892121 0.263299 0.005773
0.954443 0.262481 0.005047
1.000000 0.261662 0.004321
1.000000 0.261427 0.004112
0.035547 0.336242 0.012752
0.094594 0.335449 0.012056
0.156228 0.334648 0.011353
0.219940 0.333840 0.010646
0.285326 0.333029 0.009935
0.352013 0.332214 0.009221
0.419642 0.331397 0.008505
0.487857 0.330578 0.007788
0.556304 0.329756 0.007069
0.624631 0.328933 0.006349
0.692484 0.328108 0.005628
0.759510 0.327282 0.004906
0.825352 0.326454 0.004183
0.889656 0.325626 0.003459
0.952063 0.324796 0.002735
1.000000 0.323966 0.002010
1.000000 0.323727 0.001802
0.033185 0.399406 0.010427
0.092150 0.398606 0.009732
0.153711 0.397797 0.009031
0.217363 0.396982 0.008324
0.282702 0.396164 0.007614
0.349355 0.395342 0.006902
0.416962 0.394517 0.006187
0.485167 0.393690 0.005471
0.553618 0.392861 0.004754
0.621962 0.392030 0.004035
0.689846 0.391197 0.003315
0.756915 0.390363 0.002594
0.822815 0.389528 0.001872
0.887189 0.388691 0.001150
0.949679 0.387853 0.000426
1.000000 0.387015 0.000000
1.000000 0.386774 0.000000
0.030828 0.462994 0.008105
0.089708 0.462190 0.007412
0.151197 0.461378 0.006712
0.214789 0.460559 0.006006
0.280080 0.459737 0.005298
0.346697 0.458911 0.004586
0.414282 0.458082 0.003873
0.482478 0.457251 0.003158
0.550932 0.456417 0.002442
0.619293 0.455582 0.001724
0.687206 0.454745 0.001005
0.754318 0.453907 0.000286
0.820274 0.453067 0.000000
0.884718 0.452226 0.000000
0.947292 0.451384 0.000000
1.000000 0.450541 0.000000
1.000000 0.450299 0.000000
0.028473 0.526738 0.005788
0.087270 0.525934 0.005096
0.148686 0.525121 0.004397
0.212217 0.524302 0.003692
0.277459 0.523479 0.002985
0.344041 0.522653 0.002275
0.411602 0.521823 0.001563
0.479788 0.520992 0.000849
0.548246 0.520158 0.000134
0.616622 0.519322 0.000000
0.684565 0.518484 0.000000
0.751720 0.517645 0.000000
0.817732 0.516805 0.000000
0.882245 0.515963 0.000000
0.944901 0.515120 0.000000
1.000000 0.514276 0.000000
1.000000 0.514033 0.000000
0.026123 0.590369 0.003475
0.084834 0.589569 0.002784
0.146177 0.588759 0.002085
0.209647 0.587943 0.001382
0.274840 0.587123 0.000676
0.341386 0.586299 0.000000
0.408924 0.585473 0.000000
0.477099 0.584644 0.000000
0.545559 0.583813 0.000000
0.613951 0.582980 0.000000
0.681922 0.582145 0.000000
0.749119 0.581309 0.000000
0.815186 0.580471 0.000000
0.879768 0.579632 0.000000
0.942507 0.578792 0.000000
1.000000 0.577950 0.000000
1.000000 0.577708 0.000000
0.023776 0.653619 0.001165
0.082402 0.652825 0.000475
0.143671 0.652022 0.000000
0.207079 0.651213 0.000000
0.272223 0.650399 0.000000
0.338732 0.649582 0.000000
0.406246 0.648762 0.000000
0.474410 0.647940 0.000000
0.542872 0.647115 0.000000
0.611279 0.646288 0.000000
0.679278 0.645460 0.000000
0.746517 0.644630 0.000000
0.812639 0.643799 0.000000
0.877289 0.642966 0.000000
0.940110 0.642131 0.000000
1.000000 0.641296 0.000000
1.000000 0.641056 0.000000
0.021433 0.716220 0.000000
0.079974 0.715435 0.000000
0.141168 0.714642 0.000000
0.204514 0.713842 0.000000
0.269608 0.713039 0.000000
0.336079 0.712232 0.000000
0.403568 0.711422 0.000000
0.471721 0.710609 0.000000
0.540184 0.709795 0.000000
0.608606 0.708978 0.000000
0.676633 0.708160 0.000000
0.743912 0.707339 0.000000
0.810089 0.706518 0.000000
0.874807 0.705695 0.000000
0.937709 0.704870 0.000000
0.998436 0.704044 0.000000
1.000000 0.703807 0.000000
0.019094 0.777901 0.000000
0.077548 0.777130 0.000000
0.138668 0.776350 0.000000
0.201951 0.775564 0.000000
0.266994 0.774774 0.000000
0.333428 0.773980 0.000000
0.400892 0.773184 0.000000
0.469032 0.772385 0.000000
0.537496 0.771584 0.000000
0.605932 0.770780 0.000000
0.673986 0.769975 0.000000
0.741306 0.769168 0.000000
0.807536 0.768360 0.000000
0.872322 0.767550 0.000000
0.935304 0.766739 0.000000
0.996126 0.765927 0.000000
1.000000 0.765693 0.000000
0.016759 0.838395 0.000000
0.075126 0.837641 0.000000
0.136170 0.836878 0.000000
0.199390 0.836109 0.000000
0.264382 0.835335 0.000000
0.330777 0.834559 0.000000
0.398216 0.833779 0.000000
0.466344 0.832997 0.000000
0.534808 0.832213 0.000000
0.603257 0.831426 0.000000
0.671338 0.830638 0.000000
0.738698 0.829848 0.000000
0.804982 0.829057 0.000000
0.869834 0.828264 0.000000
0.932896 0.827470 0.000000
0.993812 0.826674 0.000000
1.000000 0.826445 0.000000
0.014427 0.897434 0.000000
0.072707 0.896699 0.000000
0.133676 0.895956 0.000000
0.196831 0.895207 0.000000
0.261772 0.894455 0.000000
0.328129 0.893698 0.000000
0.395541 0.892939 0.000000
0.463655 0.892178 0.000000
0.532120 0.891414 0.000000
0.600582 0.890648 0.000000
0.668689 0.889880 0.000000
0.736088 0.889111 0.000000
0.802425 0.888340 0.000000
0.867343 0.887567 0.000000
0.930485 0.886793 0.000000
0.991494 0.886018 0.000000
1.000000 0.885795 0.000000
0.012099 0.954747 0.000000
0.070291 0.954036 0.000000
0.131184 0.953317 0.000000
0.194275 0.952592 0.000000
0.259164 0.951863 0.000000
0.325481 0.951131 0.000000
0.392867 0.950396 0.000000
0.460967 0.949658 0.000000
0.529431 0.948918 0.000000
0.597906 0.948176 0.000000
0.666039 0.947433 0.000000
0.733477 0.946687 0.000000
0.799866 0.945940 0.000000
0.864849 0.945191 0.000000
0.928071 0.944442 0.000000
0.989172 0.943690 0.000000
1.000000 0.943474 0.000000
0.009775 1.000000 0.000000
0.067879 1.000000 0.000000
0.128694 1.000000 0.000000
0.191721 1.000000 0.000000
0.256558 1.000000 0.000000
0.322834 1.000000 0.000000
0.390193 1.000000 0.000000
0.458280 1.000000 0.000000
0.526742 1.000000 0.000000
0.595229 1.000000 0.000000
0.663387 1.000000 0.000000
0.730863 1.000000 0.000000
0.797304 1.000000 0.000000
0.862353 1.000000 0.000000
0.925653 1.000000 0.000000
0.986846 0.999422 0.000000
1.000000 0.999214 0.000000
0.047166 0.035956 0.083553
0.106615 0.035250 0.082826
0.168593 0.034536 0.082092
0.232590 0.033817 0.081352
0.298202 0.033094 0.080609
0.365052 0.032369 0.079862
0.432782 0.031642 0.079114
0.501033 0.030913 0.078364
0.569453 0.030183 0.077612
0.637689 0.029451 0.076859
0.705386 0.028718 0.076105
0.772191 0.027985 0.075349
0.837748 0.027250 0.074593
0.901699 0.026514 0.073836
0.963688 0.025778 0.073078
1.000000 0.025041 0.072319
1.000000 0.024830 0.072101
0.044787 0.092959 0.081123
0.104155 0.092228 0.080397
0.166064 0.091490 0.079663
0.230004 0.090746 0.078924
0.295570 0.089999 0.078182
0.362389 0.089250 0.077437
0.430098 0.088497 0.076690
0.498343 0.087743 0.075941
0.566770 0.086988 0.075190
0.635025 0.086231 0.074438
0.702755 0.085472 0.073684
0.769606 0.084713 0.072930
0.835222 0.083953 0.072175
0.899247 0.083191 0.071418
0.961322 0.082429 0.070661
1.000000 0.081667 0.069904
1.000000 0.081448 0.069686
0.042412 0.151731 0.078696
0.101698 0.150979 0.077971
0.163537 0.150220 0.077238
0.227419 0.149455 0.076500
0.292940 0.148687 0.075759
0.359726 0.147916 0.075015
0.427415 0.147142 0.074269
0.495653 0.146366 0.073521
0.564086 0.145589 0.072771
0.632360 0.144810 0.072020
0.700123 0.144030 0.071267
0.767019 0.143249 0.070514
0.832694 0.142466 0.069760
0.896791 0.141683 0.069005
0.958952 0.140899 0.068249
1.000000 0.140114 0.067492
1.000000 0.139888 0.067275
0.040040 0.212003 0.076272
0.099244 0.211234 0.075548
0.161013 0.210457 0.074816
0.224837 0.209675 0.074080
0.290312 0.208889 0.073339
0.357064 0.208100 0.072596
0.424733 0.207308 0.071851
0.492963 0.206514 0.071104
0.561402 0.205719 0.070355
0.629695 0.204921 0.069605
0.697489 0.204123 0.068854
0.764430 0.203323 0.068101
0.830164 0.202522 0.067348
0.894332 0.201720 0.066594
0.956579 0.200917 0.065839
1.000000 0.200113 0.065084
1.000000 0.199882 0.064867
0.037672 0.273506 0.073852
0.096794 0.272724 0.073129
0.158491 0.271933 0.072398
0.222256 0.271136 0.071662
0.287685 0.270336 0.070923
0.354403 0.269532 0.070181
0.422051 0.268726 0.069437
0.490274 0.267918 0.068690
0.558717 0.267108 0.067943
0.627028 0.266296 0.067194
0.694853 0.265482 0.066444
0.761839 0.264667 0.065692
0.827630 0.263851 0.064940
0.891871 0.263034 0.064187
0.954202 0.262216 0.063433
1.000000 0.261397 0.062679
1.000000 0.261162 0.062462
0.035307 0.335973 0.071434
0.094346 0.335180 0.070712
0.155972 0.334379 0.069983
0.219678 0.333571 0.069248
0.285059 0.332760 0.068510
0.351744 0.331945 0.067769
0.419370 0.331128 0.067025
0.487584 0.330309 0.066280
0.556031 0.329487 0.065534
0.624360 0.328664 0.064786
0.692216 0.327839 0.064037
0.759246 0.327013 0.063286
0.825095 0.326186 0.062535
0.889406 0.325357 0.061783
0.951821 0.324528 0.061030
1.000000 0.323697 0.060277
1.000000 0.323458 0.060061
0.032946 0.399134 0.069021
0.091902 0.398334 0.068300
0.153456 0.397525 0.067571
0.217102 0.396711 0.066837
0.282436 0.395892 0.066100
0.349085 0.395070 0.065360
0.416690 0.394245 0.064618
0.484894 0.393418 0.063874
0.553346 0.392589 0.063128
0.621691 0.391758 0.062381
0.689578 0.390926 0.061633
0.756651 0.390092 0.060884
0.822557 0.389256 0.060134
0.886938 0.388420 0.059383
0.949437 0.387582 0.058631
1.000000 0.386743 0.057879
1.000000 0.386502 0.057663
0.030588 0.462721 0.066610
0.089460 0.461917 0.065890
0.150942 0.461105 0.065162
0.214528 0.460286 0.064430
0.279814 0.459464 0.063693
0.346428 0.458638 0.062955
0.414010 0.457809 0.062213
0.482205 0.456978 0.061470
0.550659 0.456144 0.060726
0.619022 0.455309 0.059980
0.686938 0.454473 0.059233
0.754054 0.453634 0.058485
0.820016 0.452795 0.057736
0.884467 0.451954 0.056986
0.947050 0.451111 0.056235
1.000000 0.450268 0.055484
1.000000 0.450026 0.055268
0.028235 0.526465 0.064203
0.087022 0.525661 0.063484
0.148431 0.524848 0.062757
0.211956 0.524029 0.062026
0.277193 0.523206 0.061290
0.343772 0.522380 0.060553
0.411330 0.521550 0.059812
0.479515 0.520719 0.059071
0.547973 0.519885 0.058327
0.616351 0.519049 0.057582
0.684297 0.518211 0.056836
0.751456 0.517372 0.056089
0.817473 0.516532 0.055341
0.881993 0.515690 0.054593
0.944659 0.514847 0.053843
1.000000 0.514003 0.053093
1.000000 0.513760 0.052877
0.025885 0.590097 0.061799
0.084587 0.589297 0.061081
0.145923 0.588487 0.060355
0.209386 0.587671 0.059625
0.274575 0.586851 0.058891
0.341116 0.586027 0.058154
0.408652 0.585201 0.057415
0.476826 0.584372 0.056674
0.545286 0.583541 0.055932
0.613680 0.582708 0.055188
0.681654 0.581873 0.054443
0.748855 0.581037 0.053697
0.814928 0.580199 0.052950
0.879517 0.579360 0.052203
0.942264 0.578520 0.051454
1.000000 0.577678 0.050705
1.000000 0.577436 0.050490
0.023538 0.653350 0.059399
0.082156 0.652555 0.058682
0.143417 0.651752 0.057957
0.206819 0.650943 0.057228
0.271958 0.650129 0.056495
0.338463 0.649312 0.055759
0.405974 0.648492 0.055021
0.474137 0.647670 0.054281
0.542599 0.646845 0.053540
0.611007 0.646018 0.052797
0.679010 0.645190 0.052053
0.746252 0.644360 0.051308
0.812380 0.643528 0.050563
0.877037 0.642695 0.049816
0.939866 0.641861 0.049069
1.000000 0.641026 0.048321
1.000000 0.640786 0.048106
0.021196 0.715953 0.057002
0.079727 0.715169 0.056286
0.140914 0.714375 0.055562
0.204254 0.713576 0.054834
0.269343 0.712772 0.054102
0.335810 0.711965 0.053367
0.403297 0.711155 0.052630
0.471448 0.710343 0.051892
0.539911 0.709528 0.051151
0.608334 0.708711 0.050410
0.676364 0.707893 0.049667
0.743648 0.707072 0.048923
0.809830 0.706251 0.048179
0.874555 0.705428 0.047433
0.937465 0.704603 0.046687
0.998202 0.703777 0.045940
1.000000 0.703540 0.045725
0.018857 0.777639 0.054608
0.077302 0.776868 0.053894
0.138414 0.776088 0.053171
0.201691 0.775302 0.052444
0.266729 0.774512 0.051713
0.333159 0.773718 0.050979
0.400620 0.772922 0.050243
0.468759 0.772122 0.049506
0.537223 0.771321 0.048766
0.605660 0.770518 0.048026
0.673718 0.769713 0.047284
0.741041 0.768906 0.046542
0.807277 0.768097 0.045798
0.872069 0.767288 0.045054
0.935060 0.766476 0.044309
0.995891 0.765664 0.043563
1.000000 0.765430 0.043349
0.016522 0.838139 0.052218
0.074880 0.837385 0.051505
0.135917 0.836621 0.050783
0.199130 0.835852 0.050057
0.264117 0.835079 0.049327
0.330509 0.834302 0.048594
0.397944 0.833523 0.047860
0.466071 0.832740 0.047123
0.534535 0.831956 0.046385
0.602986 0.831170 0.045646
0.671070 0.830381 0.044905
0.738433 0.829591 0.044164
0.804722 0.828800 0.043421
0.869581 0.828007 0.042678
0.932652 0.827212 0.041934
0.993577 0.826417 0.041189
1.000000 0.826188 0.040975
0.014190 0.897184 0.049832
0.072462 0.896450 0.049119
0.133422 0.895707 0.048399
0.196571 0.894958 0.047673
0.261507 0.894205 0.046945
0.327860 0.893449 0.046213
0.395269 0.892689 0.045480
0.463383 0.891928 0.044744
0.531847 0.891164 0.044007
0.600310 0.890398 0.043269
0.668420 0.889630 0.042529
0.735823 0.888860 0.041789
0.802165 0.888089 0.041048
0.867090 0.887317 0.040305
0.930240 0.886543 0.039563
0.991258 0.885767 0.038819
1.000000 0.885544 0.038605
0.011863 0.954506 0.047449
0.070046 0.953795 0.046737
0.130931 0.953075 0.046018
0.194015 0.952350 0.045294
0.258899 0.951621 0.044566
0.325212 0.950889 0.043836
0.392595 0.950154 0.043103
0.460695 0.949416 0.042369
0.529158 0.948676 0.041633
0.597634 0.947934 0.040896
0.665770 0.947190 0.040157
0.733212 0.946444 0.039418
0.799606 0.945697 0.038678
0.864596 0.944949 0.037937
0.927825 0.944199 0.037195
0.988936 0.943447 0.036453
1.000000 0.943231 0.036239
0.009539 1.000000 0.045070
0.067634 1.000000 0.044359
0.128442 1.000000 0.043640
0.191462 1.000000 0.042917
0.256293 1.000000 0.042191
0.322566 1.000000 0.041461
0.389922 1.000000 0.040730
0.458007 1.000000 0.039997
0.526469 1.000000 0.039262
0.594957 1.000000 0.038526
0.663118 1.000000 0.037789
0.730598 1.000000 0.037051
0.797044 1.000000 0.036312
0.862099 1.000000 0.035572
0.925407 0.999911 0.034831
0.986610 0.999187 0.034090
1.000000 0.998979 0.033877
0.046933 0.035725 0.142521
0.106374 0.035018 0.141773
0.168345 0.034304 0.141017
0.232337 0.033585 0.140255
0.297944 0.032863 0.139490
0.364791 0.032138 0.138722
0.432518 0.031411 0.137951
0.500769 0.030682 0.137179
0.569190 0.029952 0.136404
0.637428 0.029221 0.135629
0.705129 0.028488 0.134852
0.771938 0.027754 0.134073
0.837500 0.027020 0.133294
0.901459 0.026284 0.132514
0.963457 0.025548 0.131733
1.000000 0.024811 0.130951
1.000000 0.024600 0.130727
0.044554 0.092719 0.140019
0.103914 0.091989 0.139272
0.165816 0.091251 0.138516
0.229750 0.090507 0.137756
0.295312 0.089760 0.136991
0.362127 0.089010 0.136224
0.429835 0.088258 0.135454
0.498080 0.087504 0.134683
0.566507 0.086749 0.133909
0.634764 0.085992 0.133134
0.702497 0.085234 0.132358
0.769353 0.084474 0.131581
0.834974 0.083714 0.130803
0.899006 0.082953 0.130023
0.961090 0.082191 0.129243
1.000000 0.081429 0.128462
1.000000 0.081210 0.128238
0.042179 0.151484 0.137520
0.101457 0.150733 0.136774
0.163289 0.149974 0.136019
0.227166 0.149209 0.135259
0.292682 0.148441 0.134496
0.359465 0.147670 0.133729
0.427152 0.146896 0.132960
0.495390 0.146121 0.132190
0.563823 0.145343 0.131417
0.632099 0.144565 0.130643
0.699865 0.143785 0.129868
0.766766 0.143003 0.129091
0.832446 0.142221 0.128314
0.896550 0.141438 0.127536
0.958720 0.140653 0.126756
1.000000 0.139869 0.125976
1.000000 0.139643 0.125752
0.039808 0.211751 0.135024
0.099004 0.210982 0.134278
0.160765 0.210205 0.133524
0.224584 0.209423 0.132765
0.290054 0.208637 0.132003
0.356803 0.207848 0.131237
0.424470 0.207056 0.130469
0.492700 0.206263 0.129699
0.561138 0.205467 0.128928
0.629433 0.204670 0.128155
0.697231 0.203872 0.127380
0.764176 0.203072 0.126605
0.829915 0.202271 0.125828
0.894091 0.201469 0.125051
0.956346 0.200666 0.124272
1.000000 0.199862 0.123493
1.000000 0.199632 0.123269
0.037440 0.273250 0.132531
0.096554 0.272467 0.131786
0.158244 0.271677 0.131033
0.222003 0.270880 0.130274
0.287427 0.270080 0.129513
0.354142 0.269276 0.128748
0.421788 0.268470 0.127981
0.490010 0.267662 0.127212
0.558453 0.266851 0.126441
0.626766 0.266040 0.125669
0.694595 0.265226 0.124895
0.761585 0.264411 0.124121
0.827382 0.263596 0.123345
0.891629 0.262779 0.122569
0.953969 0.261961 0.121791
1.000000 0.261142 0.121013
1.000000 0.260906 0.120789
0.035075 0.335713 0.130040
0.094106 0.334920 0.129296
0.155725 0.334119 0.128544
0.219425 0.333311 0.127786
0.284802 0.332500 0.127025
0.351483 0.331686 0.126262
0.419107 0.330868 0.125495
0.487320 0.330049 0.124727
0.555768 0.329228 0.123957
0.624098 0.328404 0.123186
0.691958 0.327580 0.122413
0.758992 0.326754 0.121640
0.824846 0.325926 0.120865
0.889164 0.325098 0.120089
0.951588 0.324268 0.119313
1.000000 0.323438 0.118536
1.000000 0.323199 0.118312
0.032715 0.398872 0.127552
0.091662 0.398072 0.126809
0.153209 0.397263 0.126058
0.216849 0.396449 0.125301
0.282179 0.395630 0.124541
0.348825 0.394808 0.123778
0.416427 0.393983 0.123013
0.484630 0.393156 0.122246
0.553082 0.392327 0.121477
0.621430 0.391496 0.120706
0.689319 0.390664 0.119935
0.756397 0.389830 0.119162
0.822308 0.388994 0.118388
0.886696 0.388158 0.117613
0.949203 0.387320 0.116838
1.000000 0.386481 0.116061
1.000000 0.386240 0.115838
0.030358 0.462457 0.125067
0.089221 0.461654 0.124325
0.150696 0.460841 0.123574
0.214276 0.460023 0.122819
0.279557 0.459200 0.122060
0.346167 0.458374 0.121298
0.413747 0.457546 0.120533
0.481941 0.456714 0.119767
0.550396 0.455881 0.118999
0.618760 0.455046 0.118229
0.686679 0.454209 0.117458
0.753800 0.453371 0.116687
0.819767 0.452531 0.115914
0.884225 0.451690 0.115140
0.946815 0.450848 0.114365
1.000000 0.450005 0.113590
1.000000 0.449763 0.113367
0.028004 0.526201 0.122585
0.086783 0.525397 0.121844
0.148185 0.524585 0.121094
0.211704 0.523766 0.120339
0.276937 0.522943 0.119581
0.343511 0.522116 0.118820
0.411068 0.521287 0.118056
0.479252 0.520455 0.117291
0.547710 0.519621 0.116524
0.616089 0.518785 0.115755
0.684038 0.517948 0.114985
0.751201 0.517109 0.114214
0.817224 0.516268 0.113442
0.881751 0.515426 0.112670
0.944424 0.514583 0.111896
1.000000 0.513739 0.111121
1.000000 0.513496 0.110899
0.025654 0.589835 0.120106
0.084349 0.589034 0.119365
0.145677 0.588224 0.118617
0.209134 0.587408 0.117863
0.274318 0.586588 0.117105
0.340856 0.585765 0.116345
0.408389 0.584938 0.115583
0.476562 0.584109 0.114818
0.545023 0.583278 0.114052
0.613418 0.582445 0.113284
0.681395 0.581611 0.112515
0.748600 0.580774 0.111745
0.814678 0.579936 0.110974
0.879274 0.579097 0.110202
0.942029 0.578257 0.109429
1.000000 0.577415 0.108656
1.000000 0.577173 0.108434
0.023308 0.653089 0.117630
0.081918 0.652295 0.116890
0.143172 0.651491 0.116142
0.206567 0.650682 0.115389
0.271701 0.649869 0.114633
0.338203 0.649052 0.113873
0.405711 0.648232 0.113112
0.473873 0.647409 0.112348
0.542335 0.646584 0.111583
0.610745 0.645758 0.110816
0.678751 0.644929 0.110048
0.745997 0.644099 0.109279
0.812130 0.643268 0.108509
0.876794 0.642435 0.107738
0.939631 0.641600 0.106966
1.000000 0.640765 0.106194
1.000000 0.640525 0.105972
0.020966 0.715696 0.115156
0.079489 0.714911 0.114417
0.140669 0.714118 0.113671
0.204002 0.713319 0.112919
0.269086 0.712515 0.112163
0.335550 0.711708 0.111405
0.403034 0.710898 0.110644
0.471184 0.710085 0.109881
0.539648 0.709270 0.109117
0.608072 0.708454 0.108351
0.676105 0.707635 0.107584
0.743392 0.706815 0.106816
0.809580 0.705993 0.106047
0.874311 0.705170 0.105277
0.937229 0.704345 0.104506
0.997975 0.703519 0.103734
1.000000 0.703282 0.103512
0.018628 0.777386 0.112686
0.077065 0.776615 0.111948
0.138169 0.775835 0.111202
0.201439 0.775049 0.110451
0.266473 0.774259 0.109696
0.332899 0.773465 0.108939
0.400358 0.772668 0.108179
0.468496 0.771869 0.107417
0.536960 0.771068 0.106654
0.605398 0.770264 0.105889
0.673458 0.769459 0.105123
0.740786 0.768652 0.104356
0.807027 0.767844 0.103587
0.871825 0.767034 0.102818
0.934824 0.766223 0.102048
0.995664 0.765410 0.101278
1.000000 0.765176 0.101056
0.016293 0.837892 0.110219
0.074643 0.837137 0.109482
0.135672 0.836374 0.108736
0.198879 0.835605 0.107986
0.263861 0.834831 0.107233
0.330249 0.834054 0.106476
0.397682 0.833275 0.105717
0.465807 0.832492 0.104956
0.534272 0.831708 0.104194
0.602723 0.830921 0.103430
0.670810 0.830133 0.102665
0.738178 0.829343 0.101899
0.804472 0.828551 0.101131
0.869337 0.827758 0.100363
0.932416 0.826964 0.099594
0.993349 0.826168 0.098825
1.000000 0.825939 0.098603
0.013962 0.896943 0.107754
0.072225 0.896209 0.107018
0.133178 0.895466 0.106274
0.196321 0.894717 0.105525
0.261252 0.893964 0.104772
0.327600 0.893207 0.104016
0.395007 0.892448 0.103258
0.463119 0.891686 0.102498
0.531583 0.890922 0.101737
0.600048 0.890156 0.100974
0.668160 0.889388 0.100210
0.735567 0.888619 0.099445
0.801914 0.887847 0.098678
0.866845 0.887075 0.097911
0.930004 0.886301 0.097143
0.991031 0.885525 0.096374
1.000000 0.885302 0.096154
0.011635 0.954273 0.105293
0.069810 0.953562 0.104558
0.130687 0.952842 0.103814
0.193765 0.952117 0.103066
0.258644 0.951388 0.102314
0.324953 0.950655 0.101560
0.392333 0.949920 0.100803
0.460431 0.949182 0.100044
0.528895 0.948442 0.099283
0.597372 0.947700 0.098521
0.665510 0.946956 0.097758
0.732955 0.946210 0.096994
0.799355 0.945463 0.096228
0.864351 0.944714 0.095462
0.927588 0.943964 0.094695
0.988708 0.943212 0.093927
1.000000 0.942996 0.093707
0.009312 1.000000 0.102835
0.067398 1.000000 0.102100
0.128198 1.000000 0.101358
0.191211 1.000000 0.100611
0.256038 1.000000 0.099860
0.322307 1.000000 0.099106
0.389660 1.000000 0.098350
0.457744 1.000000 0.097592
0.526206 1.000000 0.096832
0.594695 1.000000 0.096071
0.662858 1.000000 0.095309
0.730342 1.000000 0.094546
0.796793 1.000000 0.093781
0.861854 1.000000 0.093016
0.925170 0.999685 0.092250
0.986381 0.998961 0.091484
1.000000 0.998753 0.091263
0.046704 0.035497 0.201897
0.106137 0.034791 0.201131
0.168101 0.034077 0.200356
0.232088 0.033358 0.199577
0.297690 0.032636 0.198793
0.364535 0.031912 0.198007
0.432260 0.031185 0.197218
0.500511 0.030456 0.196427
0.568932 0.029726 0.195634
0.637172 0.028994 0.194840
0.704876 0.028262 0.194044
0.771689 0.027528 0.193247
0.837257 0.026794 0.192449
0.901223 0.026058 0.191650
0.963229 0.025322 0.190850
1.000000 0.024586 0.190049
1.000000 0.024374 0.189819
